(G-CODE GENERATED BY FLATCAM v8.994 - www.flatcam.org - Version Date: 2020/11/7)

(Name: MIDIViolina-PTH.drl_edit_cnc)
(Type: G-code from Geometry)
(Units: MM)

(Created on Tuesday, 06 December 2022 at 10:47)

(This preprocessor is the default preprocessor used by FlatCAM.)
(It is made to work with MACH3 compatible motion controllers.)


(TOOLS DIAMETER: )
(Tool: 1 -> Dia: 0.8)
(Tool: 2 -> Dia: 1.0)
(Tool: 3 -> Dia: 1.02)
(Tool: 4 -> Dia: 1.1)

(FEEDRATE Z: )
(Tool: 1 -> Feedrate: 36.0)
(Tool: 2 -> Feedrate: 36.0)
(Tool: 3 -> Feedrate: 36.0)
(Tool: 4 -> Feedrate: 36.0)

(FEEDRATE RAPIDS: )
(Tool: 1 -> Feedrate Rapids: 1500)
(Tool: 2 -> Feedrate Rapids: 1500)
(Tool: 3 -> Feedrate Rapids: 1500)
(Tool: 4 -> Feedrate Rapids: 1500)

(Z_CUT: )
(Tool: 1 -> Z_Cut: -2.1)
(Tool: 2 -> Z_Cut: -2.1)
(Tool: 3 -> Z_Cut: -2.1)
(Tool: 4 -> Z_Cut: -2.1)

(Tools Offset: )
(Tool: 1 -> Offset Z: 0.0)
(Tool: 2 -> Offset Z: 0.0)
(Tool: 3 -> Offset Z: 0.0)
(Tool: 4 -> Offset Z: 0.0)

(Z_MOVE: )
(Tool: 1 -> Z_Move: 2.0)
(Tool: 2 -> Z_Move: 2.0)
(Tool: 3 -> Z_Move: 2.0)
(Tool: 4 -> Z_Move: 2.0)

(Z Toolchange: 5.0 mm)
(X,Y Toolchange: 0.0000, 0.0000 mm)
(Z Start: None mm)
(Z End: 0.5 mm)
(X,Y End: None mm)
(Steps per circle: 64)
(Preprocessor Excellon: default)

(X range:    1.9900 ...   67.8600  mm)
(Y range:    3.5300 ...   97.2900  mm)

(Spindle Speed: 2000 RPM)
G21
G90
G94

G01 F36.00

M5
G00 Z5.0000
T1
G00 X0.0000 Y0.0000                
M6
(MSG, Change to Tool Dia = 0.8000 ||| Total drills for tool T1 = 246)
M0
G00 Z5.0000

G01 F36.00
M03 S2000
G00 X2.5400 Y6.6200
G01 Z-2.1000
G01 Z0
G00 Z2.0000
G00 X2.5400 Y4.0800
G01 Z-2.1000
G01 Z0
G00 Z2.0000
G00 X5.0800 Y4.0800
G01 Z-2.1000
G01 Z0
G00 Z2.0000
G00 X7.6200 Y4.0800
G01 Z-2.1000
G01 Z0
G00 Z2.0000
G00 X10.1600 Y4.0800
G01 Z-2.1000
G01 Z0
G00 Z2.0000
G00 X12.7000 Y6.6200
G01 Z-2.1000
G01 Z0
G00 Z2.0000
G00 X15.2400 Y4.0800
G01 Z-2.1000
G01 Z0
G00 Z2.0000
G00 X20.3200 Y6.6200
G01 Z-2.1000
G01 Z0
G00 Z2.0000
G00 X20.3200 Y4.0800
G01 Z-2.1000
G01 Z0
G00 Z2.0000
G00 X22.8600 Y4.0800
G01 Z-2.1000
G01 Z0
G00 Z2.0000
G00 X25.4000 Y4.0800
G01 Z-2.1000
G01 Z0
G00 Z2.0000
G00 X27.9400 Y4.0800
G01 Z-2.1000
G01 Z0
G00 Z2.0000
G00 X30.4800 Y6.6200
G01 Z-2.1000
G01 Z0
G00 Z2.0000
G00 X38.1000 Y6.6200
G01 Z-2.1000
G01 Z0
G00 Z2.0000
G00 X40.6400 Y6.6200
G01 Z-2.1000
G01 Z0
G00 Z2.0000
G00 X43.1800 Y6.6200
G01 Z-2.1000
G01 Z0
G00 Z2.0000
G00 X38.1000 Y9.1600
G01 Z-2.1000
G01 Z0
G00 Z2.0000
G00 X38.1000 Y11.7000
G01 Z-2.1000
G01 Z0
G00 Z2.0000
G00 X40.6400 Y11.7000
G01 Z-2.1000
G01 Z0
G00 Z2.0000
G00 X45.7200 Y11.7000
G01 Z-2.1000
G01 Z0
G00 Z2.0000
G00 X45.7200 Y9.1600
G01 Z-2.1000
G01 Z0
G00 Z2.0000
G00 X54.6100 Y9.1600
G01 Z-2.1000
G01 Z0
G00 Z2.0000
G00 X54.6100 Y6.6200
G01 Z-2.1000
G01 Z0
G00 Z2.0000
G00 X57.1500 Y6.6200
G01 Z-2.1000
G01 Z0
G00 Z2.0000
G00 X59.6900 Y6.6200
G01 Z-2.1000
G01 Z0
G00 Z2.0000
G00 X62.2300 Y9.1600
G01 Z-2.1000
G01 Z0
G00 Z2.0000
G00 X57.1500 Y11.7000
G01 Z-2.1000
G01 Z0
G00 Z2.0000
G00 X54.6100 Y11.7000
G01 Z-2.1000
G01 Z0
G00 Z2.0000
G00 X54.6100 Y21.8600
G01 Z-2.1000
G01 Z0
G00 Z2.0000
G00 X54.6100 Y24.4000
G01 Z-2.1000
G01 Z0
G00 Z2.0000
G00 X57.1500 Y21.8600
G01 Z-2.1000
G01 Z0
G00 Z2.0000
G00 X59.6900 Y21.8600
G01 Z-2.1000
G01 Z0
G00 Z2.0000
G00 X62.2300 Y24.4000
G01 Z-2.1000
G01 Z0
G00 Z2.0000
G00 X62.2300 Y29.4800
G01 Z-2.1000
G01 Z0
G00 Z2.0000
G00 X57.1500 Y26.9400
G01 Z-2.1000
G01 Z0
G00 Z2.0000
G00 X54.6100 Y26.9400
G01 Z-2.1000
G01 Z0
G00 Z2.0000
G00 X54.6100 Y29.4800
G01 Z-2.1000
G01 Z0
G00 Z2.0000
G00 X45.7200 Y29.4800
G01 Z-2.1000
G01 Z0
G00 Z2.0000
G00 X45.7200 Y26.9400
G01 Z-2.1000
G01 Z0
G00 Z2.0000
G00 X45.7200 Y24.4000
G01 Z-2.1000
G01 Z0
G00 Z2.0000
G00 X43.1800 Y21.8600
G01 Z-2.1000
G01 Z0
G00 Z2.0000
G00 X40.6400 Y21.8600
G01 Z-2.1000
G01 Z0
G00 Z2.0000
G00 X38.1000 Y21.8600
G01 Z-2.1000
G01 Z0
G00 Z2.0000
G00 X38.1000 Y24.4000
G01 Z-2.1000
G01 Z0
G00 Z2.0000
G00 X38.1000 Y26.9400
G01 Z-2.1000
G01 Z0
G00 Z2.0000
G00 X40.6400 Y26.9400
G01 Z-2.1000
G01 Z0
G00 Z2.0000
G00 X35.5600 Y40.9100
G01 Z-2.1000
G01 Z0
G00 Z2.0000
G00 X38.1000 Y40.9100
G01 Z-2.1000
G01 Z0
G00 Z2.0000
G00 X40.6400 Y40.9100
G01 Z-2.1000
G01 Z0
G00 Z2.0000
G00 X43.1800 Y40.9100
G01 Z-2.1000
G01 Z0
G00 Z2.0000
G00 X46.9800 Y48.5300
G01 Z-2.1000
G01 Z0
G00 Z2.0000
G00 X44.4400 Y48.5300
G01 Z-2.1000
G01 Z0
G00 Z2.0000
G00 X41.9000 Y48.5300
G01 Z-2.1000
G01 Z0
G00 Z2.0000
G00 X41.9100 Y51.0800
G01 Z-2.1000
G01 Z0
G00 Z2.0000
G00 X39.3700 Y51.0800
G01 Z-2.1000
G01 Z0
G00 Z2.0000
G00 X36.8300 Y51.0800
G01 Z-2.1000
G01 Z0
G00 Z2.0000
G00 X39.3550 Y56.1500
G01 Z-2.1000
G01 Z0
G00 Z2.0000
G00 X39.3550 Y58.6900
G01 Z-2.1000
G01 Z0
G00 Z2.0000
G00 X41.8950 Y58.6900
G01 Z-2.1000
G01 Z0
G00 Z2.0000
G00 X44.4350 Y58.6900
G01 Z-2.1000
G01 Z0
G00 Z2.0000
G00 X44.4350 Y56.1500
G01 Z-2.1000
G01 Z0
G00 Z2.0000
G00 X41.8950 Y56.1500
G01 Z-2.1000
G01 Z0
G00 Z2.0000
G00 X44.4500 Y51.0800
G01 Z-2.1000
G01 Z0
G00 Z2.0000
G00 X46.9900 Y51.0800
G01 Z-2.1000
G01 Z0
G00 Z2.0000
G00 X49.5300 Y51.0800
G01 Z-2.1000
G01 Z0
G00 Z2.0000
G00 X54.6100 Y54.8800
G01 Z-2.1000
G01 Z0
G00 Z2.0000
G00 X54.6100 Y51.0800
G01 Z-2.1000
G01 Z0
G00 Z2.0000
G00 X52.0700 Y51.0800
G01 Z-2.1000
G01 Z0
G00 Z2.0000
G00 X49.5200 Y48.5300
G01 Z-2.1000
G01 Z0
G00 Z2.0000
G00 X55.8800 Y38.3700
G01 Z-2.1000
G01 Z0
G00 Z2.0000
G00 X60.3330 Y38.3700
G01 Z-2.1000
G01 Z0
G00 Z2.0000
G00 X62.2300 Y45.9750
G01 Z-2.1000
G01 Z0
G00 Z2.0000
G00 X62.2300 Y48.5150
G01 Z-2.1000
G01 Z0
G00 Z2.0000
G00 X62.2300 Y51.0550
G01 Z-2.1000
G01 Z0
G00 Z2.0000
G00 X67.3100 Y54.8800
G01 Z-2.1000
G01 Z0
G00 Z2.0000
G00 X67.3100 Y59.9600
G01 Z-2.1000
G01 Z0
G00 Z2.0000
G00 X64.7700 Y59.9600
G01 Z-2.1000
G01 Z0
G00 Z2.0000
G00 X62.2300 Y59.9600
G01 Z-2.1000
G01 Z0
G00 Z2.0000
G00 X59.6900 Y63.7700
G01 Z-2.1000
G01 Z0
G00 Z2.0000
G00 X62.2300 Y63.7700
G01 Z-2.1000
G01 Z0
G00 Z2.0000
G00 X64.7700 Y63.7700
G01 Z-2.1000
G01 Z0
G00 Z2.0000
G00 X67.3100 Y63.7700
G01 Z-2.1000
G01 Z0
G00 Z2.0000
G00 X67.3100 Y81.5500
G01 Z-2.1000
G01 Z0
G00 Z2.0000
G00 X62.2300 Y81.5500
G01 Z-2.1000
G01 Z0
G00 Z2.0000
G00 X54.6100 Y94.6150
G01 Z-2.1000
G01 Z0
G00 Z2.0000
G00 X57.1500 Y94.6150
G01 Z-2.1000
G01 Z0
G00 Z2.0000
G00 X59.6900 Y94.6150
G01 Z-2.1000
G01 Z0
G00 Z2.0000
G00 X59.6800 Y96.7900
G01 Z-2.1000
G01 Z0
G00 Z2.0000
G00 X57.1400 Y96.7900
G01 Z-2.1000
G01 Z0
G00 Z2.0000
G00 X54.6000 Y96.7900
G01 Z-2.1000
G01 Z0
G00 Z2.0000
G00 X52.0600 Y96.7900
G01 Z-2.1000
G01 Z0
G00 Z2.0000
G00 X52.0700 Y94.6150
G01 Z-2.1000
G01 Z0
G00 Z2.0000
G00 X49.5300 Y94.6150
G01 Z-2.1000
G01 Z0
G00 Z2.0000
G00 X46.9900 Y94.6150
G01 Z-2.1000
G01 Z0
G00 Z2.0000
G00 X44.4500 Y94.6150
G01 Z-2.1000
G01 Z0
G00 Z2.0000
G00 X41.9100 Y94.6150
G01 Z-2.1000
G01 Z0
G00 Z2.0000
G00 X39.3700 Y94.6150
G01 Z-2.1000
G01 Z0
G00 Z2.0000
G00 X36.8300 Y94.6150
G01 Z-2.1000
G01 Z0
G00 Z2.0000
G00 X34.2900 Y94.6150
G01 Z-2.1000
G01 Z0
G00 Z2.0000
G00 X31.7500 Y94.6150
G01 Z-2.1000
G01 Z0
G00 Z2.0000
G00 X29.2100 Y94.6150
G01 Z-2.1000
G01 Z0
G00 Z2.0000
G00 X26.6700 Y94.6150
G01 Z-2.1000
G01 Z0
G00 Z2.0000
G00 X24.1300 Y94.6150
G01 Z-2.1000
G01 Z0
G00 Z2.0000
G00 X16.5100 Y81.5800
G01 Z-2.1000
G01 Z0
G00 Z2.0000
G00 X16.5100 Y84.1200
G01 Z-2.1000
G01 Z0
G00 Z2.0000
G00 X16.4800 Y86.6600
G01 Z-2.1000
G01 Z0
G00 Z2.0000
G00 X16.4800 Y89.2000
G01 Z-2.1000
G01 Z0
G00 Z2.0000
G00 X16.5100 Y91.7100
G01 Z-2.1000
G01 Z0
G00 Z2.0000
G00 X12.6850 Y91.7250
G01 Z-2.1000
G01 Z0
G00 Z2.0000
G00 X12.6850 Y89.1850
G01 Z-2.1000
G01 Z0
G00 Z2.0000
G00 X12.6850 Y86.6450
G01 Z-2.1000
G01 Z0
G00 Z2.0000
G00 X12.6850 Y84.1050
G01 Z-2.1000
G01 Z0
G00 Z2.0000
G00 X12.6850 Y81.5650
G01 Z-2.1000
G01 Z0
G00 Z2.0000
G00 X12.6850 Y79.0250
G01 Z-2.1000
G01 Z0
G00 Z2.0000
G00 X12.6850 Y76.4850
G01 Z-2.1000
G01 Z0
G00 Z2.0000
G00 X15.2400 Y76.5000
G01 Z-2.1000
G01 Z0
G00 Z2.0000
G00 X12.6850 Y73.9450
G01 Z-2.1000
G01 Z0
G00 Z2.0000
G00 X5.0650 Y73.9450
G01 Z-2.1000
G01 Z0
G00 Z2.0000
G00 X5.0650 Y76.4850
G01 Z-2.1000
G01 Z0
G00 Z2.0000
G00 X5.0650 Y79.0250
G01 Z-2.1000
G01 Z0
G00 Z2.0000
G00 X5.0650 Y81.5650
G01 Z-2.1000
G01 Z0
G00 Z2.0000
G00 X5.0650 Y84.1050
G01 Z-2.1000
G01 Z0
G00 Z2.0000
G00 X5.0650 Y86.6450
G01 Z-2.1000
G01 Z0
G00 Z2.0000
G00 X5.0650 Y89.1850
G01 Z-2.1000
G01 Z0
G00 Z2.0000
G00 X5.0650 Y91.7250
G01 Z-2.1000
G01 Z0
G00 Z2.0000
G00 X2.5400 Y89.1700
G01 Z-2.1000
G01 Z0
G00 Z2.0000
G00 X2.5400 Y86.6600
G01 Z-2.1000
G01 Z0
G00 Z2.0000
G00 X2.5400 Y84.1200
G01 Z-2.1000
G01 Z0
G00 Z2.0000
G00 X2.5400 Y81.5800
G01 Z-2.1000
G01 Z0
G00 Z2.0000
G00 X2.5400 Y79.0400
G01 Z-2.1000
G01 Z0
G00 Z2.0000
G00 X2.5400 Y76.5000
G01 Z-2.1000
G01 Z0
G00 Z2.0000
G00 X2.5400 Y73.9600
G01 Z-2.1000
G01 Z0
G00 Z2.0000
G00 X2.5400 Y65.0400
G01 Z-2.1000
G01 Z0
G00 Z2.0000
G00 X5.0800 Y65.0400
G01 Z-2.1000
G01 Z0
G00 Z2.0000
G00 X24.1300 Y69.2150
G01 Z-2.1000
G01 Z0
G00 Z2.0000
G00 X26.6700 Y69.2150
G01 Z-2.1000
G01 Z0
G00 Z2.0000
G00 X29.2100 Y69.2150
G01 Z-2.1000
G01 Z0
G00 Z2.0000
G00 X31.7500 Y69.2150
G01 Z-2.1000
G01 Z0
G00 Z2.0000
G00 X34.2900 Y69.2150
G01 Z-2.1000
G01 Z0
G00 Z2.0000
G00 X36.8300 Y69.2150
G01 Z-2.1000
G01 Z0
G00 Z2.0000
G00 X39.3700 Y69.2150
G01 Z-2.1000
G01 Z0
G00 Z2.0000
G00 X41.9100 Y69.2150
G01 Z-2.1000
G01 Z0
G00 Z2.0000
G00 X44.4500 Y69.2150
G01 Z-2.1000
G01 Z0
G00 Z2.0000
G00 X46.9900 Y69.2150
G01 Z-2.1000
G01 Z0
G00 Z2.0000
G00 X49.5300 Y69.2150
G01 Z-2.1000
G01 Z0
G00 Z2.0000
G00 X52.0700 Y69.2150
G01 Z-2.1000
G01 Z0
G00 Z2.0000
G00 X54.6100 Y69.2150
G01 Z-2.1000
G01 Z0
G00 Z2.0000
G00 X57.1500 Y69.2150
G01 Z-2.1000
G01 Z0
G00 Z2.0000
G00 X59.6900 Y69.2150
G01 Z-2.1000
G01 Z0
G00 Z2.0000
G00 X54.6100 Y63.7800
G01 Z-2.1000
G01 Z0
G00 Z2.0000
G00 X52.0700 Y63.7800
G01 Z-2.1000
G01 Z0
G00 Z2.0000
G00 X49.5300 Y63.7800
G01 Z-2.1000
G01 Z0
G00 Z2.0000
G00 X46.9900 Y63.7800
G01 Z-2.1000
G01 Z0
G00 Z2.0000
G00 X44.4500 Y63.7800
G01 Z-2.1000
G01 Z0
G00 Z2.0000
G00 X41.9100 Y63.7800
G01 Z-2.1000
G01 Z0
G00 Z2.0000
G00 X39.3700 Y63.7800
G01 Z-2.1000
G01 Z0
G00 Z2.0000
G00 X36.8300 Y63.7800
G01 Z-2.1000
G01 Z0
G00 Z2.0000
G00 X31.7500 Y61.2300
G01 Z-2.1000
G01 Z0
G00 Z2.0000
G00 X29.2100 Y61.2300
G01 Z-2.1000
G01 Z0
G00 Z2.0000
G00 X26.6700 Y61.2300
G01 Z-2.1000
G01 Z0
G00 Z2.0000
G00 X24.1300 Y61.2300
G01 Z-2.1000
G01 Z0
G00 Z2.0000
G00 X22.8600 Y53.6100
G01 Z-2.1000
G01 Z0
G00 Z2.0000
G00 X20.3200 Y53.6100
G01 Z-2.1000
G01 Z0
G00 Z2.0000
G00 X12.7000 Y57.4200
G01 Z-2.1000
G01 Z0
G00 Z2.0000
G00 X10.1600 Y54.8800
G01 Z-2.1000
G01 Z0
G00 Z2.0000
G00 X7.6200 Y54.8800
G01 Z-2.1000
G01 Z0
G00 Z2.0000
G00 X5.0800 Y54.8800
G01 Z-2.1000
G01 Z0
G00 Z2.0000
G00 X5.0800 Y57.4200
G01 Z-2.1000
G01 Z0
G00 Z2.0000
G00 X7.6200 Y59.9600
G01 Z-2.1000
G01 Z0
G00 Z2.0000
G00 X5.0800 Y59.9600
G01 Z-2.1000
G01 Z0
G00 Z2.0000
G00 X2.5400 Y57.4200
G01 Z-2.1000
G01 Z0
G00 Z2.0000
G00 X2.5400 Y54.8800
G01 Z-2.1000
G01 Z0
G00 Z2.0000
G00 X2.5400 Y52.3400
G01 Z-2.1000
G01 Z0
G00 Z2.0000
G00 X5.0800 Y52.3400
G01 Z-2.1000
G01 Z0
G00 Z2.0000
G00 X7.6200 Y47.2600
G01 Z-2.1000
G01 Z0
G00 Z2.0000
G00 X5.0800 Y47.2600
G01 Z-2.1000
G01 Z0
G00 Z2.0000
G00 X5.0800 Y44.7200
G01 Z-2.1000
G01 Z0
G00 Z2.0000
G00 X2.5400 Y44.7200
G01 Z-2.1000
G01 Z0
G00 Z2.0000
G00 X2.5400 Y42.1800
G01 Z-2.1000
G01 Z0
G00 Z2.0000
G00 X2.5400 Y39.6400
G01 Z-2.1000
G01 Z0
G00 Z2.0000
G00 X5.0800 Y39.6400
G01 Z-2.1000
G01 Z0
G00 Z2.0000
G00 X5.0800 Y42.1800
G01 Z-2.1000
G01 Z0
G00 Z2.0000
G00 X7.6200 Y42.1800
G01 Z-2.1000
G01 Z0
G00 Z2.0000
G00 X10.1600 Y42.1800
G01 Z-2.1000
G01 Z0
G00 Z2.0000
G00 X12.7000 Y44.7200
G01 Z-2.1000
G01 Z0
G00 Z2.0000
G00 X20.3200 Y45.9900
G01 Z-2.1000
G01 Z0
G00 Z2.0000
G00 X22.8600 Y45.9900
G01 Z-2.1000
G01 Z0
G00 Z2.0000
G00 X22.8600 Y48.5300
G01 Z-2.1000
G01 Z0
G00 Z2.0000
G00 X25.4000 Y48.5300
G01 Z-2.1000
G01 Z0
G00 Z2.0000
G00 X30.4800 Y45.9900
G01 Z-2.1000
G01 Z0
G00 Z2.0000
G00 X27.9400 Y43.4500
G01 Z-2.1000
G01 Z0
G00 Z2.0000
G00 X25.4000 Y43.4500
G01 Z-2.1000
G01 Z0
G00 Z2.0000
G00 X22.8600 Y43.4500
G01 Z-2.1000
G01 Z0
G00 Z2.0000
G00 X20.3200 Y43.4500
G01 Z-2.1000
G01 Z0
G00 Z2.0000
G00 X20.3200 Y39.6400
G01 Z-2.1000
G01 Z0
G00 Z2.0000
G00 X22.8600 Y39.6400
G01 Z-2.1000
G01 Z0
G00 Z2.0000
G00 X22.8600 Y34.5600
G01 Z-2.1000
G01 Z0
G00 Z2.0000
G00 X20.3200 Y32.0200
G01 Z-2.1000
G01 Z0
G00 Z2.0000
G00 X20.3200 Y29.4800
G01 Z-2.1000
G01 Z0
G00 Z2.0000
G00 X22.8600 Y29.4800
G01 Z-2.1000
G01 Z0
G00 Z2.0000
G00 X22.8600 Y32.0200
G01 Z-2.1000
G01 Z0
G00 Z2.0000
G00 X25.4000 Y34.5600
G01 Z-2.1000
G01 Z0
G00 Z2.0000
G00 X30.4800 Y32.0200
G01 Z-2.1000
G01 Z0
G00 Z2.0000
G00 X27.9400 Y29.4800
G01 Z-2.1000
G01 Z0
G00 Z2.0000
G00 X25.4000 Y29.4800
G01 Z-2.1000
G01 Z0
G00 Z2.0000
G00 X22.8600 Y26.9400
G01 Z-2.1000
G01 Z0
G00 Z2.0000
G00 X20.3200 Y26.9400
G01 Z-2.1000
G01 Z0
G00 Z2.0000
G00 X22.8600 Y21.8600
G01 Z-2.1000
G01 Z0
G00 Z2.0000
G00 X25.4000 Y21.8600
G01 Z-2.1000
G01 Z0
G00 Z2.0000
G00 X30.4800 Y19.3200
G01 Z-2.1000
G01 Z0
G00 Z2.0000
G00 X27.9400 Y16.7800
G01 Z-2.1000
G01 Z0
G00 Z2.0000
G00 X25.4000 Y16.7800
G01 Z-2.1000
G01 Z0
G00 Z2.0000
G00 X22.8600 Y14.2400
G01 Z-2.1000
G01 Z0
G00 Z2.0000
G00 X25.4000 Y9.1600
G01 Z-2.1000
G01 Z0
G00 Z2.0000
G00 X22.8600 Y6.6200
G01 Z-2.1000
G01 Z0
G00 Z2.0000
G00 X22.8600 Y9.1600
G01 Z-2.1000
G01 Z0
G00 Z2.0000
G00 X20.3200 Y14.2400
G01 Z-2.1000
G01 Z0
G00 Z2.0000
G00 X20.3200 Y16.7800
G01 Z-2.1000
G01 Z0
G00 Z2.0000
G00 X22.8600 Y16.7800
G01 Z-2.1000
G01 Z0
G00 Z2.0000
G00 X22.8600 Y19.3200
G01 Z-2.1000
G01 Z0
G00 Z2.0000
G00 X20.3200 Y19.3200
G01 Z-2.1000
G01 Z0
G00 Z2.0000
G00 X12.7000 Y19.3200
G01 Z-2.1000
G01 Z0
G00 Z2.0000
G00 X10.1600 Y16.7800
G01 Z-2.1000
G01 Z0
G00 Z2.0000
G00 X7.6200 Y16.7800
G01 Z-2.1000
G01 Z0
G00 Z2.0000
G00 X5.0800 Y16.7800
G01 Z-2.1000
G01 Z0
G00 Z2.0000
G00 X5.0800 Y19.3200
G01 Z-2.1000
G01 Z0
G00 Z2.0000
G00 X5.0800 Y21.8600
G01 Z-2.1000
G01 Z0
G00 Z2.0000
G00 X7.6200 Y21.8600
G01 Z-2.1000
G01 Z0
G00 Z2.0000
G00 X5.0800 Y26.9400
G01 Z-2.1000
G01 Z0
G00 Z2.0000
G00 X5.0800 Y29.4800
G01 Z-2.1000
G01 Z0
G00 Z2.0000
G00 X7.6200 Y29.4800
G01 Z-2.1000
G01 Z0
G00 Z2.0000
G00 X10.1600 Y29.4800
G01 Z-2.1000
G01 Z0
G00 Z2.0000
G00 X12.7000 Y32.0200
G01 Z-2.1000
G01 Z0
G00 Z2.0000
G00 X7.6200 Y34.5600
G01 Z-2.1000
G01 Z0
G00 Z2.0000
G00 X5.0800 Y34.5600
G01 Z-2.1000
G01 Z0
G00 Z2.0000
G00 X5.0800 Y32.0200
G01 Z-2.1000
G01 Z0
G00 Z2.0000
G00 X2.5400 Y32.0200
G01 Z-2.1000
G01 Z0
G00 Z2.0000
G00 X2.5400 Y29.4800
G01 Z-2.1000
G01 Z0
G00 Z2.0000
G00 X2.5400 Y26.9400
G01 Z-2.1000
G01 Z0
G00 Z2.0000
G00 X2.5400 Y19.3200
G01 Z-2.1000
G01 Z0
G00 Z2.0000
G00 X2.5400 Y16.7800
G01 Z-2.1000
G01 Z0
G00 Z2.0000
G00 X2.5400 Y14.2400
G01 Z-2.1000
G01 Z0
G00 Z2.0000
G00 X5.0800 Y14.2400
G01 Z-2.1000
G01 Z0
G00 Z2.0000
G00 X7.6200 Y9.1600
G01 Z-2.1000
G01 Z0
G00 Z2.0000
G00 X5.0800 Y9.1600
G01 Z-2.1000
G01 Z0
G00 Z2.0000
G00 X5.0800 Y6.6200
G01 Z-2.1000
G01 Z0
G00 Z2.0000
M05
G00 Z0.50


