(G-CODE GENERATED BY FLATCAM v8.994 - www.flatcam.org - Version Date: 2020/11/7)

(Name: MIDIViolina-B_Cu.gbr_edit_iso_combined_cnc)
(Type: G-code from Geometry)
(Units: MM)

(Created on Monday, 05 December 2022 at 19:29)

(This preprocessor is the default preprocessor used by FlatCAM.)
(It is made to work with MACH3 compatible motion controllers.)

(TOOL DIAMETER: 0.2388 mm)
(Feedrate_XY: 120.0 mm/min)
(Feedrate_Z: 60.0 mm/min)
(Feedrate rapids 1500.0 mm/min)

(Z_Cut: -0.11 mm)
(Z_Move: 1.0 mm)
(Z Start: None mm)
(Z End: 5.0 mm)
(X,Y End: None mm)
(Steps per circle: 64)
(Preprocessor Geometry: default)

(X range:    1.1616 ...   69.3000  mm)
(Y range:    0.6466 ...   98.5000  mm)

(Spindle Speed: 2000.0 RPM)
G21
G90
G94

G01 F120.00

M5
G00 Z15.0000
G00 X0.0000 Y0.0000
T1
M6    
(MSG, Change to Tool Dia = 0.2388)
M0
G00 Z15.0000

M03 S2000.0
G01 F120.00
G00 X1.6025 Y2.8293
G01 F60.00
G01 Z-0.1100
G01 F120.00
G01 X3.5075 Y2.8293
G01 X3.5198 Y2.8296
G01 X3.5321 Y2.8305
G01 X3.5505 Y2.8330
G01 X3.5686 Y2.8368
G01 X3.5863 Y2.8420
G01 X3.6037 Y2.8484
G01 X3.6204 Y2.8561
G01 X3.6365 Y2.8650
G01 X3.6520 Y2.8751
G01 X3.6618 Y2.8824
G01 X3.6713 Y2.8902
G01 X3.6848 Y2.9027
G01 X3.6973 Y2.9162
G01 X3.7051 Y2.9257
G01 X3.7124 Y2.9355
G01 X3.7225 Y2.9510
G01 X3.7314 Y2.9671
G01 X3.7391 Y2.9838
G01 X3.7455 Y3.0012
G01 X3.7507 Y3.0189
G01 X3.7545 Y3.0370
G01 X3.7563 Y3.0492
G01 X3.7579 Y3.0677
G01 X3.7582 Y3.0800
G01 X3.7582 Y5.0800
G01 X3.7579 Y5.0923
G01 X3.7570 Y5.1046
G01 X3.7555 Y5.1169
G01 X3.7534 Y5.1290
G01 X3.7491 Y5.1470
G01 X3.7455 Y5.1588
G01 X3.7414 Y5.1704
G01 X3.7366 Y5.1818
G01 X3.7285 Y5.1984
G01 X3.7225 Y5.2090
G01 X3.7159 Y5.2194
G01 X3.7051 Y5.2343
G01 X3.6933 Y5.2484
G01 X3.6848 Y5.2573
G01 X3.6759 Y5.2658
G01 X3.6618 Y5.2776
G01 X3.6520 Y5.2849
G01 X3.6365 Y5.2950
G01 X3.6204 Y5.3039
G01 X3.6093 Y5.3091
G01 X3.5922 Y5.3160
G01 X3.5805 Y5.3199
G01 X3.5686 Y5.3232
G01 X3.5565 Y5.3259
G01 X3.5444 Y5.3280
G01 X3.5260 Y5.3301
G01 X3.5075 Y5.3307
G01 X3.3060 Y5.3307
G01 X3.3060 Y5.8854
G01 X3.3592 Y5.9441
G01 X3.3676 Y5.9538
G01 X3.3748 Y5.9631
G01 X3.4216 Y6.0262
G01 X3.4288 Y6.0365
G01 X3.4352 Y6.0466
G01 X3.4756 Y6.1140
G01 X3.4819 Y6.1251
G01 X3.4872 Y6.1357
G01 X3.5208 Y6.2066
G01 X3.5257 Y6.2177
G01 X3.5302 Y6.2294
G01 X3.5566 Y6.3033
G01 X3.5607 Y6.3157
G01 X3.5829 Y6.4030
G01 X3.5856 Y6.4154
G01 X3.5877 Y6.4271
G01 X3.6006 Y6.5166
G01 X3.6016 Y6.5293
G01 X3.6054 Y6.6077
G01 X3.6057 Y6.6200
G01 X3.6054 Y6.6323
G01 X3.6016 Y6.7107
G01 X3.6006 Y6.7234
G01 X3.5877 Y6.8129
G01 X3.5856 Y6.8246
G01 X3.5829 Y6.8370
G01 X3.5638 Y6.9132
G01 X3.5607 Y6.9243
G01 X3.5566 Y6.9367
G01 X3.5302 Y7.0106
G01 X3.5257 Y7.0223
G01 X3.5208 Y7.0334
G01 X3.4819 Y7.1149
G01 X3.4756 Y7.1260
G01 X3.4352 Y7.1934
G01 X3.4288 Y7.2035
G01 X3.4216 Y7.2138
G01 X3.3676 Y7.2862
G01 X3.3592 Y7.2959
G01 X3.3065 Y7.3541
G01 X3.2980 Y7.3630
G01 X3.2891 Y7.3715
G01 X3.2309 Y7.4242
G01 X3.2212 Y7.4326
G01 X3.2119 Y7.4398
G01 X3.1488 Y7.4866
G01 X3.1385 Y7.4938
G01 X3.1284 Y7.5002
G01 X3.0610 Y7.5406
G01 X3.0499 Y7.5469
G01 X3.0393 Y7.5522
G01 X2.9684 Y7.5858
G01 X2.9573 Y7.5907
G01 X2.9456 Y7.5952
G01 X2.8717 Y7.6216
G01 X2.8593 Y7.6257
G01 X2.8482 Y7.6288
G01 X2.7720 Y7.6479
G01 X2.7596 Y7.6506
G01 X2.7479 Y7.6527
G01 X2.6584 Y7.6656
G01 X2.6457 Y7.6666
G01 X2.5673 Y7.6704
G01 X2.5550 Y7.6707
G01 X2.5427 Y7.6704
G01 X2.4643 Y7.6666
G01 X2.4516 Y7.6656
G01 X2.3621 Y7.6527
G01 X2.3504 Y7.6506
G01 X2.3380 Y7.6479
G01 X2.2507 Y7.6257
G01 X2.2383 Y7.6216
G01 X2.1644 Y7.5952
G01 X2.1527 Y7.5907
G01 X2.1416 Y7.5858
G01 X2.0707 Y7.5522
G01 X2.0545 Y7.5438
G01 X1.9816 Y7.5002
G01 X1.9715 Y7.4938
G01 X1.9612 Y7.4866
G01 X1.8888 Y7.4326
G01 X1.8791 Y7.4242
G01 X1.8209 Y7.3715
G01 X1.8120 Y7.3630
G01 X1.8035 Y7.3541
G01 X1.7508 Y7.2959
G01 X1.7424 Y7.2862
G01 X1.6884 Y7.2138
G01 X1.6812 Y7.2035
G01 X1.6748 Y7.1934
G01 X1.6344 Y7.1260
G01 X1.6281 Y7.1149
G01 X1.5892 Y7.0334
G01 X1.5843 Y7.0223
G01 X1.5798 Y7.0106
G01 X1.5534 Y6.9367
G01 X1.5493 Y6.9243
G01 X1.5462 Y6.9132
G01 X1.5271 Y6.8370
G01 X1.5244 Y6.8246
G01 X1.5223 Y6.8129
G01 X1.5094 Y6.7234
G01 X1.5084 Y6.7107
G01 X1.5046 Y6.6323
G01 X1.5043 Y6.6200
G01 X1.5046 Y6.6077
G01 X1.5084 Y6.5293
G01 X1.5094 Y6.5166
G01 X1.5108 Y6.5048
G01 X1.5233 Y6.4212
G01 X1.5271 Y6.4030
G01 X1.5462 Y6.3268
G01 X1.5493 Y6.3157
G01 X1.5534 Y6.3033
G01 X1.5798 Y6.2294
G01 X1.5843 Y6.2177
G01 X1.5892 Y6.2066
G01 X1.6281 Y6.1251
G01 X1.6344 Y6.1140
G01 X1.6748 Y6.0466
G01 X1.6812 Y6.0365
G01 X1.6884 Y6.0262
G01 X1.7424 Y5.9538
G01 X1.7508 Y5.9441
G01 X1.8040 Y5.8854
G01 X1.8040 Y5.3307
G01 X1.6025 Y5.3307
G01 X1.5840 Y5.3301
G01 X1.5656 Y5.3280
G01 X1.5535 Y5.3259
G01 X1.5414 Y5.3232
G01 X1.5295 Y5.3199
G01 X1.5178 Y5.3160
G01 X1.5007 Y5.3091
G01 X1.4896 Y5.3039
G01 X1.4735 Y5.2950
G01 X1.4631 Y5.2884
G01 X1.4482 Y5.2776
G01 X1.4341 Y5.2658
G01 X1.4252 Y5.2573
G01 X1.4167 Y5.2484
G01 X1.4049 Y5.2343
G01 X1.3941 Y5.2194
G01 X1.3875 Y5.2090
G01 X1.3786 Y5.1929
G01 X1.3734 Y5.1818
G01 X1.3686 Y5.1704
G01 X1.3626 Y5.1530
G01 X1.3593 Y5.1411
G01 X1.3566 Y5.1290
G01 X1.3545 Y5.1169
G01 X1.3530 Y5.1046
G01 X1.3521 Y5.0923
G01 X1.3518 Y5.0800
G01 X1.3518 Y3.0738
G01 X1.3524 Y3.0615
G01 X1.3537 Y3.0492
G01 X1.3555 Y3.0370
G01 X1.3579 Y3.0249
G01 X1.3609 Y3.0130
G01 X1.3645 Y3.0012
G01 X1.3686 Y2.9896
G01 X1.3734 Y2.9782
G01 X1.3786 Y2.9671
G01 X1.3844 Y2.9563
G01 X1.3907 Y2.9457
G01 X1.3976 Y2.9355
G01 X1.4049 Y2.9257
G01 X1.4127 Y2.9162
G01 X1.4209 Y2.9071
G01 X1.4296 Y2.8984
G01 X1.4387 Y2.8902
G01 X1.4482 Y2.8824
G01 X1.4580 Y2.8751
G01 X1.4682 Y2.8682
G01 X1.4788 Y2.8619
G01 X1.4896 Y2.8561
G01 X1.5007 Y2.8509
G01 X1.5121 Y2.8461
G01 X1.5237 Y2.8420
G01 X1.5355 Y2.8384
G01 X1.5535 Y2.8341
G01 X1.5656 Y2.8320
G01 X1.5779 Y2.8305
G01 X1.5902 Y2.8296
G01 X1.6025 Y2.8293
G00 Z1.0000
G00 X1.6025 Y2.9606
G01 F60.00
G01 Z-0.1100
G01 F120.00
G01 X3.5134 Y2.9607
G01 X3.5222 Y2.9615
G01 X3.5308 Y2.9629
G01 X3.5394 Y2.9649
G01 X3.5478 Y2.9676
G01 X3.5560 Y2.9709
G01 X3.5639 Y2.9747
G01 X3.5739 Y2.9808
G01 X3.5810 Y2.9859
G01 X3.5898 Y2.9935
G01 X3.5960 Y2.9998
G01 X3.6016 Y3.0065
G01 X3.6067 Y3.0136
G01 X3.6128 Y3.0236
G01 X3.6166 Y3.0315
G01 X3.6199 Y3.0397
G01 X3.6226 Y3.0481
G01 X3.6256 Y3.0624
G01 X3.6266 Y3.0712
G01 X3.6269 Y3.0800
G01 X3.6269 Y5.0800
G01 X3.6263 Y5.0917
G01 X3.6246 Y5.1033
G01 X3.6208 Y5.1175
G01 X3.6178 Y5.1258
G01 X3.6141 Y5.1338
G01 X3.6099 Y5.1415
G01 X3.6051 Y5.1488
G01 X3.5998 Y5.1558
G01 X3.5940 Y5.1623
G01 X3.5877 Y5.1685
G01 X3.5810 Y5.1741
G01 X3.5739 Y5.1792
G01 X3.5664 Y5.1838
G01 X3.5586 Y5.1879
G01 X3.5506 Y5.1914
G01 X3.5422 Y5.1942
G01 X3.5337 Y5.1965
G01 X3.5192 Y5.1988
G01 X3.5075 Y5.1994
G01 X3.1747 Y5.1994
G01 X3.1747 Y5.9421
G01 X3.2009 Y5.9658
G01 X3.2072 Y5.9720
G01 X3.2641 Y6.0348
G01 X3.2693 Y6.0414
G01 X3.3161 Y6.1044
G01 X3.3211 Y6.1117
G01 X3.3659 Y6.1868
G01 X3.4020 Y6.2628
G01 X3.4065 Y6.2736
G01 X3.4340 Y6.3505
G01 X3.4364 Y6.3588
G01 X3.4568 Y6.4408
G01 X3.4693 Y6.5241
G01 X3.4704 Y6.5357
G01 X3.4744 Y6.6200
G01 X3.4704 Y6.7043
G01 X3.4693 Y6.7159
G01 X3.4573 Y6.7964
G01 X3.4554 Y6.8051
G01 X3.4364 Y6.8812
G01 X3.4330 Y6.8925
G01 X3.4044 Y6.9719
G01 X3.3659 Y7.0532
G01 X3.3226 Y7.1258
G01 X3.3161 Y7.1356
G01 X3.2659 Y7.2031
G01 X3.2092 Y7.2659
G01 X3.2009 Y7.2742
G01 X3.1381 Y7.3309
G01 X3.0706 Y7.3811
G01 X3.0608 Y7.3876
G01 X2.9882 Y7.4309
G01 X2.9122 Y7.4670
G01 X2.9014 Y7.4715
G01 X2.8275 Y7.4980
G01 X2.8189 Y7.5007
G01 X2.7342 Y7.5218
G01 X2.6453 Y7.5350
G01 X2.5550 Y7.5394
G01 X2.4647 Y7.5350
G01 X2.3758 Y7.5218
G01 X2.2885 Y7.4999
G01 X2.2031 Y7.4694
G01 X2.1218 Y7.4309
G01 X2.0443 Y7.3845
G01 X1.9719 Y7.3309
G01 X1.9049 Y7.2701
G01 X1.8441 Y7.2031
G01 X1.7905 Y7.1307
G01 X1.7441 Y7.0532
G01 X1.7056 Y6.9719
G01 X1.6770 Y6.8925
G01 X1.6743 Y6.8839
G01 X1.6532 Y6.7992
G01 X1.6407 Y6.7159
G01 X1.6396 Y6.7043
G01 X1.6356 Y6.6200
G01 X1.6396 Y6.5357
G01 X1.6407 Y6.5241
G01 X1.6532 Y6.4408
G01 X1.6743 Y6.3561
G01 X1.6770 Y6.3475
G01 X1.7035 Y6.2736
G01 X1.7080 Y6.2628
G01 X1.7441 Y6.1868
G01 X1.7889 Y6.1117
G01 X1.7939 Y6.1044
G01 X1.8407 Y6.0414
G01 X1.8459 Y6.0348
G01 X1.9028 Y5.9720
G01 X1.9091 Y5.9658
G01 X1.9353 Y5.9421
G01 X1.9353 Y5.1994
G01 X1.6025 Y5.1994
G01 X1.5878 Y5.1985
G01 X1.5763 Y5.1965
G01 X1.5678 Y5.1942
G01 X1.5594 Y5.1914
G01 X1.5514 Y5.1879
G01 X1.5436 Y5.1838
G01 X1.5361 Y5.1792
G01 X1.5290 Y5.1741
G01 X1.5202 Y5.1665
G01 X1.5140 Y5.1602
G01 X1.5084 Y5.1535
G01 X1.5033 Y5.1464
G01 X1.4987 Y5.1389
G01 X1.4946 Y5.1311
G01 X1.4911 Y5.1231
G01 X1.4883 Y5.1147
G01 X1.4860 Y5.1062
G01 X1.4844 Y5.0976
G01 X1.4834 Y5.0888
G01 X1.4831 Y5.0800
G01 X1.4832 Y3.0741
G01 X1.4844 Y3.0624
G01 X1.4867 Y3.0509
G01 X1.4901 Y3.0397
G01 X1.4934 Y3.0315
G01 X1.4987 Y3.0211
G01 X1.5049 Y3.0112
G01 X1.5121 Y3.0020
G01 X1.5202 Y2.9935
G01 X1.5290 Y2.9859
G01 X1.5386 Y2.9792
G01 X1.5487 Y2.9734
G01 X1.5594 Y2.9686
G01 X1.5706 Y2.9649
G01 X1.5792 Y2.9629
G01 X1.5908 Y2.9612
G01 X1.6025 Y2.9606
G00 Z1.0000
G00 X3.9796 Y3.2999
G01 F60.00
G01 Z-0.1100
G01 F120.00
G01 X3.9224 Y3.3955
G01 X3.9132 Y3.4126
G01 X3.8896 Y3.4624
G01 X3.8896 Y3.2764
G01 X3.9020 Y3.2808
G01 X3.9219 Y3.2868
G01 X3.9422 Y3.2918
G01 X3.9796 Y3.2999
G00 Z1.0000
G00 X3.8821 Y5.1550
G01 F60.00
G01 Z-0.1100
G01 F120.00
G01 X3.8867 Y5.1269
G01 X3.8885 Y5.1082
G01 X3.8895 Y5.0894
G01 X3.8896 Y4.6976
G01 X3.9132 Y4.7474
G01 X3.9224 Y4.7645
G01 X3.9801 Y4.8609
G01 X3.9961 Y4.8843
G01 X4.0518 Y4.9594
G01 X4.0686 Y4.9804
G01 X4.1384 Y5.0576
G01 X4.1513 Y5.0712
G01 X4.1649 Y5.0841
G01 X4.2127 Y5.1274
G01 X4.2127 Y5.1379
G01 X3.9950 Y5.1379
G01 X3.9762 Y5.1384
G01 X3.9481 Y5.1408
G01 X3.9295 Y5.1436
G01 X3.9019 Y5.1494
G01 X3.8821 Y5.1550
G00 Z1.0000
G00 X3.9950 Y5.2693
G01 F60.00
G01 Z-0.1100
G01 F120.00
G01 X4.3440 Y5.2693
G01 X4.3440 Y5.0671
G01 X4.3321 Y5.0579
G01 X4.3224 Y5.0496
G01 X4.2531 Y4.9868
G01 X4.2442 Y4.9783
G01 X4.2357 Y4.9694
G01 X4.1729 Y4.9001
G01 X4.1646 Y4.8904
G01 X4.1016 Y4.8060
G01 X4.0944 Y4.7958
G01 X4.0880 Y4.7856
G01 X4.0399 Y4.7054
G01 X4.0336 Y4.6943
G01 X3.9883 Y4.5992
G01 X3.9834 Y4.5881
G01 X3.9789 Y4.5765
G01 X3.9474 Y4.4885
G01 X3.9433 Y4.4760
G01 X3.9176 Y4.3742
G01 X3.9148 Y4.3619
G01 X3.9128 Y4.3501
G01 X3.8991 Y4.2577
G01 X3.8976 Y4.2458
G01 X3.8966 Y4.2332
G01 X3.8921 Y4.1398
G01 X3.8918 Y4.1275
G01 X3.8918 Y4.0263
G01 X3.8970 Y3.9205
G01 X3.8991 Y3.9023
G01 X3.9128 Y3.8099
G01 X3.9148 Y3.7981
G01 X3.9176 Y3.7858
G01 X3.9418 Y3.6895
G01 X3.9474 Y3.6715
G01 X3.9789 Y3.5835
G01 X3.9834 Y3.5719
G01 X3.9883 Y3.5608
G01 X4.0336 Y3.4657
G01 X4.0399 Y3.4546
G01 X4.0880 Y3.3744
G01 X4.0944 Y3.3642
G01 X4.1016 Y3.3540
G01 X4.1573 Y3.2789
G01 X4.1683 Y3.2651
G01 X4.2357 Y3.1906
G01 X4.2442 Y3.1817
G01 X4.2531 Y3.1732
G01 X4.3224 Y3.1104
G01 X4.3321 Y3.1021
G01 X4.4165 Y3.0391
G01 X4.4267 Y3.0319
G01 X4.4369 Y3.0255
G01 X4.5171 Y2.9774
G01 X4.5282 Y2.9711
G01 X4.6233 Y2.9258
G01 X4.6344 Y2.9209
G01 X4.6460 Y2.9164
G01 X4.7340 Y2.8849
G01 X4.7465 Y2.8808
G01 X4.8483 Y2.8551
G01 X4.8606 Y2.8523
G01 X4.8724 Y2.8503
G01 X4.9648 Y2.8366
G01 X4.9767 Y2.8351
G01 X4.9893 Y2.8341
G01 X5.0827 Y2.8296
G01 X5.0950 Y2.8293
G01 X5.1073 Y2.8296
G01 X5.2007 Y2.8341
G01 X5.2133 Y2.8351
G01 X5.2252 Y2.8366
G01 X5.3176 Y2.8503
G01 X5.3294 Y2.8523
G01 X5.3417 Y2.8551
G01 X5.4435 Y2.8808
G01 X5.4560 Y2.8849
G01 X5.5440 Y2.9164
G01 X5.5556 Y2.9209
G01 X5.5667 Y2.9258
G01 X5.6618 Y2.9711
G01 X5.6729 Y2.9774
G01 X5.7531 Y3.0255
G01 X5.7633 Y3.0319
G01 X5.7735 Y3.0391
G01 X5.8486 Y3.0948
G01 X5.8624 Y3.1058
G01 X5.9369 Y3.1732
G01 X5.9458 Y3.1817
G01 X5.9543 Y3.1906
G01 X6.0171 Y3.2599
G01 X6.0254 Y3.2696
G01 X6.0884 Y3.3540
G01 X6.0956 Y3.3642
G01 X6.1020 Y3.3744
G01 X6.1501 Y3.4546
G01 X6.1564 Y3.4657
G01 X6.2017 Y3.5608
G01 X6.2066 Y3.5719
G01 X6.2111 Y3.5835
G01 X6.2426 Y3.6715
G01 X6.2467 Y3.6840
G01 X6.2724 Y3.7858
G01 X6.2752 Y3.7981
G01 X6.2772 Y3.8099
G01 X6.2917 Y3.9083
G01 X6.2934 Y3.9268
G01 X6.2979 Y4.0202
G01 X6.2982 Y4.0325
G01 X6.2982 Y4.1337
G01 X6.2930 Y4.2395
G01 X6.2909 Y4.2577
G01 X6.2772 Y4.3501
G01 X6.2752 Y4.3619
G01 X6.2724 Y4.3742
G01 X6.2497 Y4.4649
G01 X6.2447 Y4.4823
G01 X6.2111 Y4.5765
G01 X6.2066 Y4.5881
G01 X6.2017 Y4.5992
G01 X6.1617 Y4.6837
G01 X6.1564 Y4.6943
G01 X6.1501 Y4.7054
G01 X6.1020 Y4.7856
G01 X6.0956 Y4.7958
G01 X6.0884 Y4.8060
G01 X6.0254 Y4.8904
G01 X6.0171 Y4.9001
G01 X5.9543 Y4.9694
G01 X5.9458 Y4.9783
G01 X5.9369 Y4.9868
G01 X5.8676 Y5.0496
G01 X5.8579 Y5.0579
G01 X5.8460 Y5.0671
G01 X5.8460 Y5.2693
G01 X6.2012 Y5.2693
G01 X6.2196 Y5.2705
G01 X6.2380 Y5.2730
G01 X6.2561 Y5.2768
G01 X6.2738 Y5.2820
G01 X6.2854 Y5.2861
G01 X6.3024 Y5.2934
G01 X6.3187 Y5.3019
G01 X6.3293 Y5.3082
G01 X6.3444 Y5.3187
G01 X6.3588 Y5.3302
G01 X6.3679 Y5.3384
G01 X6.3808 Y5.3516
G01 X6.3926 Y5.3657
G01 X6.3999 Y5.3755
G01 X6.4068 Y5.3857
G01 X6.4160 Y5.4016
G01 X6.4241 Y5.4182
G01 X6.4289 Y5.4296
G01 X6.4349 Y5.4470
G01 X6.4382 Y5.4589
G01 X6.4409 Y5.4710
G01 X6.4438 Y5.4892
G01 X6.4454 Y5.5077
G01 X6.4457 Y5.5200
G01 X6.4457 Y7.7200
G01 X6.4451 Y7.7385
G01 X6.4430 Y7.7569
G01 X6.4409 Y7.7690
G01 X6.4366 Y7.7870
G01 X6.4310 Y7.8047
G01 X6.4241 Y7.8218
G01 X6.4160 Y7.8384
G01 X6.4068 Y7.8543
G01 X6.3963 Y7.8694
G01 X6.3848 Y7.8838
G01 X6.3723 Y7.8973
G01 X6.3588 Y7.9098
G01 X6.3444 Y7.9213
G01 X6.3293 Y7.9318
G01 X6.3134 Y7.9410
G01 X6.2968 Y7.9491
G01 X6.2854 Y7.9539
G01 X6.2680 Y7.9599
G01 X6.2501 Y7.9646
G01 X6.2319 Y7.9680
G01 X6.2196 Y7.9695
G01 X6.2073 Y7.9704
G01 X6.1950 Y7.9707
G01 X5.8460 Y7.9707
G01 X5.8460 Y8.3565
G01 X5.8689 Y8.3774
G01 X5.8776 Y8.3861
G01 X5.9378 Y8.4524
G01 X5.9499 Y8.4667
G01 X6.0031 Y8.5384
G01 X6.0104 Y8.5487
G01 X6.0168 Y8.5589
G01 X6.0629 Y8.6359
G01 X6.0713 Y8.6521
G01 X6.1070 Y8.7275
G01 X6.1119 Y8.7386
G01 X6.1164 Y8.7502
G01 X6.1445 Y8.8288
G01 X6.1486 Y8.8412
G01 X6.1734 Y8.9398
G01 X6.1767 Y8.9574
G01 X6.1904 Y9.0517
G01 X6.1913 Y9.0644
G01 X6.1954 Y9.1477
G01 X6.1957 Y9.1600
G01 X6.1954 Y9.1723
G01 X6.1913 Y9.2556
G01 X6.1904 Y9.2683
G01 X6.1767 Y9.3626
G01 X6.1747 Y9.3744
G01 X6.1719 Y9.3868
G01 X6.1516 Y9.4677
G01 X6.1486 Y9.4788
G01 X6.1445 Y9.4912
G01 X6.1164 Y9.5698
G01 X6.1119 Y9.5814
G01 X6.1070 Y9.5925
G01 X6.0660 Y9.6785
G01 X6.0597 Y9.6896
G01 X6.0168 Y9.7611
G01 X6.0104 Y9.7713
G01 X6.0031 Y9.7816
G01 X5.9462 Y9.8579
G01 X5.9378 Y9.8676
G01 X5.8818 Y9.9294
G01 X5.8733 Y9.9383
G01 X5.8644 Y9.9468
G01 X5.8026 Y10.0028
G01 X5.7929 Y10.0112
G01 X5.7166 Y10.0681
G01 X5.7063 Y10.0754
G01 X5.6961 Y10.0818
G01 X5.6246 Y10.1247
G01 X5.6135 Y10.1310
G01 X5.5275 Y10.1720
G01 X5.5164 Y10.1769
G01 X5.5048 Y10.1814
G01 X5.4262 Y10.2095
G01 X5.4082 Y10.2152
G01 X5.3218 Y10.2369
G01 X5.3094 Y10.2397
G01 X5.2976 Y10.2417
G01 X5.2033 Y10.2554
G01 X5.1906 Y10.2563
G01 X5.1073 Y10.2604
G01 X5.0950 Y10.2607
G01 X5.0827 Y10.2604
G01 X4.9994 Y10.2563
G01 X4.9867 Y10.2554
G01 X4.8924 Y10.2417
G01 X4.8806 Y10.2397
G01 X4.8682 Y10.2369
G01 X4.7762 Y10.2136
G01 X4.7638 Y10.2095
G01 X4.6852 Y10.1814
G01 X4.6736 Y10.1769
G01 X4.6625 Y10.1720
G01 X4.5765 Y10.1310
G01 X4.5654 Y10.1247
G01 X4.4939 Y10.0818
G01 X4.4837 Y10.0754
G01 X4.4734 Y10.0681
G01 X4.3971 Y10.0112
G01 X4.3874 Y10.0028
G01 X4.3256 Y9.9468
G01 X4.3167 Y9.9383
G01 X4.3082 Y9.9294
G01 X4.2522 Y9.8676
G01 X4.2438 Y9.8579
G01 X4.1869 Y9.7816
G01 X4.1796 Y9.7713
G01 X4.1732 Y9.7611
G01 X4.1303 Y9.6896
G01 X4.1240 Y9.6785
G01 X4.0830 Y9.5925
G01 X4.0781 Y9.5814
G01 X4.0736 Y9.5698
G01 X4.0455 Y9.4912
G01 X4.0398 Y9.4732
G01 X4.0181 Y9.3868
G01 X4.0153 Y9.3744
G01 X4.0133 Y9.3626
G01 X3.9996 Y9.2683
G01 X3.9987 Y9.2556
G01 X3.9946 Y9.1723
G01 X3.9943 Y9.1600
G01 X3.9946 Y9.1477
G01 X3.9987 Y9.0644
G01 X3.9996 Y9.0517
G01 X4.0133 Y8.9574
G01 X4.0153 Y8.9456
G01 X4.0181 Y8.9332
G01 X4.0414 Y8.8412
G01 X4.0455 Y8.8288
G01 X4.0736 Y8.7502
G01 X4.0781 Y8.7386
G01 X4.0830 Y8.7275
G01 X4.1187 Y8.6521
G01 X4.1271 Y8.6359
G01 X4.1732 Y8.5589
G01 X4.1796 Y8.5487
G01 X4.1869 Y8.5384
G01 X4.2401 Y8.4667
G01 X4.2522 Y8.4524
G01 X4.3124 Y8.3861
G01 X4.3211 Y8.3774
G01 X4.3440 Y8.3565
G01 X4.3440 Y7.9707
G01 X3.9888 Y7.9707
G01 X3.9704 Y7.9695
G01 X3.9581 Y7.9680
G01 X3.9460 Y7.9659
G01 X3.9280 Y7.9616
G01 X3.9103 Y7.9560
G01 X3.8988 Y7.9516
G01 X3.8821 Y7.9439
G01 X3.8660 Y7.9350
G01 X3.8505 Y7.9249
G01 X3.8359 Y7.9138
G01 X3.8221 Y7.9016
G01 X3.8092 Y7.8884
G01 X3.7974 Y7.8743
G01 X3.7866 Y7.8594
G01 X3.7769 Y7.8437
G01 X3.7684 Y7.8274
G01 X3.7634 Y7.8162
G01 X3.7570 Y7.7988
G01 X3.7518 Y7.7811
G01 X3.7491 Y7.7690
G01 X3.7462 Y7.7508
G01 X3.7446 Y7.7323
G01 X3.7443 Y7.7200
G01 X3.7443 Y5.5200
G01 X3.7446 Y5.5077
G01 X3.7455 Y5.4954
G01 X3.7480 Y5.4770
G01 X3.7504 Y5.4649
G01 X3.7534 Y5.4530
G01 X3.7570 Y5.4412
G01 X3.7611 Y5.4296
G01 X3.7659 Y5.4182
G01 X3.7711 Y5.4071
G01 X3.7769 Y5.3963
G01 X3.7832 Y5.3857
G01 X3.7937 Y5.3706
G01 X3.8012 Y5.3609
G01 X3.8092 Y5.3516
G01 X3.8177 Y5.3427
G01 X3.8266 Y5.3342
G01 X3.8359 Y5.3262
G01 X3.8456 Y5.3187
G01 X3.8556 Y5.3116
G01 X3.8660 Y5.3050
G01 X3.8766 Y5.2990
G01 X3.8876 Y5.2934
G01 X3.9046 Y5.2861
G01 X3.9162 Y5.2820
G01 X3.9280 Y5.2784
G01 X3.9460 Y5.2741
G01 X3.9581 Y5.2720
G01 X3.9704 Y5.2705
G01 X3.9827 Y5.2696
G01 X3.9950 Y5.2693
G00 Z1.0000
G00 X3.9950 Y5.4006
G01 F60.00
G01 Z-0.1100
G01 F120.00
G01 X4.4753 Y5.4006
G01 X4.4753 Y5.0010
G01 X4.4152 Y4.9562
G01 X4.3413 Y4.8895
G01 X4.3330 Y4.8812
G01 X4.2702 Y4.8119
G01 X4.2628 Y4.8029
G01 X4.2037 Y4.7229
G01 X4.1510 Y4.6353
G01 X4.1470 Y4.6276
G01 X4.1047 Y4.5378
G01 X4.0691 Y4.4383
G01 X4.0437 Y4.3364
G01 X4.0283 Y4.2327
G01 X4.0231 Y4.1275
G01 X4.0231 Y4.0296
G01 X4.0280 Y3.9303
G01 X4.0290 Y3.9216
G01 X4.0437 Y3.8236
G01 X4.0684 Y3.7243
G01 X4.0711 Y3.7158
G01 X4.1047 Y3.6222
G01 X4.1496 Y3.5274
G01 X4.2037 Y3.4371
G01 X4.2663 Y3.3527
G01 X4.3371 Y3.2746
G01 X4.4152 Y3.2038
G01 X4.4996 Y3.1412
G01 X4.5899 Y3.0871
G01 X4.6847 Y3.0422
G01 X4.7842 Y3.0066
G01 X4.8861 Y2.9812
G01 X4.9898 Y2.9658
G01 X5.0950 Y2.9606
G01 X5.2002 Y2.9658
G01 X5.3039 Y2.9812
G01 X5.4058 Y3.0066
G01 X5.5053 Y3.0422
G01 X5.6001 Y3.0871
G01 X5.6904 Y3.1412
G01 X5.7748 Y3.2038
G01 X5.8529 Y3.2746
G01 X5.9198 Y3.3481
G01 X5.9272 Y3.3571
G01 X5.9863 Y3.4371
G01 X6.0374 Y3.5221
G01 X6.0430 Y3.5324
G01 X6.0853 Y3.6222
G01 X6.1209 Y3.7217
G01 X6.1450 Y3.8177
G01 X6.1469 Y3.8264
G01 X6.1610 Y3.9216
G01 X6.1620 Y3.9303
G01 X6.1669 Y4.0296
G01 X6.1669 Y4.1304
G01 X6.1622 Y4.2267
G01 X6.1610 Y4.2384
G01 X6.1463 Y4.3364
G01 X6.1223 Y4.4330
G01 X6.1189 Y4.4442
G01 X6.0853 Y4.5378
G01 X6.0404 Y4.6326
G01 X5.9863 Y4.7229
G01 X5.9272 Y4.8029
G01 X5.9198 Y4.8119
G01 X5.8570 Y4.8812
G01 X5.8487 Y4.8895
G01 X5.7748 Y4.9562
G01 X5.7147 Y5.0010
G01 X5.7147 Y5.4006
G01 X6.1950 Y5.4006
G01 X6.2038 Y5.4009
G01 X6.2126 Y5.4019
G01 X6.2212 Y5.4035
G01 X6.2297 Y5.4058
G01 X6.2381 Y5.4086
G01 X6.2461 Y5.4121
G01 X6.2539 Y5.4162
G01 X6.2614 Y5.4208
G01 X6.2685 Y5.4259
G01 X6.2752 Y5.4315
G01 X6.2815 Y5.4377
G01 X6.2873 Y5.4442
G01 X6.2926 Y5.4512
G01 X6.2974 Y5.4585
G01 X6.3016 Y5.4662
G01 X6.3053 Y5.4742
G01 X6.3083 Y5.4825
G01 X6.3108 Y5.4909
G01 X6.3135 Y5.5053
G01 X6.3144 Y5.5200
G01 X6.3143 Y7.7259
G01 X6.3135 Y7.7347
G01 X6.3121 Y7.7433
G01 X6.3101 Y7.7519
G01 X6.3064 Y7.7631
G01 X6.3029 Y7.7711
G01 X6.2974 Y7.7815
G01 X6.2926 Y7.7888
G01 X6.2854 Y7.7980
G01 X6.2773 Y7.8065
G01 X6.2708 Y7.8123
G01 X6.2614 Y7.8192
G01 X6.2539 Y7.8238
G01 X6.2435 Y7.8291
G01 X6.2353 Y7.8324
G01 X6.2269 Y7.8351
G01 X6.2183 Y7.8371
G01 X6.2067 Y7.8388
G01 X6.1950 Y7.8394
G01 X5.7147 Y7.8394
G01 X5.7147 Y8.4147
G01 X5.7805 Y8.4745
G01 X5.8405 Y8.5406
G01 X5.8480 Y8.5496
G01 X5.9011 Y8.6215
G01 X5.9470 Y8.6979
G01 X5.9526 Y8.7083
G01 X5.9906 Y8.7890
G01 X6.0208 Y8.8730
G01 X6.0242 Y8.8842
G01 X6.0458 Y8.9711
G01 X6.0590 Y9.0592
G01 X6.0602 Y9.0708
G01 X6.0644 Y9.1600
G01 X6.0602 Y9.2492
G01 X6.0590 Y9.2608
G01 X6.0468 Y9.3433
G01 X6.0445 Y9.3548
G01 X6.0242 Y9.4358
G01 X6.0208 Y9.4470
G01 X5.9906 Y9.5310
G01 X5.9526 Y9.6117
G01 X5.9470 Y9.6221
G01 X5.9011 Y9.6985
G01 X5.8480 Y9.7704
G01 X5.8405 Y9.7794
G01 X5.7805 Y9.8455
G01 X5.7144 Y9.9055
G01 X5.7054 Y9.9130
G01 X5.6335 Y9.9661
G01 X5.5518 Y10.0150
G01 X5.4713 Y10.0532
G01 X5.4605 Y10.0577
G01 X5.3761 Y10.0878
G01 X5.2839 Y10.1108
G01 X5.1902 Y10.1247
G01 X5.0950 Y10.1294
G01 X4.9998 Y10.1247
G01 X4.9061 Y10.1108
G01 X4.8139 Y10.0878
G01 X4.7240 Y10.0556
G01 X4.6382 Y10.0150
G01 X4.5565 Y9.9661
G01 X4.4802 Y9.9095
G01 X4.4095 Y9.8455
G01 X4.3455 Y9.7748
G01 X4.2889 Y9.6985
G01 X4.2400 Y9.6168
G01 X4.1994 Y9.5310
G01 X4.1672 Y9.4411
G01 X4.1455 Y9.3548
G01 X4.1432 Y9.3433
G01 X4.1303 Y9.2552
G01 X4.1257 Y9.1659
G01 X4.1257 Y9.1541
G01 X4.1303 Y9.0648
G01 X4.1442 Y8.9711
G01 X4.1672 Y8.8789
G01 X4.1973 Y8.7945
G01 X4.2018 Y8.7837
G01 X4.2374 Y8.7083
G01 X4.2430 Y8.6979
G01 X4.2889 Y8.6215
G01 X4.3455 Y8.5452
G01 X4.4095 Y8.4745
G01 X4.4753 Y8.4147
G01 X4.4753 Y7.8394
G01 X3.9950 Y7.8394
G01 X3.9862 Y7.8391
G01 X3.9774 Y7.8381
G01 X3.9688 Y7.8365
G01 X3.9603 Y7.8342
G01 X3.9519 Y7.8314
G01 X3.9439 Y7.8279
G01 X3.9335 Y7.8224
G01 X3.9262 Y7.8176
G01 X3.9192 Y7.8123
G01 X3.9127 Y7.8065
G01 X3.9065 Y7.8002
G01 X3.9009 Y7.7935
G01 X3.8942 Y7.7839
G01 X3.8897 Y7.7764
G01 X3.8859 Y7.7685
G01 X3.8826 Y7.7603
G01 X3.8799 Y7.7519
G01 X3.8779 Y7.7433
G01 X3.8762 Y7.7317
G01 X3.8756 Y7.7200
G01 X3.8757 Y5.5141
G01 X3.8769 Y5.5024
G01 X3.8792 Y5.4909
G01 X3.8826 Y5.4797
G01 X3.8859 Y5.4715
G01 X3.8912 Y5.4611
G01 X3.8974 Y5.4512
G01 X3.9046 Y5.4420
G01 X3.9127 Y5.4335
G01 X3.9215 Y5.4259
G01 X3.9311 Y5.4192
G01 X3.9412 Y5.4134
G01 X3.9519 Y5.4086
G01 X3.9603 Y5.4058
G01 X3.9717 Y5.4029
G01 X3.9833 Y5.4012
G01 X3.9950 Y5.4006
G00 Z1.0000
G00 X3.6129 Y6.0943
G01 F60.00
G01 Z-0.1100
G01 F120.00
G01 X3.6023 Y6.0720
G01 X3.5931 Y6.0549
G01 X3.5479 Y5.9791
G01 X3.5381 Y5.9636
G01 X3.5271 Y5.9479
G01 X3.4749 Y5.8777
G01 X3.4635 Y5.8638
G01 X3.4373 Y5.8347
G01 X3.4373 Y5.4621
G01 X3.5169 Y5.4620
G01 X3.5450 Y5.4602
G01 X3.5637 Y5.4579
G01 X3.5822 Y5.4547
G01 X3.6006 Y5.4506
G01 X3.6204 Y5.4450
G01 X3.6171 Y5.4638
G01 X3.6148 Y5.4825
G01 X3.6134 Y5.5012
G01 X3.6129 Y5.5200
G01 X3.6129 Y6.0943
G00 Z1.0000
G00 X3.5050 Y7.3218
G01 F60.00
G01 Z-0.1100
G01 F120.00
G01 X3.5327 Y7.2843
G01 X3.5479 Y7.2609
G01 X3.5931 Y7.1851
G01 X3.6023 Y7.1680
G01 X3.6129 Y7.1457
G01 X3.6129 Y7.3622
G01 X3.6000 Y7.3553
G01 X3.5832 Y7.3473
G01 X3.5572 Y7.3369
G01 X3.5300 Y7.3282
G01 X3.5050 Y7.3218
G00 Z1.0000
G00 X6.2716 Y8.4730
G01 F60.00
G01 Z-0.1100
G01 F120.00
G01 X6.2357 Y8.4133
G01 X6.2217 Y8.3924
G01 X6.2141 Y8.3819
G01 X6.1571 Y8.3053
G01 X6.1419 Y8.2866
G01 X6.1087 Y8.2497
G01 X6.1087 Y8.2334
G01 X6.1950 Y8.2334
G01 X6.2203 Y8.2328
G01 X6.2454 Y8.2309
G01 X6.2580 Y8.2295
G01 X6.2784 Y8.2266
G01 X6.2755 Y8.2470
G01 X6.2741 Y8.2596
G01 X6.2722 Y8.2847
G01 X6.2717 Y8.2974
G01 X6.2716 Y8.4730
G00 Z1.0000
G00 X6.2104 Y9.6811
G01 F60.00
G01 Z-0.1100
G01 F120.00
G01 X6.2294 Y9.6405
G01 X6.2367 Y9.6229
G01 X6.2714 Y9.5260
G01 X6.2790 Y9.4996
G01 X6.2993 Y9.4187
G01 X6.3052 Y9.3909
G01 X6.3189 Y9.2994
G01 X6.3211 Y9.2813
G01 X6.3225 Y9.2621
G01 X6.3266 Y9.1787
G01 X6.3270 Y9.1506
G01 X6.3225 Y9.0579
G01 X6.3211 Y9.0387
G01 X6.3189 Y9.0206
G01 X6.3066 Y8.9381
G01 X6.3035 Y8.9202
G01 X6.2993 Y8.9013
G01 X6.2790 Y8.8204
G01 X6.2744 Y8.8035
G01 X6.2681 Y8.7845
G01 X6.2400 Y8.7060
G01 X6.2332 Y8.6883
G01 X6.2257 Y8.6714
G01 X6.1900 Y8.5960
G01 X6.1819 Y8.5798
G01 X6.1724 Y8.5629
G01 X6.1295 Y8.4913
G01 X6.1142 Y8.4679
G01 X6.0589 Y8.3932
G01 X6.0479 Y8.3790
G01 X6.0352 Y8.3642
G01 X5.9773 Y8.3004
G01 X5.9773 Y8.1021
G01 X6.2044 Y8.1020
G01 X6.2232 Y8.1010
G01 X6.2419 Y8.0992
G01 X6.2697 Y8.0947
G01 X6.2881 Y8.0906
G01 X6.3151 Y8.0827
G01 X6.3415 Y8.0729
G01 X6.3671 Y8.0611
G01 X6.3916 Y8.0476
G01 X6.4074 Y8.0376
G01 X6.4302 Y8.0211
G01 X6.4495 Y8.0050
G01 X6.4787 Y8.0385
G01 X6.4978 Y8.0581
G01 X6.4897 Y8.0675
G01 X6.4782 Y8.0823
G01 X6.4623 Y8.1054
G01 X6.4527 Y8.1214
G01 X6.4439 Y8.1379
G01 X6.4321 Y8.1635
G01 X6.4223 Y8.1899
G01 X6.4168 Y8.2079
G01 X6.4122 Y8.2261
G01 X6.4071 Y8.2538
G01 X6.4048 Y8.2725
G01 X6.4034 Y8.2912
G01 X6.4029 Y8.3100
G01 X6.4029 Y9.7312
G01 X6.3866 Y9.7226
G01 X6.3614 Y9.7111
G01 X6.3354 Y9.7016
G01 X6.3088 Y9.6939
G01 X6.2908 Y9.6898
G01 X6.2635 Y9.6854
G01 X6.2442 Y9.6835
G01 X6.2104 Y9.6811
G00 Z1.0000
G00 X6.4121 Y5.2056
G01 F60.00
G01 Z-0.1100
G01 F120.00
G01 X6.3916 Y5.1924
G01 X6.3754 Y5.1832
G01 X6.3502 Y5.1709
G01 X6.3328 Y5.1636
G01 X6.3151 Y5.1573
G01 X6.2971 Y5.1518
G01 X6.2697 Y5.1453
G01 X6.2512 Y5.1421
G01 X6.2325 Y5.1398
G01 X6.2044 Y5.1380
G01 X5.9773 Y5.1379
G01 X5.9773 Y5.1274
G01 X6.0251 Y5.0841
G01 X6.0387 Y5.0712
G01 X6.0516 Y5.0576
G01 X6.1214 Y4.9804
G01 X6.1382 Y4.9594
G01 X6.1939 Y4.8843
G01 X6.2099 Y4.8609
G01 X6.2628 Y4.7729
G01 X6.2723 Y4.7560
G01 X6.2804 Y4.7399
G01 X6.3204 Y4.6554
G01 X6.3279 Y4.6385
G01 X6.3347 Y4.6207
G01 X6.3650 Y4.5362
G01 X6.3953 Y4.6207
G01 X6.4021 Y4.6385
G01 X6.4096 Y4.6554
G01 X6.4496 Y4.7399
G01 X6.4624 Y4.7645
G01 X6.5153 Y4.8531
G01 X6.5305 Y4.8765
G01 X6.5973 Y4.9665
G01 X6.6086 Y4.9804
G01 X6.6458 Y5.0217
G01 X6.6207 Y5.0319
G01 X6.5950 Y5.0446
G01 X6.5704 Y5.0592
G01 X6.5547 Y5.0699
G01 X6.5406 Y5.0805
G01 X6.5269 Y5.0917
G01 X6.4733 Y5.1382
G01 X6.4598 Y5.1505
G01 X6.4468 Y5.1635
G01 X6.4343 Y5.1773
G01 X6.4225 Y5.1917
G01 X6.4121 Y5.2056
G00 Z1.0000
G00 X6.3834 Y5.0424
G01 F60.00
G01 Z-0.1100
G01 F120.00
G01 X6.3564 Y5.0326
G01 X6.3444 Y5.0288
G01 X6.3200 Y5.0220
G01 X6.2954 Y5.0165
G01 X6.2830 Y5.0142
G01 X6.2633 Y5.0112
G01 X6.2994 Y4.9625
G01 X6.3142 Y4.9415
G01 X6.3273 Y4.9206
G01 X6.3650 Y4.8578
G01 X6.4091 Y4.9311
G01 X6.4231 Y4.9521
G01 X6.4483 Y4.9863
G01 X6.3834 Y5.0424
G00 Z1.0000
G00 X6.3650 Y3.6238
G01 F60.00
G01 Z-0.1100
G01 F120.00
G01 X6.3502 Y3.5826
G01 X6.3646 Y3.5821
G01 X6.3803 Y3.5810
G01 X6.3650 Y3.6238
G00 Z1.0000
G00 X8.2544 Y2.8425
G01 F60.00
G01 Z-0.1100
G01 F120.00
G01 X8.3799 Y2.9118
G01 X8.5529 Y3.0485
G01 X8.7013 Y3.2116
G01 X8.8208 Y3.3964
G01 X8.8487 Y3.4603
G01 X8.5404 Y3.4603
G01 X8.5246 Y3.4346
G01 X8.4655 Y3.3549
G01 X8.4598 Y3.3481
G01 X8.3950 Y3.2766
G01 X8.3887 Y3.2705
G01 X8.3170 Y3.2056
G01 X8.3104 Y3.2003
G01 X8.2544 Y3.1588
G01 X8.2544 Y2.8425
G00 Z1.0000
G00 X8.3857 Y3.0838
G01 F60.00
G01 Z-0.1100
G01 F120.00
G01 X8.4629 Y3.1447
G01 X8.5968 Y3.2918
G01 X8.6208 Y3.3290
G01 X8.6099 Y3.3290
G01 X8.5654 Y3.2696
G01 X8.5571 Y3.2599
G01 X8.4943 Y3.1906
G01 X8.4858 Y3.1817
G01 X8.4769 Y3.1732
G01 X8.4076 Y3.1104
G01 X8.3979 Y3.1021
G01 X8.3857 Y3.0927
G01 X8.3857 Y3.0838
G00 Z1.0000
G00 X8.3857 Y5.0767
G01 F60.00
G01 Z-0.1100
G01 F120.00
G01 X8.3857 Y5.0673
G01 X8.3979 Y5.0579
G01 X8.4076 Y5.0496
G01 X8.4769 Y4.9868
G01 X8.4858 Y4.9783
G01 X8.4943 Y4.9694
G01 X8.5571 Y4.9001
G01 X8.5654 Y4.8904
G01 X8.6099 Y4.8310
G01 X8.6196 Y4.8310
G01 X8.5784 Y4.8914
G01 X8.4410 Y5.0353
G01 X8.3857 Y5.0767
G00 Z1.0000
G00 X8.2544 Y5.3171
G01 F60.00
G01 Z-0.1100
G01 F120.00
G01 X8.2544 Y5.0012
G01 X8.3104 Y4.9597
G01 X8.3170 Y4.9544
G01 X8.3887 Y4.8895
G01 X8.3950 Y4.8834
G01 X8.4598 Y4.8119
G01 X8.4655 Y4.8051
G01 X8.5246 Y4.7254
G01 X8.5404 Y4.6997
G01 X8.8480 Y4.6997
G01 X8.8049 Y4.7924
G01 X8.6810 Y4.9742
G01 X8.5286 Y5.1336
G01 X8.3523 Y5.2661
G01 X8.2544 Y5.3171
G00 Z1.0000
G00 X11.7135 Y8.8693
G01 F60.00
G01 Z-0.1100
G01 F120.00
G01 X11.8105 Y8.7723
G01 X11.8327 Y8.7723
G01 X11.8327 Y8.9205
G01 X11.8191 Y8.9121
G01 X11.8030 Y8.9031
G01 X11.7781 Y8.8910
G01 X11.7610 Y8.8840
G01 X11.7437 Y8.8778
G01 X11.7260 Y8.8725
G01 X11.7135 Y8.8693
G00 Z1.0000
G00 X8.5389 Y15.6682
G01 F60.00
G01 Z-0.1100
G01 F120.00
G01 X8.5968 Y15.7318
G01 X8.6210 Y15.7693
G01 X8.6101 Y15.7693
G01 X8.5655 Y15.7096
G01 X8.5334 Y15.6737
G01 X8.5389 Y15.6682
G00 Z1.0000
G00 X8.3478 Y15.6735
G01 F60.00
G01 Z-0.1100
G01 F120.00
G01 X8.5417 Y15.4796
G01 X8.5529 Y15.4885
G01 X8.7013 Y15.6516
G01 X8.8208 Y15.8364
G01 X8.8488 Y15.9006
G01 X8.5406 Y15.9006
G01 X8.5246 Y15.8746
G01 X8.4672 Y15.7971
G01 X8.4619 Y15.7905
G01 X8.3950 Y15.7166
G01 X8.3887 Y15.7105
G01 X8.3478 Y15.6735
G00 Z1.0000
G00 X8.3857 Y17.5167
G01 F60.00
G01 Z-0.1100
G01 F120.00
G01 X8.3857 Y17.5073
G01 X8.3979 Y17.4979
G01 X8.4076 Y17.4896
G01 X8.4769 Y17.4268
G01 X8.4858 Y17.4183
G01 X8.4943 Y17.4094
G01 X8.5571 Y17.3401
G01 X8.5655 Y17.3304
G01 X8.6101 Y17.2707
G01 X8.6198 Y17.2707
G01 X8.5784 Y17.3314
G01 X8.4410 Y17.4753
G01 X8.3857 Y17.5167
G00 Z1.0000
G00 X8.2544 Y17.7571
G01 F60.00
G01 Z-0.1100
G01 F120.00
G01 X8.2544 Y17.4412
G01 X8.3104 Y17.3997
G01 X8.3170 Y17.3944
G01 X8.3887 Y17.3295
G01 X8.3950 Y17.3234
G01 X8.4598 Y17.2519
G01 X8.4655 Y17.2451
G01 X8.5246 Y17.1654
G01 X8.5406 Y17.1394
G01 X8.8482 Y17.1394
G01 X8.8049 Y17.2324
G01 X8.6810 Y17.4142
G01 X8.5286 Y17.5736
G01 X8.3523 Y17.7061
G01 X8.2544 Y17.7571
G00 Z1.0000
G00 X6.2961 Y17.4070
G01 F60.00
G01 Z-0.1100
G01 F120.00
G01 X6.3069 Y17.3921
G01 X6.3209 Y17.3711
G01 X6.3650 Y17.2978
G01 X6.3858 Y17.3325
G01 X6.3689 Y17.3441
G01 X6.3591 Y17.3513
G01 X6.3415 Y17.3650
G01 X6.3231 Y17.3809
G01 X6.3133 Y17.3899
G01 X6.2961 Y17.4070
G00 Z1.0000
G00 X6.1145 Y17.7066
G01 F60.00
G01 Z-0.1100
G01 F120.00
G01 X6.1087 Y17.7066
G01 X6.1087 Y17.6256
G01 X6.1316 Y17.6041
G01 X6.1404 Y17.5950
G01 X6.1657 Y17.5673
G01 X6.1593 Y17.5796
G01 X6.1483 Y17.6025
G01 X6.1385 Y17.6260
G01 X6.1340 Y17.6379
G01 X6.1257 Y17.6631
G01 X6.1218 Y17.6764
G01 X6.1145 Y17.7066
G00 Z1.0000
G00 X6.2222 Y17.8389
G01 F60.00
G01 Z-0.1100
G01 F120.00
G01 X6.1950 Y17.8379
G01 X5.9773 Y17.8379
G01 X5.9773 Y17.5674
G01 X6.0251 Y17.5241
G01 X6.0387 Y17.5112
G01 X6.0516 Y17.4976
G01 X6.1214 Y17.4204
G01 X6.1382 Y17.3994
G01 X6.1939 Y17.3243
G01 X6.2049 Y17.3086
G01 X6.2147 Y17.2931
G01 X6.2628 Y17.2129
G01 X6.2723 Y17.1960
G01 X6.2804 Y17.1799
G01 X6.3204 Y17.0954
G01 X6.3279 Y17.0785
G01 X6.3347 Y17.0607
G01 X6.3650 Y16.9762
G01 X6.3953 Y17.0607
G01 X6.4021 Y17.0785
G01 X6.4096 Y17.0954
G01 X6.4496 Y17.1799
G01 X6.4577 Y17.1960
G01 X6.4672 Y17.2129
G01 X6.5153 Y17.2931
G01 X6.5251 Y17.3086
G01 X6.5361 Y17.3243
G01 X6.5842 Y17.3890
G01 X6.5667 Y17.3933
G01 X6.5491 Y17.3986
G01 X6.5330 Y17.4042
G01 X6.5161 Y17.4110
G01 X6.4997 Y17.4186
G01 X6.4836 Y17.4269
G01 X6.4679 Y17.4360
G01 X6.4526 Y17.4458
G01 X6.4379 Y17.4563
G01 X6.4248 Y17.4666
G01 X6.4038 Y17.4851
G01 X6.3398 Y17.5492
G01 X6.3215 Y17.5699
G01 X6.3113 Y17.5830
G01 X6.3003 Y17.5984
G01 X6.2853 Y17.6225
G01 X6.2722 Y17.6476
G01 X6.2644 Y17.6648
G01 X6.2576 Y17.6825
G01 X6.2513 Y17.7012
G01 X6.2485 Y17.7112
G01 X6.2436 Y17.7312
G01 X6.2265 Y17.8102
G01 X6.2222 Y17.8389
G00 Z1.0000
G00 X6.3650 Y16.0638
G01 F60.00
G01 Z-0.1100
G01 F120.00
G01 X6.3502 Y16.0226
G01 X6.3646 Y16.0221
G01 X6.3803 Y16.0210
G01 X6.3650 Y16.0638
G00 Z1.0000
G00 X3.9464 Y15.2537
G01 F60.00
G01 Z-0.1100
G01 F120.00
G01 X3.9728 Y15.2537
G01 X4.0075 Y15.2919
G01 X4.0249 Y15.3101
G01 X4.0431 Y15.3275
G01 X4.1101 Y15.3883
G01 X4.0767 Y15.4186
G01 X4.0584 Y15.4359
G01 X4.0411 Y15.4542
G01 X4.0192 Y15.4783
G01 X4.0170 Y15.4570
G01 X4.0153 Y15.4445
G01 X4.0110 Y15.4196
G01 X4.0055 Y15.3950
G01 X4.0022 Y15.3827
G01 X3.9949 Y15.3586
G01 X3.9864 Y15.3348
G01 X3.9817 Y15.3231
G01 X3.9714 Y15.3001
G01 X3.9601 Y15.2776
G01 X3.9464 Y15.2537
G00 Z1.0000
G00 X3.3231 Y15.1379
G01 F60.00
G01 Z-0.1100
G01 F120.00
G01 X3.3403 Y15.1223
G01 X4.0313 Y15.1223
G01 X4.1048 Y15.2037
G01 X4.1177 Y15.2173
G01 X4.1313 Y15.2302
G01 X4.2040 Y15.2961
G01 X4.2188 Y15.3089
G01 X4.2330 Y15.3199
G01 X4.3220 Y15.3856
G01 X4.2631 Y15.4293
G01 X4.2490 Y15.4403
G01 X4.2342 Y15.4531
G01 X4.1580 Y15.5223
G01 X4.1384 Y15.5424
G01 X4.0756 Y15.6117
G01 X4.0628 Y15.6265
G01 X4.0518 Y15.6406
G01 X3.9961 Y15.7157
G01 X3.9801 Y15.7391
G01 X3.9224 Y15.8355
G01 X3.9132 Y15.8526
G01 X3.8896 Y15.9024
G01 X3.8896 Y15.5200
G01 X3.8891 Y15.5012
G01 X3.8867 Y15.4731
G01 X3.8839 Y15.4545
G01 X3.8781 Y15.4269
G01 X3.8731 Y15.4088
G01 X3.8639 Y15.3822
G01 X3.8566 Y15.3648
G01 X3.8443 Y15.3396
G01 X3.8302 Y15.3154
G01 X3.8143 Y15.2923
G01 X3.7968 Y15.2704
G01 X3.7842 Y15.2565
G01 X3.7710 Y15.2433
G01 X3.7500 Y15.2247
G01 X3.7276 Y15.2077
G01 X3.7121 Y15.1973
G01 X3.6961 Y15.1877
G01 X3.6712 Y15.1748
G01 X3.6453 Y15.1636
G01 X3.6187 Y15.1544
G01 X3.5914 Y15.1472
G01 X3.5730 Y15.1436
G01 X3.5544 Y15.1408
G01 X3.5263 Y15.1384
G01 X3.5075 Y15.1379
G01 X3.3231 Y15.1379
G00 Z1.0000
G00 X3.2329 Y13.6203
G01 F60.00
G01 Z-0.1100
G01 F120.00
G01 X4.1628 Y13.6203
G01 X4.1676 Y13.6133
G01 X4.2295 Y13.5301
G01 X4.2994 Y13.4527
G01 X4.3077 Y13.4444
G01 X4.3804 Y13.3785
G01 X4.3895 Y13.3711
G01 X4.4732 Y13.3092
G01 X4.5675 Y13.2527
G01 X4.6666 Y13.2058
G01 X4.7645 Y13.1706
G01 X4.7757 Y13.1672
G01 X4.8709 Y13.1434
G01 X4.8824 Y13.1411
G01 X4.9851 Y13.1260
G01 X5.0950 Y13.1206
G01 X5.2049 Y13.1260
G01 X5.3076 Y13.1411
G01 X5.3191 Y13.1434
G01 X5.4143 Y13.1672
G01 X5.4226 Y13.1696
G01 X5.5234 Y13.2058
G01 X5.6225 Y13.2527
G01 X5.7168 Y13.3092
G01 X5.8049 Y13.3745
G01 X5.8865 Y13.4485
G01 X5.9605 Y13.5301
G01 X6.0258 Y13.6182
G01 X6.0823 Y13.7125
G01 X6.1292 Y13.8116
G01 X6.1663 Y13.9154
G01 X6.1929 Y14.0218
G01 X6.2090 Y14.1301
G01 X6.2144 Y14.2400
G01 X6.2090 Y14.3499
G01 X6.1929 Y14.4582
G01 X6.1678 Y14.5593
G01 X6.1654 Y14.5676
G01 X6.1292 Y14.6684
G01 X6.0849 Y14.7624
G01 X6.0793 Y14.7728
G01 X6.0258 Y14.8618
G01 X5.9605 Y14.9499
G01 X5.8906 Y15.0273
G01 X5.8823 Y15.0356
G01 X5.8049 Y15.1055
G01 X5.7168 Y15.1708
G01 X5.6278 Y15.2243
G01 X5.6174 Y15.2299
G01 X5.5234 Y15.2742
G01 X5.4196 Y15.3113
G01 X5.3191 Y15.3366
G01 X5.3076 Y15.3389
G01 X5.2105 Y15.3533
G01 X5.2019 Y15.3543
G01 X5.0950 Y15.3594
G01 X4.9911 Y15.3544
G01 X4.9795 Y15.3533
G01 X4.8768 Y15.3379
G01 X4.7757 Y15.3128
G01 X4.7645 Y15.3094
G01 X4.6666 Y15.2742
G01 X4.5726 Y15.2299
G01 X4.5622 Y15.2243
G01 X4.4732 Y15.1708
G01 X4.3895 Y15.1089
G01 X4.3804 Y15.1015
G01 X4.3035 Y15.0315
G01 X4.2335 Y14.9546
G01 X4.2261 Y14.9455
G01 X4.1676 Y14.8667
G01 X4.1628 Y14.8597
G01 X3.2329 Y14.8597
G01 X3.2092 Y14.8859
G01 X3.2030 Y14.8922
G01 X3.1402 Y14.9491
G01 X3.1336 Y14.9543
G01 X3.0682 Y15.0028
G01 X3.0608 Y15.0076
G01 X2.9882 Y15.0509
G01 X2.9096 Y15.0882
G01 X2.9014 Y15.0915
G01 X2.8215 Y15.1199
G01 X2.7342 Y15.1418
G01 X2.6453 Y15.1550
G01 X2.5579 Y15.1594
G01 X2.5491 Y15.1593
G01 X2.4647 Y15.1550
G01 X2.3758 Y15.1418
G01 X2.2885 Y15.1199
G01 X2.2031 Y15.0894
G01 X2.1218 Y15.0509
G01 X2.0443 Y15.0045
G01 X1.9719 Y14.9509
G01 X1.9091 Y14.8942
G01 X1.9028 Y14.8880
G01 X1.8441 Y14.8231
G01 X1.7905 Y14.7507
G01 X1.7441 Y14.6732
G01 X1.7056 Y14.5919
G01 X1.6751 Y14.5065
G01 X1.6532 Y14.4192
G01 X1.6400 Y14.3303
G01 X1.6356 Y14.2400
G01 X1.6400 Y14.1497
G01 X1.6532 Y14.0608
G01 X1.6751 Y13.9735
G01 X1.7056 Y13.8881
G01 X1.7441 Y13.8068
G01 X1.7905 Y13.7293
G01 X1.8441 Y13.6569
G01 X1.9008 Y13.5941
G01 X1.9070 Y13.5878
G01 X1.9719 Y13.5291
G01 X2.0443 Y13.4755
G01 X2.1218 Y13.4291
G01 X2.2031 Y13.3906
G01 X2.2885 Y13.3601
G01 X2.3758 Y13.3382
G01 X2.4647 Y13.3250
G01 X2.5491 Y13.3207
G01 X2.5579 Y13.3206
G01 X2.6453 Y13.3250
G01 X2.7342 Y13.3382
G01 X2.8215 Y13.3601
G01 X2.9014 Y13.3885
G01 X2.9096 Y13.3918
G01 X2.9882 Y13.4291
G01 X3.0608 Y13.4724
G01 X3.0682 Y13.4772
G01 X3.1336 Y13.5257
G01 X3.1402 Y13.5309
G01 X3.2030 Y13.5878
G01 X3.2092 Y13.5941
G01 X3.2329 Y13.6203
G00 Z1.0000
G00 X3.2896 Y13.4890
G01 F60.00
G01 Z-0.1100
G01 F120.00
G01 X4.0963 Y13.4890
G01 X4.1206 Y13.4562
G01 X4.1316 Y13.4424
G01 X4.2063 Y13.3600
G01 X4.2195 Y13.3471
G01 X4.2922 Y13.2812
G01 X4.3066 Y13.2692
G01 X4.3901 Y13.2071
G01 X4.4003 Y13.1999
G01 X4.4105 Y13.1935
G01 X4.4947 Y13.1430
G01 X4.5058 Y13.1367
G01 X4.5164 Y13.1314
G01 X4.6051 Y13.0895
G01 X4.6220 Y13.0822
G01 X4.7202 Y13.0470
G01 X4.7327 Y13.0429
G01 X4.8390 Y13.0160
G01 X4.8514 Y13.0132
G01 X4.8631 Y13.0112
G01 X4.9602 Y12.9968
G01 X4.9720 Y12.9953
G01 X4.9847 Y12.9944
G01 X5.0827 Y12.9896
G01 X5.0950 Y12.9893
G01 X5.1073 Y12.9896
G01 X5.2053 Y12.9944
G01 X5.2180 Y12.9953
G01 X5.2298 Y12.9968
G01 X5.3328 Y13.0121
G01 X5.3510 Y13.0160
G01 X5.4462 Y13.0398
G01 X5.4573 Y13.0429
G01 X5.4698 Y13.0470
G01 X5.5622 Y13.0800
G01 X5.5738 Y13.0845
G01 X5.5849 Y13.0895
G01 X5.6736 Y13.1314
G01 X5.6842 Y13.1367
G01 X5.6953 Y13.1430
G01 X5.7795 Y13.1935
G01 X5.7897 Y13.1999
G01 X5.7999 Y13.2071
G01 X5.8881 Y13.2728
G01 X5.8978 Y13.2812
G01 X5.9705 Y13.3471
G01 X5.9794 Y13.3556
G01 X5.9879 Y13.3645
G01 X6.0538 Y13.4372
G01 X6.0622 Y13.4469
G01 X6.1279 Y13.5351
G01 X6.1351 Y13.5453
G01 X6.1415 Y13.5555
G01 X6.1920 Y13.6397
G01 X6.1983 Y13.6508
G01 X6.2036 Y13.6614
G01 X6.2455 Y13.7501
G01 X6.2505 Y13.7612
G01 X6.2550 Y13.7728
G01 X6.2880 Y13.8652
G01 X6.2921 Y13.8777
G01 X6.3206 Y13.9905
G01 X6.3238 Y14.0081
G01 X6.3382 Y14.1052
G01 X6.3397 Y14.1170
G01 X6.3406 Y14.1297
G01 X6.3454 Y14.2277
G01 X6.3457 Y14.2400
G01 X6.3454 Y14.2523
G01 X6.3406 Y14.3503
G01 X6.3397 Y14.3630
G01 X6.3382 Y14.3748
G01 X6.3238 Y14.4719
G01 X6.3218 Y14.4836
G01 X6.3190 Y14.4960
G01 X6.2921 Y14.6023
G01 X6.2880 Y14.6148
G01 X6.2550 Y14.7072
G01 X6.2505 Y14.7188
G01 X6.2455 Y14.7299
G01 X6.2036 Y14.8186
G01 X6.1983 Y14.8292
G01 X6.1920 Y14.8403
G01 X6.1415 Y14.9245
G01 X6.1351 Y14.9347
G01 X6.1279 Y14.9449
G01 X6.0694 Y15.0238
G01 X6.0622 Y15.0331
G01 X6.0538 Y15.0428
G01 X5.9879 Y15.1155
G01 X5.9794 Y15.1244
G01 X5.9705 Y15.1329
G01 X5.8978 Y15.1988
G01 X5.8881 Y15.2072
G01 X5.7999 Y15.2729
G01 X5.7897 Y15.2801
G01 X5.7795 Y15.2865
G01 X5.6953 Y15.3370
G01 X5.6842 Y15.3433
G01 X5.6019 Y15.3825
G01 X5.6512 Y15.4058
G01 X5.6674 Y15.4142
G01 X5.7582 Y15.4686
G01 X5.7735 Y15.4791
G01 X5.8533 Y15.5384
G01 X5.8676 Y15.5504
G01 X5.9369 Y15.6132
G01 X5.9458 Y15.6217
G01 X5.9543 Y15.6306
G01 X6.0171 Y15.6999
G01 X6.0291 Y15.7142
G01 X6.0884 Y15.7940
G01 X6.0956 Y15.8042
G01 X6.1020 Y15.8144
G01 X6.1501 Y15.8946
G01 X6.1564 Y15.9057
G01 X6.2017 Y16.0008
G01 X6.2066 Y16.0119
G01 X6.2111 Y16.0235
G01 X6.2426 Y16.1115
G01 X6.2467 Y16.1240
G01 X6.2724 Y16.2258
G01 X6.2763 Y16.2440
G01 X6.2909 Y16.3423
G01 X6.2930 Y16.3605
G01 X6.2982 Y16.4663
G01 X6.2982 Y16.5675
G01 X6.2979 Y16.5798
G01 X6.2934 Y16.6732
G01 X6.2924 Y16.6858
G01 X6.2909 Y16.6977
G01 X6.2772 Y16.7901
G01 X6.2752 Y16.8019
G01 X6.2724 Y16.8142
G01 X6.2467 Y16.9160
G01 X6.2426 Y16.9285
G01 X6.2111 Y17.0165
G01 X6.2066 Y17.0281
G01 X6.2017 Y17.0392
G01 X6.1564 Y17.1343
G01 X6.1501 Y17.1454
G01 X6.1020 Y17.2256
G01 X6.0956 Y17.2358
G01 X6.0884 Y17.2460
G01 X6.0255 Y17.3304
G01 X6.0171 Y17.3401
G01 X5.9543 Y17.4094
G01 X5.9458 Y17.4183
G01 X5.9369 Y17.4268
G01 X5.8676 Y17.4896
G01 X5.8579 Y17.4979
G01 X5.8460 Y17.5071
G01 X5.8460 Y17.9693
G01 X6.2012 Y17.9693
G01 X6.2196 Y17.9705
G01 X6.2380 Y17.9730
G01 X6.2561 Y17.9768
G01 X6.2738 Y17.9820
G01 X6.2854 Y17.9861
G01 X6.3024 Y17.9934
G01 X6.3187 Y18.0019
G01 X6.3293 Y18.0082
G01 X6.3395 Y18.0151
G01 X6.3541 Y18.0262
G01 X6.3679 Y18.0384
G01 X6.3808 Y18.0516
G01 X6.3926 Y18.0657
G01 X6.3999 Y18.0755
G01 X6.4068 Y18.0857
G01 X6.4160 Y18.1016
G01 X6.4241 Y18.1182
G01 X6.4289 Y18.1296
G01 X6.4330 Y18.1412
G01 X6.4382 Y18.1589
G01 X6.4420 Y18.1770
G01 X6.4438 Y18.1892
G01 X6.4451 Y18.2015
G01 X6.4457 Y18.2200
G01 X6.4457 Y20.4200
G01 X6.4451 Y20.4385
G01 X6.4438 Y20.4508
G01 X6.4409 Y20.4690
G01 X6.4382 Y20.4811
G01 X6.4330 Y20.4988
G01 X6.4266 Y20.5162
G01 X6.4216 Y20.5274
G01 X6.4131 Y20.5437
G01 X6.4034 Y20.5594
G01 X6.3926 Y20.5743
G01 X6.3808 Y20.5884
G01 X6.3679 Y20.6016
G01 X6.3541 Y20.6138
G01 X6.3395 Y20.6249
G01 X6.3240 Y20.6350
G01 X6.3079 Y20.6439
G01 X6.2912 Y20.6516
G01 X6.2797 Y20.6560
G01 X6.2620 Y20.6616
G01 X6.2501 Y20.6646
G01 X6.2380 Y20.6670
G01 X6.2196 Y20.6695
G01 X6.2012 Y20.6707
G01 X5.8460 Y20.6707
G01 X5.8460 Y21.0565
G01 X5.8689 Y21.0774
G01 X5.8776 Y21.0861
G01 X5.9378 Y21.1524
G01 X5.9499 Y21.1667
G01 X6.0031 Y21.2384
G01 X6.0104 Y21.2487
G01 X6.0168 Y21.2589
G01 X6.0629 Y21.3359
G01 X6.0713 Y21.3521
G01 X6.1070 Y21.4275
G01 X6.1119 Y21.4386
G01 X6.1164 Y21.4502
G01 X6.1445 Y21.5288
G01 X6.1486 Y21.5412
G01 X6.1516 Y21.5523
G01 X6.1719 Y21.6332
G01 X6.1757 Y21.6515
G01 X6.1889 Y21.7399
G01 X6.1904 Y21.7517
G01 X6.1913 Y21.7644
G01 X6.1954 Y21.8477
G01 X6.1957 Y21.8600
G01 X6.1954 Y21.8723
G01 X6.1913 Y21.9556
G01 X6.1904 Y21.9683
G01 X6.1767 Y22.0626
G01 X6.1747 Y22.0744
G01 X6.1719 Y22.0868
G01 X6.1516 Y22.1677
G01 X6.1486 Y22.1788
G01 X6.1445 Y22.1912
G01 X6.1164 Y22.2698
G01 X6.1094 Y22.2871
G01 X6.0713 Y22.3679
G01 X6.0660 Y22.3785
G01 X6.0597 Y22.3896
G01 X6.0168 Y22.4611
G01 X6.0104 Y22.4713
G01 X6.0031 Y22.4816
G01 X5.9535 Y22.5486
G01 X5.9462 Y22.5579
G01 X5.9378 Y22.5676
G01 X5.8818 Y22.6294
G01 X5.8733 Y22.6383
G01 X5.8644 Y22.6468
G01 X5.8026 Y22.7028
G01 X5.7929 Y22.7112
G01 X5.7166 Y22.7681
G01 X5.7063 Y22.7754
G01 X5.6961 Y22.7818
G01 X5.6246 Y22.8247
G01 X5.6135 Y22.8310
G01 X5.6029 Y22.8363
G01 X5.5275 Y22.8720
G01 X5.5164 Y22.8769
G01 X5.5048 Y22.8814
G01 X5.4262 Y22.9095
G01 X5.4138 Y22.9136
G01 X5.4027 Y22.9166
G01 X5.3152 Y22.9384
G01 X5.2976 Y22.9417
G01 X5.2151 Y22.9539
G01 X5.2033 Y22.9554
G01 X5.1906 Y22.9563
G01 X5.1073 Y22.9604
G01 X5.0950 Y22.9607
G01 X5.0827 Y22.9604
G01 X4.9994 Y22.9563
G01 X4.9867 Y22.9554
G01 X4.8924 Y22.9417
G01 X4.8806 Y22.9397
G01 X4.8682 Y22.9369
G01 X4.7873 Y22.9166
G01 X4.7762 Y22.9136
G01 X4.7638 Y22.9095
G01 X4.6852 Y22.8814
G01 X4.6736 Y22.8769
G01 X4.6625 Y22.8720
G01 X4.5871 Y22.8363
G01 X4.5765 Y22.8310
G01 X4.5654 Y22.8247
G01 X4.4939 Y22.7818
G01 X4.4837 Y22.7754
G01 X4.4734 Y22.7681
G01 X4.3971 Y22.7112
G01 X4.3874 Y22.7028
G01 X4.3256 Y22.6468
G01 X4.3167 Y22.6383
G01 X4.3082 Y22.6294
G01 X4.2522 Y22.5676
G01 X4.2438 Y22.5579
G01 X4.2365 Y22.5486
G01 X4.1869 Y22.4816
G01 X4.1763 Y22.4663
G01 X4.1303 Y22.3896
G01 X4.1240 Y22.3785
G01 X4.0830 Y22.2925
G01 X4.0781 Y22.2814
G01 X4.0736 Y22.2698
G01 X4.0455 Y22.1912
G01 X4.0414 Y22.1788
G01 X4.0181 Y22.0868
G01 X4.0153 Y22.0744
G01 X4.0133 Y22.0626
G01 X4.0011 Y21.9801
G01 X3.9996 Y21.9683
G01 X3.9987 Y21.9556
G01 X3.9946 Y21.8723
G01 X3.9943 Y21.8600
G01 X3.9946 Y21.8477
G01 X3.9987 Y21.7644
G01 X3.9996 Y21.7517
G01 X4.0133 Y21.6574
G01 X4.0153 Y21.6456
G01 X4.0181 Y21.6332
G01 X4.0414 Y21.5412
G01 X4.0455 Y21.5288
G01 X4.0736 Y21.4502
G01 X4.0781 Y21.4386
G01 X4.0830 Y21.4275
G01 X4.1211 Y21.3472
G01 X4.1303 Y21.3304
G01 X4.1732 Y21.2589
G01 X4.1796 Y21.2487
G01 X4.1869 Y21.2384
G01 X4.2401 Y21.1667
G01 X4.2522 Y21.1524
G01 X4.3124 Y21.0861
G01 X4.3211 Y21.0774
G01 X4.3440 Y21.0565
G01 X4.3440 Y20.6707
G01 X3.9888 Y20.6707
G01 X3.9765 Y20.6701
G01 X3.9642 Y20.6688
G01 X3.9460 Y20.6659
G01 X3.9280 Y20.6616
G01 X3.9103 Y20.6560
G01 X3.8988 Y20.6516
G01 X3.8821 Y20.6439
G01 X3.8660 Y20.6350
G01 X3.8505 Y20.6249
G01 X3.8407 Y20.6176
G01 X3.8266 Y20.6058
G01 X3.8134 Y20.5929
G01 X3.8012 Y20.5791
G01 X3.7901 Y20.5645
G01 X3.7800 Y20.5490
G01 X3.7711 Y20.5329
G01 X3.7659 Y20.5218
G01 X3.7611 Y20.5104
G01 X3.7551 Y20.4930
G01 X3.7504 Y20.4751
G01 X3.7470 Y20.4569
G01 X3.7449 Y20.4385
G01 X3.7443 Y20.4200
G01 X3.7443 Y18.2200
G01 X3.7446 Y18.2077
G01 X3.7462 Y18.1892
G01 X3.7491 Y18.1710
G01 X3.7518 Y18.1589
G01 X3.7570 Y18.1412
G01 X3.7611 Y18.1296
G01 X3.7659 Y18.1182
G01 X3.7740 Y18.1016
G01 X3.7832 Y18.0857
G01 X3.7901 Y18.0755
G01 X3.7974 Y18.0657
G01 X3.8092 Y18.0516
G01 X3.8221 Y18.0384
G01 X3.8312 Y18.0302
G01 X3.8456 Y18.0187
G01 X3.8607 Y18.0082
G01 X3.8713 Y18.0019
G01 X3.8876 Y17.9934
G01 X3.9046 Y17.9861
G01 X3.9162 Y17.9820
G01 X3.9339 Y17.9768
G01 X3.9520 Y17.9730
G01 X3.9704 Y17.9705
G01 X3.9888 Y17.9693
G01 X4.3440 Y17.9693
G01 X4.3440 Y17.5071
G01 X4.3321 Y17.4979
G01 X4.3224 Y17.4896
G01 X4.2531 Y17.4268
G01 X4.2442 Y17.4183
G01 X4.2357 Y17.4094
G01 X4.1729 Y17.3401
G01 X4.1645 Y17.3304
G01 X4.1016 Y17.2460
G01 X4.0944 Y17.2358
G01 X4.0880 Y17.2256
G01 X4.0399 Y17.1454
G01 X4.0336 Y17.1343
G01 X3.9883 Y17.0392
G01 X3.9834 Y17.0281
G01 X3.9789 Y17.0165
G01 X3.9474 Y16.9285
G01 X3.9433 Y16.9160
G01 X3.9176 Y16.8142
G01 X3.9148 Y16.8019
G01 X3.9128 Y16.7901
G01 X3.8991 Y16.6977
G01 X3.8976 Y16.6858
G01 X3.8966 Y16.6732
G01 X3.8921 Y16.5798
G01 X3.8918 Y16.5675
G01 X3.8918 Y16.4663
G01 X3.8970 Y16.3605
G01 X3.8991 Y16.3423
G01 X3.9137 Y16.2440
G01 X3.9176 Y16.2258
G01 X3.9433 Y16.1240
G01 X3.9474 Y16.1115
G01 X3.9789 Y16.0235
G01 X3.9834 Y16.0119
G01 X3.9883 Y16.0008
G01 X4.0336 Y15.9057
G01 X4.0399 Y15.8946
G01 X4.0880 Y15.8144
G01 X4.0944 Y15.8042
G01 X4.1016 Y15.7940
G01 X4.1609 Y15.7142
G01 X4.1729 Y15.6999
G01 X4.2357 Y15.6306
G01 X4.2442 Y15.6217
G01 X4.2531 Y15.6132
G01 X4.3224 Y15.5504
G01 X4.3367 Y15.5384
G01 X4.4165 Y15.4791
G01 X4.4318 Y15.4686
G01 X4.5226 Y15.4142
G01 X4.5388 Y15.4058
G01 X4.5881 Y15.3825
G01 X4.5058 Y15.3433
G01 X4.4947 Y15.3370
G01 X4.4105 Y15.2865
G01 X4.4003 Y15.2801
G01 X4.3901 Y15.2729
G01 X4.3066 Y15.2108
G01 X4.2922 Y15.1988
G01 X4.2195 Y15.1329
G01 X4.2063 Y15.1200
G01 X4.1316 Y15.0376
G01 X4.1206 Y15.0238
G01 X4.0963 Y14.9910
G01 X3.2896 Y14.9910
G01 X3.2309 Y15.0442
G01 X3.2212 Y15.0526
G01 X3.1488 Y15.1066
G01 X3.1385 Y15.1138
G01 X3.1284 Y15.1202
G01 X3.0610 Y15.1606
G01 X3.0499 Y15.1669
G01 X2.9684 Y15.2058
G01 X2.9573 Y15.2107
G01 X2.9456 Y15.2152
G01 X2.8717 Y15.2416
G01 X2.8593 Y15.2457
G01 X2.7660 Y15.2693
G01 X3.5075 Y15.2693
G01 X3.5198 Y15.2696
G01 X3.5383 Y15.2712
G01 X3.5505 Y15.2730
G01 X3.5626 Y15.2754
G01 X3.5805 Y15.2801
G01 X3.5979 Y15.2861
G01 X3.6149 Y15.2934
G01 X3.6312 Y15.3019
G01 X3.6469 Y15.3116
G01 X3.6569 Y15.3187
G01 X3.6666 Y15.3262
G01 X3.6804 Y15.3384
G01 X3.6933 Y15.3516
G01 X3.7051 Y15.3657
G01 X3.7159 Y15.3806
G01 X3.7256 Y15.3963
G01 X3.7341 Y15.4126
G01 X3.7414 Y15.4296
G01 X3.7474 Y15.4470
G01 X3.7521 Y15.4649
G01 X3.7555 Y15.4831
G01 X3.7576 Y15.5015
G01 X3.7582 Y15.5200
G01 X3.7582 Y17.5200
G01 X3.7579 Y17.5323
G01 X3.7570 Y17.5446
G01 X3.7555 Y17.5569
G01 X3.7534 Y17.5690
G01 X3.7507 Y17.5811
G01 X3.7455 Y17.5988
G01 X3.7414 Y17.6104
G01 X3.7366 Y17.6218
G01 X3.7285 Y17.6384
G01 X3.7225 Y17.6490
G01 X3.7159 Y17.6594
G01 X3.7051 Y17.6743
G01 X3.6933 Y17.6884
G01 X3.6848 Y17.6973
G01 X3.6759 Y17.7058
G01 X3.6618 Y17.7176
G01 X3.6520 Y17.7249
G01 X3.6365 Y17.7350
G01 X3.6204 Y17.7439
G01 X3.6093 Y17.7491
G01 X3.5922 Y17.7560
G01 X3.5805 Y17.7599
G01 X3.5686 Y17.7632
G01 X3.5565 Y17.7659
G01 X3.5444 Y17.7680
G01 X3.5260 Y17.7701
G01 X3.5075 Y17.7707
G01 X3.3060 Y17.7707
G01 X3.3060 Y18.3254
G01 X3.3592 Y18.3841
G01 X3.3676 Y18.3938
G01 X3.4216 Y18.4662
G01 X3.4288 Y18.4765
G01 X3.4352 Y18.4866
G01 X3.4756 Y18.5540
G01 X3.4819 Y18.5651
G01 X3.5208 Y18.6466
G01 X3.5257 Y18.6577
G01 X3.5302 Y18.6694
G01 X3.5566 Y18.7433
G01 X3.5607 Y18.7557
G01 X3.5638 Y18.7668
G01 X3.5829 Y18.8430
G01 X3.5856 Y18.8554
G01 X3.5992 Y18.9448
G01 X3.6012 Y18.9630
G01 X3.6054 Y19.0477
G01 X3.6057 Y19.0600
G01 X3.6054 Y19.0723
G01 X3.6016 Y19.1507
G01 X3.6006 Y19.1634
G01 X3.5992 Y19.1752
G01 X3.5877 Y19.2529
G01 X3.5856 Y19.2646
G01 X3.5829 Y19.2770
G01 X3.5607 Y19.3643
G01 X3.5566 Y19.3767
G01 X3.5302 Y19.4506
G01 X3.5257 Y19.4623
G01 X3.5208 Y19.4734
G01 X3.4819 Y19.5549
G01 X3.4756 Y19.5660
G01 X3.4352 Y19.6334
G01 X3.4288 Y19.6435
G01 X3.4216 Y19.6538
G01 X3.3748 Y19.7169
G01 X3.3676 Y19.7262
G01 X3.3592 Y19.7359
G01 X3.3065 Y19.7941
G01 X3.2980 Y19.8030
G01 X3.2891 Y19.8115
G01 X3.2309 Y19.8642
G01 X3.2212 Y19.8726
G01 X3.1488 Y19.9266
G01 X3.1385 Y19.9338
G01 X3.1284 Y19.9402
G01 X3.0610 Y19.9806
G01 X3.0499 Y19.9869
G01 X3.0393 Y19.9922
G01 X2.9684 Y20.0258
G01 X2.9573 Y20.0307
G01 X2.9456 Y20.0352
G01 X2.8717 Y20.0616
G01 X2.8593 Y20.0657
G01 X2.8482 Y20.0688
G01 X2.7720 Y20.0879
G01 X2.7596 Y20.0906
G01 X2.7479 Y20.0927
G01 X2.6584 Y20.1056
G01 X2.6457 Y20.1066
G01 X2.5673 Y20.1104
G01 X2.5550 Y20.1107
G01 X2.5427 Y20.1104
G01 X2.4643 Y20.1066
G01 X2.4516 Y20.1056
G01 X2.3621 Y20.0927
G01 X2.3504 Y20.0906
G01 X2.3380 Y20.0879
G01 X2.2618 Y20.0688
G01 X2.2507 Y20.0657
G01 X2.2383 Y20.0616
G01 X2.1644 Y20.0352
G01 X2.1527 Y20.0307
G01 X2.1416 Y20.0258
G01 X2.0601 Y19.9869
G01 X2.0490 Y19.9806
G01 X1.9816 Y19.9402
G01 X1.9715 Y19.9338
G01 X1.9612 Y19.9266
G01 X1.8888 Y19.8726
G01 X1.8791 Y19.8642
G01 X1.8209 Y19.8115
G01 X1.8120 Y19.8030
G01 X1.8035 Y19.7941
G01 X1.7508 Y19.7359
G01 X1.7424 Y19.7262
G01 X1.6884 Y19.6538
G01 X1.6812 Y19.6435
G01 X1.6748 Y19.6334
G01 X1.6344 Y19.5660
G01 X1.6281 Y19.5549
G01 X1.5892 Y19.4734
G01 X1.5843 Y19.4623
G01 X1.5798 Y19.4506
G01 X1.5534 Y19.3767
G01 X1.5493 Y19.3643
G01 X1.5256 Y19.2705
G01 X1.5223 Y19.2529
G01 X1.5094 Y19.1634
G01 X1.5084 Y19.1507
G01 X1.5046 Y19.0723
G01 X1.5043 Y19.0600
G01 X1.5046 Y19.0477
G01 X1.5084 Y18.9693
G01 X1.5094 Y18.9566
G01 X1.5223 Y18.8671
G01 X1.5244 Y18.8554
G01 X1.5271 Y18.8430
G01 X1.5493 Y18.7557
G01 X1.5534 Y18.7433
G01 X1.5798 Y18.6694
G01 X1.5843 Y18.6577
G01 X1.5892 Y18.6466
G01 X1.6228 Y18.5757
G01 X1.6281 Y18.5651
G01 X1.6344 Y18.5540
G01 X1.6748 Y18.4866
G01 X1.6812 Y18.4765
G01 X1.6884 Y18.4662
G01 X1.7352 Y18.4031
G01 X1.7424 Y18.3938
G01 X1.7508 Y18.3841
G01 X1.8040 Y18.3254
G01 X1.8040 Y17.7707
G01 X1.6025 Y17.7707
G01 X1.5840 Y17.7701
G01 X1.5717 Y17.7688
G01 X1.5595 Y17.7670
G01 X1.5414 Y17.7632
G01 X1.5295 Y17.7599
G01 X1.5178 Y17.7560
G01 X1.5007 Y17.7491
G01 X1.4841 Y17.7410
G01 X1.4735 Y17.7350
G01 X1.4580 Y17.7249
G01 X1.4482 Y17.7176
G01 X1.4341 Y17.7058
G01 X1.4252 Y17.6973
G01 X1.4127 Y17.6838
G01 X1.4049 Y17.6743
G01 X1.3941 Y17.6594
G01 X1.3875 Y17.6490
G01 X1.3786 Y17.6329
G01 X1.3734 Y17.6218
G01 X1.3686 Y17.6104
G01 X1.3626 Y17.5930
G01 X1.3593 Y17.5811
G01 X1.3566 Y17.5690
G01 X1.3545 Y17.5569
G01 X1.3530 Y17.5446
G01 X1.3521 Y17.5323
G01 X1.3518 Y17.5200
G01 X1.3518 Y15.5200
G01 X1.3521 Y15.5077
G01 X1.3530 Y15.4954
G01 X1.3545 Y15.4831
G01 X1.3566 Y15.4710
G01 X1.3609 Y15.4530
G01 X1.3665 Y15.4353
G01 X1.3734 Y15.4182
G01 X1.3815 Y15.4016
G01 X1.3907 Y15.3857
G01 X1.4012 Y15.3706
G01 X1.4127 Y15.3562
G01 X1.4252 Y15.3427
G01 X1.4387 Y15.3302
G01 X1.4531 Y15.3187
G01 X1.4682 Y15.3082
G01 X1.4841 Y15.2990
G01 X1.5007 Y15.2909
G01 X1.5178 Y15.2840
G01 X1.5355 Y15.2784
G01 X1.5535 Y15.2741
G01 X1.5656 Y15.2720
G01 X1.5779 Y15.2705
G01 X1.5902 Y15.2696
G01 X1.6025 Y15.2693
G01 X2.3440 Y15.2693
G01 X2.2507 Y15.2457
G01 X2.2383 Y15.2416
G01 X2.1644 Y15.2152
G01 X2.1527 Y15.2107
G01 X2.1416 Y15.2058
G01 X2.0601 Y15.1669
G01 X2.0490 Y15.1606
G01 X1.9816 Y15.1202
G01 X1.9715 Y15.1138
G01 X1.9612 Y15.1066
G01 X1.8981 Y15.0598
G01 X1.8888 Y15.0526
G01 X1.8791 Y15.0442
G01 X1.8209 Y14.9915
G01 X1.8120 Y14.9830
G01 X1.8035 Y14.9741
G01 X1.7508 Y14.9159
G01 X1.7424 Y14.9062
G01 X1.7352 Y14.8969
G01 X1.6847 Y14.8287
G01 X1.6748 Y14.8134
G01 X1.6344 Y14.7460
G01 X1.6281 Y14.7349
G01 X1.6228 Y14.7243
G01 X1.5892 Y14.6534
G01 X1.5843 Y14.6423
G01 X1.5798 Y14.6306
G01 X1.5534 Y14.5567
G01 X1.5493 Y14.5443
G01 X1.5271 Y14.4570
G01 X1.5244 Y14.4446
G01 X1.5223 Y14.4329
G01 X1.5094 Y14.3434
G01 X1.5084 Y14.3307
G01 X1.5046 Y14.2523
G01 X1.5043 Y14.2400
G01 X1.5046 Y14.2277
G01 X1.5084 Y14.1493
G01 X1.5094 Y14.1366
G01 X1.5223 Y14.0471
G01 X1.5244 Y14.0354
G01 X1.5271 Y14.0230
G01 X1.5493 Y13.9357
G01 X1.5534 Y13.9233
G01 X1.5798 Y13.8494
G01 X1.5843 Y13.8377
G01 X1.5892 Y13.8266
G01 X1.6228 Y13.7557
G01 X1.6281 Y13.7451
G01 X1.6344 Y13.7340
G01 X1.6748 Y13.6666
G01 X1.6812 Y13.6565
G01 X1.6884 Y13.6462
G01 X1.7352 Y13.5831
G01 X1.7424 Y13.5738
G01 X1.7508 Y13.5641
G01 X1.8035 Y13.5059
G01 X1.8120 Y13.4970
G01 X1.8209 Y13.4885
G01 X1.8791 Y13.4358
G01 X1.8888 Y13.4274
G01 X1.8981 Y13.4202
G01 X1.9612 Y13.3734
G01 X1.9715 Y13.3662
G01 X1.9816 Y13.3598
G01 X2.0490 Y13.3194
G01 X2.0601 Y13.3131
G01 X2.0707 Y13.3078
G01 X2.1416 Y13.2742
G01 X2.1527 Y13.2693
G01 X2.1644 Y13.2648
G01 X2.2383 Y13.2384
G01 X2.2507 Y13.2343
G01 X2.2618 Y13.2312
G01 X2.3380 Y13.2121
G01 X2.3504 Y13.2094
G01 X2.4398 Y13.1958
G01 X2.4516 Y13.1944
G01 X2.4643 Y13.1934
G01 X2.5427 Y13.1896
G01 X2.5550 Y13.1893
G01 X2.5673 Y13.1896
G01 X2.6457 Y13.1934
G01 X2.6584 Y13.1944
G01 X2.6702 Y13.1958
G01 X2.7596 Y13.2094
G01 X2.7720 Y13.2121
G01 X2.8482 Y13.2312
G01 X2.8593 Y13.2343
G01 X2.8717 Y13.2384
G01 X2.9456 Y13.2648
G01 X2.9573 Y13.2693
G01 X2.9684 Y13.2742
G01 X3.0393 Y13.3078
G01 X3.0499 Y13.3131
G01 X3.0610 Y13.3194
G01 X3.1284 Y13.3598
G01 X3.1385 Y13.3662
G01 X3.1488 Y13.3734
G01 X3.2119 Y13.4202
G01 X3.2212 Y13.4274
G01 X3.2309 Y13.4358
G01 X3.2896 Y13.4890
G00 Z1.0000
G00 X1.7776 Y15.1295
G01 F60.00
G01 Z-0.1100
G01 F120.00
G01 X1.7869 Y15.1379
G01 X1.7747 Y15.1379
G01 X1.7776 Y15.1295
G00 Z1.0000
G00 X1.6025 Y15.4006
G01 F60.00
G01 Z-0.1100
G01 F120.00
G01 X3.5134 Y15.4007
G01 X3.5221 Y15.4015
G01 X3.5308 Y15.4029
G01 X3.5394 Y15.4049
G01 X3.5478 Y15.4076
G01 X3.5560 Y15.4109
G01 X3.5639 Y15.4147
G01 X3.5739 Y15.4208
G01 X3.5810 Y15.4259
G01 X3.5898 Y15.4335
G01 X3.5960 Y15.4398
G01 X3.6016 Y15.4465
G01 X3.6067 Y15.4536
G01 X3.6128 Y15.4636
G01 X3.6166 Y15.4715
G01 X3.6199 Y15.4797
G01 X3.6226 Y15.4881
G01 X3.6246 Y15.4967
G01 X3.6260 Y15.5053
G01 X3.6269 Y15.5200
G01 X3.6269 Y17.5200
G01 X3.6263 Y17.5317
G01 X3.6246 Y17.5433
G01 X3.6208 Y17.5575
G01 X3.6178 Y17.5658
G01 X3.6141 Y17.5738
G01 X3.6099 Y17.5815
G01 X3.6051 Y17.5888
G01 X3.5998 Y17.5958
G01 X3.5940 Y17.6023
G01 X3.5877 Y17.6085
G01 X3.5810 Y17.6141
G01 X3.5739 Y17.6192
G01 X3.5664 Y17.6238
G01 X3.5586 Y17.6279
G01 X3.5506 Y17.6314
G01 X3.5422 Y17.6342
G01 X3.5337 Y17.6365
G01 X3.5192 Y17.6388
G01 X3.5075 Y17.6394
G01 X3.1747 Y17.6394
G01 X3.1747 Y18.3821
G01 X3.2009 Y18.4058
G01 X3.2072 Y18.4120
G01 X3.2641 Y18.4748
G01 X3.2693 Y18.4814
G01 X3.3161 Y18.5444
G01 X3.3211 Y18.5517
G01 X3.3659 Y18.6268
G01 X3.4020 Y18.7028
G01 X3.4065 Y18.7136
G01 X3.4340 Y18.7905
G01 X3.4364 Y18.7988
G01 X3.4568 Y18.8808
G01 X3.4693 Y18.9641
G01 X3.4704 Y18.9757
G01 X3.4744 Y19.0600
G01 X3.4704 Y19.1443
G01 X3.4693 Y19.1559
G01 X3.4573 Y19.2364
G01 X3.4554 Y19.2451
G01 X3.4364 Y19.3212
G01 X3.4330 Y19.3325
G01 X3.4044 Y19.4119
G01 X3.3659 Y19.4932
G01 X3.3226 Y19.5658
G01 X3.3161 Y19.5756
G01 X3.2659 Y19.6431
G01 X3.2092 Y19.7059
G01 X3.2009 Y19.7142
G01 X3.1381 Y19.7709
G01 X3.0706 Y19.8211
G01 X3.0608 Y19.8276
G01 X2.9882 Y19.8709
G01 X2.9122 Y19.9070
G01 X2.9014 Y19.9115
G01 X2.8275 Y19.9380
G01 X2.8189 Y19.9407
G01 X2.7342 Y19.9618
G01 X2.6453 Y19.9750
G01 X2.5550 Y19.9794
G01 X2.4647 Y19.9750
G01 X2.3758 Y19.9618
G01 X2.2885 Y19.9399
G01 X2.2031 Y19.9094
G01 X2.1218 Y19.8709
G01 X2.0443 Y19.8245
G01 X1.9719 Y19.7709
G01 X1.9049 Y19.7101
G01 X1.8441 Y19.6431
G01 X1.7905 Y19.5707
G01 X1.7441 Y19.4932
G01 X1.7056 Y19.4119
G01 X1.6770 Y19.3325
G01 X1.6743 Y19.3239
G01 X1.6532 Y19.2392
G01 X1.6407 Y19.1559
G01 X1.6396 Y19.1443
G01 X1.6356 Y19.0600
G01 X1.6396 Y18.9757
G01 X1.6407 Y18.9641
G01 X1.6532 Y18.8808
G01 X1.6743 Y18.7961
G01 X1.6770 Y18.7875
G01 X1.7035 Y18.7136
G01 X1.7080 Y18.7028
G01 X1.7441 Y18.6268
G01 X1.7889 Y18.5517
G01 X1.7939 Y18.5444
G01 X1.8407 Y18.4814
G01 X1.8459 Y18.4748
G01 X1.9028 Y18.4120
G01 X1.9091 Y18.4058
G01 X1.9353 Y18.3821
G01 X1.9353 Y17.6394
G01 X1.6025 Y17.6394
G01 X1.5908 Y17.6388
G01 X1.5763 Y17.6365
G01 X1.5678 Y17.6342
G01 X1.5594 Y17.6314
G01 X1.5514 Y17.6279
G01 X1.5436 Y17.6238
G01 X1.5337 Y17.6176
G01 X1.5267 Y17.6123
G01 X1.5202 Y17.6065
G01 X1.5140 Y17.6002
G01 X1.5084 Y17.5935
G01 X1.5033 Y17.5864
G01 X1.4987 Y17.5789
G01 X1.4946 Y17.5711
G01 X1.4911 Y17.5631
G01 X1.4883 Y17.5547
G01 X1.4860 Y17.5462
G01 X1.4844 Y17.5376
G01 X1.4834 Y17.5288
G01 X1.4831 Y17.5200
G01 X1.4832 Y15.5141
G01 X1.4844 Y15.5024
G01 X1.4867 Y15.4909
G01 X1.4901 Y15.4797
G01 X1.4934 Y15.4715
G01 X1.4987 Y15.4611
G01 X1.5049 Y15.4512
G01 X1.5121 Y15.4420
G01 X1.5202 Y15.4335
G01 X1.5290 Y15.4259
G01 X1.5386 Y15.4192
G01 X1.5487 Y15.4134
G01 X1.5594 Y15.4086
G01 X1.5706 Y15.4049
G01 X1.5792 Y15.4029
G01 X1.5908 Y15.4012
G01 X1.6025 Y15.4006
G00 Z1.0000
G00 X3.9858 Y17.7067
G01 F60.00
G01 Z-0.1100
G01 F120.00
G01 X3.9908 Y17.6934
G01 X3.9987 Y17.6694
G01 X4.0055 Y17.6450
G01 X4.0084 Y17.6327
G01 X4.0110 Y17.6204
G01 X4.0153 Y17.5955
G01 X4.0170 Y17.5830
G01 X4.0192 Y17.5617
G01 X4.0496 Y17.5950
G01 X4.0675 Y17.6129
G01 X4.0813 Y17.6256
G01 X4.0813 Y17.7066
G01 X3.9858 Y17.7067
G00 Z1.0000
G00 X3.9950 Y18.1006
G01 F60.00
G01 Z-0.1100
G01 F120.00
G01 X4.4753 Y18.1006
G01 X4.4753 Y17.4410
G01 X4.4152 Y17.3962
G01 X4.3413 Y17.3295
G01 X4.3330 Y17.3212
G01 X4.2702 Y17.2519
G01 X4.2628 Y17.2429
G01 X4.2037 Y17.1629
G01 X4.1526 Y17.0779
G01 X4.1470 Y17.0676
G01 X4.1047 Y16.9778
G01 X4.0691 Y16.8783
G01 X4.0437 Y16.7764
G01 X4.0286 Y16.6756
G01 X4.0278 Y16.6667
G01 X4.0231 Y16.5704
G01 X4.0232 Y16.4666
G01 X4.0283 Y16.3673
G01 X4.0427 Y16.2692
G01 X4.0442 Y16.2608
G01 X4.0691 Y16.1617
G01 X4.1047 Y16.0622
G01 X4.1496 Y15.9674
G01 X4.2037 Y15.8771
G01 X4.2663 Y15.7927
G01 X4.3371 Y15.7146
G01 X4.4152 Y15.6438
G01 X4.4996 Y15.5812
G01 X4.5899 Y15.5271
G01 X4.6847 Y15.4822
G01 X4.7842 Y15.4466
G01 X4.8861 Y15.4212
G01 X4.9898 Y15.4058
G01 X5.0950 Y15.4006
G01 X5.2002 Y15.4058
G01 X5.3039 Y15.4212
G01 X5.4058 Y15.4466
G01 X5.5053 Y15.4822
G01 X5.6001 Y15.5271
G01 X5.6904 Y15.5812
G01 X5.7748 Y15.6438
G01 X5.8529 Y15.7146
G01 X5.9237 Y15.7927
G01 X5.9829 Y15.8722
G01 X5.9894 Y15.8819
G01 X6.0374 Y15.9621
G01 X6.0430 Y15.9724
G01 X6.0853 Y16.0622
G01 X6.1189 Y16.1558
G01 X6.1223 Y16.1670
G01 X6.1463 Y16.2636
G01 X6.1614 Y16.3644
G01 X6.1622 Y16.3733
G01 X6.1669 Y16.4725
G01 X6.1669 Y16.5704
G01 X6.1622 Y16.6667
G01 X6.1614 Y16.6756
G01 X6.1463 Y16.7764
G01 X6.1223 Y16.8730
G01 X6.1189 Y16.8842
G01 X6.0853 Y16.9778
G01 X6.0430 Y17.0676
G01 X6.0374 Y17.0779
G01 X5.9863 Y17.1629
G01 X5.9237 Y17.2473
G01 X5.8570 Y17.3212
G01 X5.8487 Y17.3295
G01 X5.7748 Y17.3962
G01 X5.7147 Y17.4410
G01 X5.7147 Y18.1006
G01 X6.1950 Y18.1006
G01 X6.2038 Y18.1009
G01 X6.2126 Y18.1019
G01 X6.2212 Y18.1035
G01 X6.2297 Y18.1058
G01 X6.2381 Y18.1086
G01 X6.2461 Y18.1121
G01 X6.2539 Y18.1162
G01 X6.2614 Y18.1208
G01 X6.2685 Y18.1259
G01 X6.2752 Y18.1315
G01 X6.2815 Y18.1377
G01 X6.2873 Y18.1442
G01 X6.2926 Y18.1512
G01 X6.2974 Y18.1585
G01 X6.3016 Y18.1662
G01 X6.3053 Y18.1742
G01 X6.3083 Y18.1825
G01 X6.3108 Y18.1909
G01 X6.3135 Y18.2053
G01 X6.3144 Y18.2200
G01 X6.3143 Y20.4259
G01 X6.3135 Y20.4347
G01 X6.3115 Y20.4462
G01 X6.3092 Y20.4547
G01 X6.3064 Y20.4631
G01 X6.3029 Y20.4711
G01 X6.2974 Y20.4815
G01 X6.2909 Y20.4912
G01 X6.2854 Y20.4980
G01 X6.2794 Y20.5044
G01 X6.2708 Y20.5123
G01 X6.2614 Y20.5192
G01 X6.2539 Y20.5238
G01 X6.2435 Y20.5291
G01 X6.2353 Y20.5324
G01 X6.2269 Y20.5351
G01 X6.2183 Y20.5371
G01 X6.2067 Y20.5388
G01 X6.1950 Y20.5394
G01 X5.7147 Y20.5394
G01 X5.7147 Y21.1147
G01 X5.7805 Y21.1745
G01 X5.8405 Y21.2406
G01 X5.8480 Y21.2496
G01 X5.9011 Y21.3215
G01 X5.9470 Y21.3979
G01 X5.9526 Y21.4083
G01 X5.9906 Y21.4890
G01 X6.0208 Y21.5730
G01 X6.0242 Y21.5842
G01 X6.0458 Y21.6711
G01 X6.0590 Y21.7592
G01 X6.0602 Y21.7708
G01 X6.0644 Y21.8600
G01 X6.0602 Y21.9492
G01 X6.0590 Y21.9608
G01 X6.0468 Y22.0433
G01 X6.0445 Y22.0548
G01 X6.0242 Y22.1358
G01 X6.0208 Y22.1470
G01 X5.9906 Y22.2310
G01 X5.9526 Y22.3117
G01 X5.9470 Y22.3221
G01 X5.9011 Y22.3985
G01 X5.8480 Y22.4704
G01 X5.8405 Y22.4794
G01 X5.7805 Y22.5455
G01 X5.7144 Y22.6055
G01 X5.7054 Y22.6130
G01 X5.6335 Y22.6661
G01 X5.5518 Y22.7150
G01 X5.4713 Y22.7532
G01 X5.4605 Y22.7577
G01 X5.3761 Y22.7878
G01 X5.2839 Y22.8108
G01 X5.1902 Y22.8247
G01 X5.0950 Y22.8294
G01 X4.9998 Y22.8247
G01 X4.9061 Y22.8108
G01 X4.8139 Y22.7878
G01 X4.7240 Y22.7556
G01 X4.6382 Y22.7150
G01 X4.5565 Y22.6661
G01 X4.4802 Y22.6095
G01 X4.4095 Y22.5455
G01 X4.3455 Y22.4748
G01 X4.2889 Y22.3985
G01 X4.2400 Y22.3168
G01 X4.1994 Y22.2310
G01 X4.1672 Y22.1411
G01 X4.1455 Y22.0548
G01 X4.1432 Y22.0433
G01 X4.1303 Y21.9552
G01 X4.1257 Y21.8659
G01 X4.1257 Y21.8541
G01 X4.1303 Y21.7648
G01 X4.1442 Y21.6711
G01 X4.1672 Y21.5789
G01 X4.1973 Y21.4945
G01 X4.2018 Y21.4837
G01 X4.2374 Y21.4083
G01 X4.2430 Y21.3979
G01 X4.2889 Y21.3215
G01 X4.3455 Y21.2452
G01 X4.4095 Y21.1745
G01 X4.4753 Y21.1147
G01 X4.4753 Y20.5394
G01 X3.9950 Y20.5394
G01 X3.9862 Y20.5391
G01 X3.9774 Y20.5381
G01 X3.9688 Y20.5365
G01 X3.9603 Y20.5342
G01 X3.9519 Y20.5314
G01 X3.9439 Y20.5279
G01 X3.9361 Y20.5238
G01 X3.9262 Y20.5176
G01 X3.9192 Y20.5123
G01 X3.9127 Y20.5065
G01 X3.9046 Y20.4980
G01 X3.8991 Y20.4912
G01 X3.8942 Y20.4839
G01 X3.8897 Y20.4764
G01 X3.8859 Y20.4685
G01 X3.8826 Y20.4603
G01 X3.8799 Y20.4519
G01 X3.8779 Y20.4433
G01 X3.8762 Y20.4317
G01 X3.8756 Y20.4200
G01 X3.8757 Y18.2141
G01 X3.8769 Y18.2024
G01 X3.8792 Y18.1909
G01 X3.8826 Y18.1797
G01 X3.8859 Y18.1715
G01 X3.8912 Y18.1611
G01 X3.8974 Y18.1512
G01 X3.9046 Y18.1420
G01 X3.9127 Y18.1335
G01 X3.9215 Y18.1259
G01 X3.9311 Y18.1192
G01 X3.9412 Y18.1134
G01 X3.9519 Y18.1086
G01 X3.9603 Y18.1058
G01 X3.9717 Y18.1029
G01 X3.9833 Y18.1012
G01 X3.9950 Y18.1006
G00 Z1.0000
G00 X3.6129 Y18.5343
G01 F60.00
G01 Z-0.1100
G01 F120.00
G01 X3.6023 Y18.5120
G01 X3.5931 Y18.4949
G01 X3.5479 Y18.4191
G01 X3.5381 Y18.4036
G01 X3.5271 Y18.3879
G01 X3.4749 Y18.3177
G01 X3.4635 Y18.3038
G01 X3.4373 Y18.2747
G01 X3.4373 Y17.9021
G01 X3.5169 Y17.9020
G01 X3.5450 Y17.9002
G01 X3.5637 Y17.8979
G01 X3.5914 Y17.8928
G01 X3.6187 Y17.8856
G01 X3.6453 Y17.8764
G01 X3.6712 Y17.8652
G01 X3.6961 Y17.8523
G01 X3.7199 Y17.8376
G01 X3.7427 Y17.8211
G01 X3.7641 Y17.8031
G01 X3.7842 Y17.7835
G01 X3.8028 Y17.7625
G01 X3.8198 Y17.7401
G01 X3.8351 Y17.7166
G01 X3.8486 Y17.6921
G01 X3.8567 Y17.6752
G01 X3.8639 Y17.6578
G01 X3.8702 Y17.6401
G01 X3.8757 Y17.6221
G01 X3.8822 Y17.5947
G01 X3.8854 Y17.5762
G01 X3.8877 Y17.5575
G01 X3.8891 Y17.5388
G01 X3.8896 Y17.5200
G01 X3.8896 Y17.1376
G01 X3.9132 Y17.1874
G01 X3.9224 Y17.2045
G01 X3.9801 Y17.3009
G01 X3.9961 Y17.3243
G01 X4.0518 Y17.3994
G01 X4.0628 Y17.4135
G01 X4.0756 Y17.4283
G01 X4.1448 Y17.5045
G01 X4.1649 Y17.5241
G01 X4.2127 Y17.5674
G01 X4.2127 Y17.8379
G01 X3.9950 Y17.8379
G01 X3.9762 Y17.8384
G01 X3.9575 Y17.8398
G01 X3.9388 Y17.8421
G01 X3.9203 Y17.8453
G01 X3.9019 Y17.8494
G01 X3.8749 Y17.8573
G01 X3.8485 Y17.8671
G01 X3.8229 Y17.8789
G01 X3.7984 Y17.8924
G01 X3.7749 Y17.9077
G01 X3.7525 Y17.9247
G01 X3.7315 Y17.9433
G01 X3.7183 Y17.9565
G01 X3.7057 Y17.9704
G01 X3.6939 Y17.9848
G01 X3.6774 Y18.0076
G01 X3.6627 Y18.0314
G01 X3.6498 Y18.0563
G01 X3.6386 Y18.0822
G01 X3.6294 Y18.1088
G01 X3.6244 Y18.1269
G01 X3.6186 Y18.1545
G01 X3.6148 Y18.1825
G01 X3.6130 Y18.2106
G01 X3.6129 Y18.5343
G00 Z1.0000
G00 X3.5031 Y19.7644
G01 F60.00
G01 Z-0.1100
G01 F120.00
G01 X3.5327 Y19.7243
G01 X3.5479 Y19.7009
G01 X3.5931 Y19.6251
G01 X3.6023 Y19.6080
G01 X3.6129 Y19.5857
G01 X3.6129 Y19.8063
G01 X3.5884 Y19.7935
G01 X3.5627 Y19.7824
G01 X3.5360 Y19.7732
G01 X3.5031 Y19.7644
G00 Z1.0000
G00 X6.2716 Y21.1730
G01 F60.00
G01 Z-0.1100
G01 F120.00
G01 X6.2357 Y21.1133
G01 X6.2217 Y21.0924
G01 X6.2141 Y21.0819
G01 X6.1571 Y21.0053
G01 X6.1419 Y20.9866
G01 X6.1087 Y20.9497
G01 X6.1087 Y20.9334
G01 X6.1950 Y20.9334
G01 X6.2203 Y20.9328
G01 X6.2454 Y20.9309
G01 X6.2580 Y20.9295
G01 X6.2784 Y20.9266
G01 X6.2755 Y20.9470
G01 X6.2741 Y20.9596
G01 X6.2722 Y20.9847
G01 X6.2717 Y20.9974
G01 X6.2716 Y21.1730
G00 Z1.0000
G00 X6.2104 Y22.3811
G01 F60.00
G01 Z-0.1100
G01 F120.00
G01 X6.2294 Y22.3405
G01 X6.2367 Y22.3229
G01 X6.2714 Y22.2260
G01 X6.2790 Y22.1996
G01 X6.2993 Y22.1187
G01 X6.3052 Y22.0909
G01 X6.3189 Y21.9994
G01 X6.3211 Y21.9813
G01 X6.3225 Y21.9621
G01 X6.3266 Y21.8787
G01 X6.3270 Y21.8506
G01 X6.3225 Y21.7579
G01 X6.3211 Y21.7387
G01 X6.3189 Y21.7206
G01 X6.3066 Y21.6381
G01 X6.3035 Y21.6202
G01 X6.2993 Y21.6013
G01 X6.2790 Y21.5204
G01 X6.2744 Y21.5035
G01 X6.2681 Y21.4845
G01 X6.2400 Y21.4060
G01 X6.2332 Y21.3883
G01 X6.2257 Y21.3714
G01 X6.1900 Y21.2960
G01 X6.1819 Y21.2798
G01 X6.1724 Y21.2629
G01 X6.1295 Y21.1913
G01 X6.1142 Y21.1679
G01 X6.0589 Y21.0932
G01 X6.0479 Y21.0790
G01 X6.0352 Y21.0642
G01 X5.9773 Y21.0004
G01 X5.9773 Y20.8021
G01 X6.2044 Y20.8020
G01 X6.2232 Y20.8010
G01 X6.2419 Y20.7992
G01 X6.2697 Y20.7947
G01 X6.2971 Y20.7882
G01 X6.3151 Y20.7827
G01 X6.3415 Y20.7729
G01 X6.3671 Y20.7611
G01 X6.3916 Y20.7476
G01 X6.4074 Y20.7376
G01 X6.4302 Y20.7211
G01 X6.4495 Y20.7050
G01 X6.4787 Y20.7385
G01 X6.4978 Y20.7581
G01 X6.4897 Y20.7675
G01 X6.4782 Y20.7823
G01 X6.4623 Y20.8054
G01 X6.4527 Y20.8214
G01 X6.4439 Y20.8379
G01 X6.4321 Y20.8635
G01 X6.4223 Y20.8899
G01 X6.4168 Y20.9079
G01 X6.4122 Y20.9261
G01 X6.4071 Y20.9538
G01 X6.4048 Y20.9725
G01 X6.4034 Y20.9912
G01 X6.4029 Y21.0100
G01 X6.4029 Y22.4312
G01 X6.3866 Y22.4226
G01 X6.3614 Y22.4111
G01 X6.3354 Y22.4016
G01 X6.3088 Y22.3939
G01 X6.2908 Y22.3898
G01 X6.2634 Y22.3854
G01 X6.2442 Y22.3835
G01 X6.2104 Y22.3811
G00 Z1.0000
G00 X11.7135 Y21.5693
G01 F60.00
G01 Z-0.1100
G01 F120.00
G01 X11.8105 Y21.4723
G01 X11.8327 Y21.4723
G01 X11.8327 Y21.6205
G01 X11.8191 Y21.6121
G01 X11.8030 Y21.6031
G01 X11.7781 Y21.5910
G01 X11.7610 Y21.5840
G01 X11.7436 Y21.5778
G01 X11.7260 Y21.5725
G01 X11.7135 Y21.5693
G00 Z1.0000
G00 X8.4067 Y28.5003
G01 F60.00
G01 Z-0.1100
G01 F120.00
G01 X8.4629 Y28.5447
G01 X8.5968 Y28.6918
G01 X8.6210 Y28.7293
G01 X8.6101 Y28.7293
G01 X8.5727 Y28.6789
G01 X8.5617 Y28.6651
G01 X8.4901 Y28.5861
G01 X8.4769 Y28.5732
G01 X8.4018 Y28.5053
G01 X8.4067 Y28.5003
G00 Z1.0000
G00 X8.2547 Y28.4667
G01 F60.00
G01 Z-0.1100
G01 F120.00
G01 X8.3965 Y28.3249
G01 X8.5529 Y28.4485
G01 X8.7010 Y28.6112
G01 X8.8208 Y28.7964
G01 X8.8488 Y28.8606
G01 X8.5406 Y28.8606
G01 X8.5246 Y28.8346
G01 X8.4655 Y28.7549
G01 X8.4598 Y28.7481
G01 X8.3950 Y28.6766
G01 X8.3887 Y28.6705
G01 X8.3170 Y28.6056
G01 X8.3104 Y28.6003
G01 X8.2547 Y28.5590
G01 X8.2547 Y28.4667
G00 Z1.0000
G00 X6.3650 Y29.0238
G01 F60.00
G01 Z-0.1100
G01 F120.00
G01 X6.3502 Y28.9826
G01 X6.3646 Y28.9821
G01 X6.3803 Y28.9810
G01 X6.3650 Y29.0238
G00 Z1.0000
G00 X6.3834 Y30.4424
G01 F60.00
G01 Z-0.1100
G01 F120.00
G01 X6.3564 Y30.4326
G01 X6.3323 Y30.4253
G01 X6.3200 Y30.4220
G01 X6.2954 Y30.4165
G01 X6.2830 Y30.4142
G01 X6.2633 Y30.4112
G01 X6.2994 Y30.3625
G01 X6.3142 Y30.3415
G01 X6.3273 Y30.3206
G01 X6.3650 Y30.2578
G01 X6.4091 Y30.3311
G01 X6.4231 Y30.3521
G01 X6.4483 Y30.3863
G01 X6.3834 Y30.4424
G00 Z1.0000
G00 X6.4121 Y30.6056
G01 F60.00
G01 Z-0.1100
G01 F120.00
G01 X6.3916 Y30.5924
G01 X6.3754 Y30.5832
G01 X6.3502 Y30.5709
G01 X6.3328 Y30.5636
G01 X6.3151 Y30.5573
G01 X6.2971 Y30.5518
G01 X6.2697 Y30.5453
G01 X6.2512 Y30.5421
G01 X6.2232 Y30.5390
G01 X6.2044 Y30.5380
G01 X5.9773 Y30.5379
G01 X5.9773 Y30.5274
G01 X6.0251 Y30.4841
G01 X6.0387 Y30.4712
G01 X6.0516 Y30.4576
G01 X6.1214 Y30.3804
G01 X6.1382 Y30.3594
G01 X6.1939 Y30.2843
G01 X6.2099 Y30.2609
G01 X6.2628 Y30.1729
G01 X6.2723 Y30.1560
G01 X6.2804 Y30.1399
G01 X6.3204 Y30.0554
G01 X6.3279 Y30.0385
G01 X6.3347 Y30.0207
G01 X6.3650 Y29.9362
G01 X6.3953 Y30.0207
G01 X6.4021 Y30.0385
G01 X6.4096 Y30.0554
G01 X6.4496 Y30.1399
G01 X6.4624 Y30.1645
G01 X6.5153 Y30.2531
G01 X6.5305 Y30.2765
G01 X6.5972 Y30.3665
G01 X6.6086 Y30.3804
G01 X6.6458 Y30.4217
G01 X6.6207 Y30.4319
G01 X6.5950 Y30.4446
G01 X6.5704 Y30.4592
G01 X6.5547 Y30.4699
G01 X6.5406 Y30.4805
G01 X6.5269 Y30.4917
G01 X6.4733 Y30.5382
G01 X6.4598 Y30.5505
G01 X6.4468 Y30.5635
G01 X6.4343 Y30.5773
G01 X6.4225 Y30.5917
G01 X6.4121 Y30.6056
G00 Z1.0000
G00 X8.2544 Y30.7171
G01 F60.00
G01 Z-0.1100
G01 F120.00
G01 X8.2544 Y30.4012
G01 X8.3104 Y30.3597
G01 X8.3170 Y30.3544
G01 X8.3887 Y30.2895
G01 X8.3950 Y30.2834
G01 X8.4598 Y30.2119
G01 X8.4655 Y30.2051
G01 X8.5246 Y30.1254
G01 X8.5406 Y30.0994
G01 X8.8482 Y30.0994
G01 X8.8049 Y30.1924
G01 X8.6810 Y30.3742
G01 X8.5286 Y30.5336
G01 X8.3523 Y30.6661
G01 X8.2544 Y30.7171
G00 Z1.0000
G00 X8.3857 Y30.4767
G01 F60.00
G01 Z-0.1100
G01 F120.00
G01 X8.3857 Y30.4673
G01 X8.3979 Y30.4579
G01 X8.4076 Y30.4496
G01 X8.4769 Y30.3868
G01 X8.4858 Y30.3783
G01 X8.4943 Y30.3694
G01 X8.5571 Y30.3001
G01 X8.5655 Y30.2904
G01 X8.6101 Y30.2307
G01 X8.6198 Y30.2307
G01 X8.5784 Y30.2914
G01 X8.4410 Y30.4353
G01 X8.3857 Y30.4767
G00 Z1.0000
G00 X6.2716 Y33.8730
G01 F60.00
G01 Z-0.1100
G01 F120.00
G01 X6.2357 Y33.8133
G01 X6.2217 Y33.7924
G01 X6.2141 Y33.7819
G01 X6.1571 Y33.7053
G01 X6.1419 Y33.6866
G01 X6.1087 Y33.6497
G01 X6.1087 Y33.6334
G01 X6.1950 Y33.6334
G01 X6.2203 Y33.6328
G01 X6.2454 Y33.6309
G01 X6.2580 Y33.6295
G01 X6.2784 Y33.6266
G01 X6.2755 Y33.6470
G01 X6.2741 Y33.6596
G01 X6.2730 Y33.6721
G01 X6.2717 Y33.6974
G01 X6.2716 Y33.8730
G00 Z1.0000
G00 X6.2104 Y35.0811
G01 F60.00
G01 Z-0.1100
G01 F120.00
G01 X6.2294 Y35.0405
G01 X6.2367 Y35.0229
G01 X6.2714 Y34.9260
G01 X6.2790 Y34.8996
G01 X6.2993 Y34.8187
G01 X6.3052 Y34.7909
G01 X6.3189 Y34.6994
G01 X6.3211 Y34.6813
G01 X6.3225 Y34.6621
G01 X6.3266 Y34.5787
G01 X6.3270 Y34.5506
G01 X6.3225 Y34.4579
G01 X6.3211 Y34.4387
G01 X6.3189 Y34.4206
G01 X6.3066 Y34.3381
G01 X6.3035 Y34.3202
G01 X6.2993 Y34.3013
G01 X6.2790 Y34.2204
G01 X6.2744 Y34.2035
G01 X6.2681 Y34.1845
G01 X6.2400 Y34.1060
G01 X6.2332 Y34.0883
G01 X6.2257 Y34.0714
G01 X6.1900 Y33.9960
G01 X6.1819 Y33.9798
G01 X6.1724 Y33.9629
G01 X6.1295 Y33.8913
G01 X6.1142 Y33.8679
G01 X6.0589 Y33.7932
G01 X6.0479 Y33.7790
G01 X6.0352 Y33.7642
G01 X5.9773 Y33.7004
G01 X5.9773 Y33.5021
G01 X6.2044 Y33.5020
G01 X6.2232 Y33.5010
G01 X6.2419 Y33.4992
G01 X6.2697 Y33.4947
G01 X6.2880 Y33.4906
G01 X6.3151 Y33.4827
G01 X6.3415 Y33.4729
G01 X6.3671 Y33.4611
G01 X6.3916 Y33.4476
G01 X6.4074 Y33.4376
G01 X6.4302 Y33.4211
G01 X6.4495 Y33.4050
G01 X6.4787 Y33.4385
G01 X6.4978 Y33.4581
G01 X6.4897 Y33.4675
G01 X6.4782 Y33.4823
G01 X6.4623 Y33.5054
G01 X6.4527 Y33.5214
G01 X6.4439 Y33.5379
G01 X6.4321 Y33.5635
G01 X6.4223 Y33.5899
G01 X6.4168 Y33.6079
G01 X6.4122 Y33.6261
G01 X6.4071 Y33.6538
G01 X6.4048 Y33.6725
G01 X6.4034 Y33.6912
G01 X6.4029 Y33.7100
G01 X6.4029 Y35.1312
G01 X6.3866 Y35.1226
G01 X6.3614 Y35.1111
G01 X6.3354 Y35.1016
G01 X6.3088 Y35.0939
G01 X6.2817 Y35.0882
G01 X6.2635 Y35.0854
G01 X6.2442 Y35.0835
G01 X6.2104 Y35.0811
G00 Z1.0000
G00 X6.5343 Y35.4100
G01 F60.00
G01 Z-0.1100
G01 F120.00
G01 X6.5343 Y33.7100
G01 X6.5346 Y33.6977
G01 X6.5355 Y33.6854
G01 X6.5370 Y33.6731
G01 X6.5391 Y33.6610
G01 X6.5418 Y33.6489
G01 X6.5451 Y33.6371
G01 X6.5490 Y33.6253
G01 X6.5534 Y33.6138
G01 X6.5611 Y33.5971
G01 X6.5669 Y33.5863
G01 X6.5732 Y33.5757
G01 X6.5801 Y33.5655
G01 X6.5874 Y33.5557
G01 X6.5952 Y33.5462
G01 X6.6034 Y33.5371
G01 X6.6121 Y33.5284
G01 X6.6259 Y33.5162
G01 X6.6356 Y33.5087
G01 X6.6456 Y33.5016
G01 X6.6613 Y33.4919
G01 X6.6721 Y33.4861
G01 X6.6832 Y33.4809
G01 X6.7003 Y33.4740
G01 X6.7180 Y33.4684
G01 X6.7299 Y33.4654
G01 X6.7420 Y33.4630
G01 X6.7604 Y33.4605
G01 X6.7788 Y33.4593
G01 X8.4850 Y33.4593
G01 X8.4973 Y33.4596
G01 X8.5096 Y33.4605
G01 X8.5219 Y33.4620
G01 X8.5340 Y33.4641
G01 X8.5461 Y33.4668
G01 X8.5638 Y33.4720
G01 X8.5754 Y33.4761
G01 X8.5868 Y33.4809
G01 X8.6034 Y33.4890
G01 X8.6141 Y33.4950
G01 X8.6295 Y33.5051
G01 X8.6393 Y33.5124
G01 X8.6534 Y33.5242
G01 X8.6623 Y33.5327
G01 X8.6748 Y33.5462
G01 X8.6826 Y33.5557
G01 X8.6899 Y33.5655
G01 X8.6968 Y33.5757
G01 X8.7031 Y33.5862
G01 X8.7089 Y33.5971
G01 X8.7141 Y33.6082
G01 X8.7189 Y33.6196
G01 X8.7230 Y33.6312
G01 X8.7266 Y33.6430
G01 X8.7296 Y33.6549
G01 X8.7320 Y33.6670
G01 X8.7345 Y33.6854
G01 X8.7357 Y33.7038
G01 X8.7357 Y33.8090
G01 X9.8639 Y33.8090
G01 X11.3901 Y32.2829
G01 X11.3723 Y32.1646
G01 X11.3708 Y32.1528
G01 X11.3699 Y32.1401
G01 X11.3646 Y32.0323
G01 X11.3643 Y32.0200
G01 X11.3646 Y32.0077
G01 X11.3699 Y31.8999
G01 X11.3708 Y31.8872
G01 X11.3723 Y31.8754
G01 X11.3881 Y31.7686
G01 X11.3901 Y31.7568
G01 X11.3929 Y31.7445
G01 X11.4191 Y31.6398
G01 X11.4222 Y31.6286
G01 X11.4263 Y31.6162
G01 X11.4626 Y31.5146
G01 X11.4671 Y31.5029
G01 X11.4721 Y31.4918
G01 X11.5182 Y31.3943
G01 X11.5235 Y31.3837
G01 X11.5298 Y31.3726
G01 X11.5853 Y31.2800
G01 X11.5918 Y31.2698
G01 X11.5990 Y31.2595
G01 X11.6705 Y31.1635
G01 X11.6789 Y31.1538
G01 X11.7514 Y31.0738
G01 X11.7599 Y31.0649
G01 X11.7688 Y31.0564
G01 X11.8488 Y30.9839
G01 X11.8585 Y30.9755
G01 X11.9545 Y30.9040
G01 X11.9640 Y30.8973
G01 X11.9640 Y21.3410
G01 X11.7561 Y21.3410
G01 X10.7060 Y22.3910
G01 X10.6607 Y22.4325
G01 X10.6510 Y22.4409
G01 X10.6417 Y22.4481
G01 X10.6023 Y22.4773
G01 X10.5920 Y22.4846
G01 X10.5397 Y22.5162
G01 X10.5286 Y22.5225
G01 X10.4736 Y22.5488
G01 X10.4625 Y22.5538
G01 X10.4047 Y22.5748
G01 X10.3923 Y22.5789
G01 X10.3811 Y22.5819
G01 X10.3335 Y22.5939
G01 X10.3211 Y22.5966
G01 X10.2608 Y22.6059
G01 X10.2427 Y22.6079
G01 X10.1812 Y22.6109
G01 X8.7357 Y22.6110
G01 X8.7357 Y22.7162
G01 X8.7351 Y22.7285
G01 X8.7338 Y22.7408
G01 X8.7309 Y22.7590
G01 X8.7282 Y22.7711
G01 X8.7249 Y22.7830
G01 X8.7210 Y22.7947
G01 X8.7166 Y22.8062
G01 X8.7116 Y22.8174
G01 X8.7060 Y22.8284
G01 X8.7000 Y22.8390
G01 X8.6899 Y22.8545
G01 X8.6826 Y22.8643
G01 X8.6708 Y22.8784
G01 X8.6623 Y22.8873
G01 X8.6534 Y22.8958
G01 X8.6393 Y22.9076
G01 X8.6295 Y22.9149
G01 X8.6193 Y22.9218
G01 X8.6034 Y22.9310
G01 X8.5868 Y22.9391
G01 X8.5754 Y22.9439
G01 X8.5579 Y22.9499
G01 X8.5461 Y22.9532
G01 X8.5340 Y22.9559
G01 X8.5219 Y22.9580
G01 X8.5035 Y22.9601
G01 X8.4912 Y22.9607
G01 X6.7850 Y22.9607
G01 X6.7727 Y22.9604
G01 X6.7542 Y22.9588
G01 X6.7420 Y22.9570
G01 X6.7299 Y22.9546
G01 X6.7120 Y22.9499
G01 X6.7003 Y22.9460
G01 X6.6888 Y22.9416
G01 X6.6776 Y22.9366
G01 X6.6666 Y22.9310
G01 X6.6507 Y22.9218
G01 X6.6405 Y22.9149
G01 X6.6307 Y22.9076
G01 X6.6212 Y22.8998
G01 X6.6121 Y22.8916
G01 X6.6034 Y22.8829
G01 X6.5952 Y22.8738
G01 X6.5874 Y22.8643
G01 X6.5801 Y22.8545
G01 X6.5732 Y22.8443
G01 X6.5669 Y22.8337
G01 X6.5611 Y22.8229
G01 X6.5559 Y22.8118
G01 X6.5490 Y22.7947
G01 X6.5451 Y22.7830
G01 X6.5418 Y22.7711
G01 X6.5380 Y22.7530
G01 X6.5362 Y22.7408
G01 X6.5349 Y22.7285
G01 X6.5343 Y22.7100
G01 X6.5343 Y21.0100
G01 X6.5346 Y20.9977
G01 X6.5355 Y20.9854
G01 X6.5370 Y20.9731
G01 X6.5391 Y20.9610
G01 X6.5418 Y20.9489
G01 X6.5451 Y20.9370
G01 X6.5490 Y20.9253
G01 X6.5534 Y20.9138
G01 X6.5611 Y20.8971
G01 X6.5669 Y20.8863
G01 X6.5766 Y20.8706
G01 X6.5837 Y20.8606
G01 X6.5912 Y20.8509
G01 X6.5992 Y20.8416
G01 X6.6077 Y20.8327
G01 X6.6166 Y20.8242
G01 X6.6259 Y20.8162
G01 X6.6356 Y20.8087
G01 X6.6456 Y20.8016
G01 X6.6613 Y20.7919
G01 X6.6721 Y20.7861
G01 X6.6832 Y20.7809
G01 X6.7003 Y20.7740
G01 X6.7121 Y20.7701
G01 X6.7239 Y20.7668
G01 X6.7420 Y20.7630
G01 X6.7604 Y20.7605
G01 X6.7788 Y20.7593
G01 X8.4850 Y20.7593
G01 X8.4973 Y20.7596
G01 X8.5096 Y20.7605
G01 X8.5219 Y20.7620
G01 X8.5340 Y20.7641
G01 X8.5461 Y20.7668
G01 X8.5638 Y20.7720
G01 X8.5754 Y20.7761
G01 X8.5868 Y20.7809
G01 X8.5979 Y20.7861
G01 X8.6140 Y20.7950
G01 X8.6244 Y20.8016
G01 X8.6344 Y20.8087
G01 X8.6441 Y20.8162
G01 X8.6579 Y20.8284
G01 X8.6666 Y20.8371
G01 X8.6788 Y20.8509
G01 X8.6863 Y20.8606
G01 X8.6968 Y20.8757
G01 X8.7031 Y20.8863
G01 X8.7089 Y20.8971
G01 X8.7141 Y20.9082
G01 X8.7189 Y20.9196
G01 X8.7230 Y20.9312
G01 X8.7266 Y20.9430
G01 X8.7296 Y20.9549
G01 X8.7320 Y20.9670
G01 X8.7345 Y20.9854
G01 X8.7357 Y21.0038
G01 X8.7357 Y21.1090
G01 X9.8639 Y21.1090
G01 X11.3901 Y19.5829
G01 X11.3723 Y19.4646
G01 X11.3708 Y19.4528
G01 X11.3699 Y19.4401
G01 X11.3646 Y19.3323
G01 X11.3643 Y19.3200
G01 X11.3646 Y19.3077
G01 X11.3699 Y19.1999
G01 X11.3708 Y19.1872
G01 X11.3723 Y19.1754
G01 X11.3881 Y19.0686
G01 X11.3901 Y19.0568
G01 X11.3929 Y19.0445
G01 X11.4191 Y18.9398
G01 X11.4222 Y18.9286
G01 X11.4263 Y18.9162
G01 X11.4626 Y18.8146
G01 X11.4671 Y18.8029
G01 X11.4721 Y18.7918
G01 X11.5182 Y18.6943
G01 X11.5235 Y18.6837
G01 X11.5298 Y18.6726
G01 X11.5853 Y18.5800
G01 X11.5918 Y18.5698
G01 X11.5990 Y18.5595
G01 X11.6705 Y18.4635
G01 X11.6789 Y18.4538
G01 X11.7514 Y18.3738
G01 X11.7599 Y18.3649
G01 X11.7688 Y18.3564
G01 X11.8488 Y18.2839
G01 X11.8585 Y18.2755
G01 X11.9545 Y18.2040
G01 X11.9640 Y18.1973
G01 X11.9640 Y8.6410
G01 X11.7561 Y8.6410
G01 X10.7060 Y9.6910
G01 X10.6974 Y9.6993
G01 X10.6555 Y9.7371
G01 X10.6417 Y9.7481
G01 X10.6023 Y9.7773
G01 X10.5920 Y9.7846
G01 X10.5397 Y9.8162
G01 X10.5286 Y9.8225
G01 X10.5180 Y9.8278
G01 X10.4625 Y9.8538
G01 X10.4047 Y9.8748
G01 X10.3923 Y9.8789
G01 X10.3335 Y9.8939
G01 X10.3211 Y9.8966
G01 X10.3094 Y9.8987
G01 X10.2490 Y9.9073
G01 X10.2363 Y9.9083
G01 X10.1812 Y9.9109
G01 X8.7357 Y9.9110
G01 X8.7357 Y10.0162
G01 X8.7345 Y10.0346
G01 X8.7320 Y10.0530
G01 X8.7296 Y10.0651
G01 X8.7266 Y10.0770
G01 X8.7230 Y10.0888
G01 X8.7189 Y10.1004
G01 X8.7141 Y10.1118
G01 X8.7089 Y10.1229
G01 X8.7031 Y10.1337
G01 X8.6968 Y10.1443
G01 X8.6899 Y10.1545
G01 X8.6826 Y10.1643
G01 X8.6748 Y10.1738
G01 X8.6623 Y10.1873
G01 X8.6534 Y10.1958
G01 X8.6393 Y10.2076
G01 X8.6244 Y10.2184
G01 X8.6140 Y10.2250
G01 X8.5979 Y10.2339
G01 X8.5868 Y10.2391
G01 X8.5754 Y10.2439
G01 X8.5638 Y10.2480
G01 X8.5461 Y10.2532
G01 X8.5340 Y10.2559
G01 X8.5219 Y10.2580
G01 X8.5096 Y10.2595
G01 X8.4973 Y10.2604
G01 X8.4850 Y10.2607
G01 X6.7850 Y10.2607
G01 X6.7665 Y10.2601
G01 X6.7481 Y10.2580
G01 X6.7360 Y10.2559
G01 X6.7239 Y10.2532
G01 X6.7120 Y10.2499
G01 X6.7003 Y10.2460
G01 X6.6832 Y10.2391
G01 X6.6721 Y10.2339
G01 X6.6613 Y10.2281
G01 X6.6456 Y10.2184
G01 X6.6307 Y10.2076
G01 X6.6212 Y10.1998
G01 X6.6121 Y10.1916
G01 X6.5992 Y10.1784
G01 X6.5912 Y10.1691
G01 X6.5837 Y10.1594
G01 X6.5766 Y10.1494
G01 X6.5700 Y10.1390
G01 X6.5611 Y10.1229
G01 X6.5559 Y10.1118
G01 X6.5511 Y10.1004
G01 X6.5451 Y10.0830
G01 X6.5418 Y10.0711
G01 X6.5391 Y10.0590
G01 X6.5362 Y10.0408
G01 X6.5346 Y10.0223
G01 X6.5343 Y10.0100
G01 X6.5343 Y8.3100
G01 X6.5346 Y8.2977
G01 X6.5362 Y8.2792
G01 X6.5391 Y8.2610
G01 X6.5418 Y8.2489
G01 X6.5470 Y8.2312
G01 X6.5534 Y8.2138
G01 X6.5611 Y8.1971
G01 X6.5700 Y8.1810
G01 X6.5801 Y8.1655
G01 X6.5912 Y8.1509
G01 X6.6034 Y8.1371
G01 X6.6121 Y8.1284
G01 X6.6212 Y8.1202
G01 X6.6356 Y8.1087
G01 X6.6456 Y8.1016
G01 X6.6560 Y8.0950
G01 X6.6721 Y8.0861
G01 X6.6888 Y8.0784
G01 X6.7062 Y8.0720
G01 X6.7239 Y8.0668
G01 X6.7420 Y8.0630
G01 X6.7604 Y8.0605
G01 X6.7727 Y8.0596
G01 X6.7850 Y8.0593
G01 X8.4850 Y8.0593
G01 X8.4973 Y8.0596
G01 X8.5096 Y8.0605
G01 X8.5219 Y8.0620
G01 X8.5340 Y8.0641
G01 X8.5520 Y8.0684
G01 X8.5697 Y8.0740
G01 X8.5812 Y8.0784
G01 X8.5924 Y8.0834
G01 X8.6087 Y8.0919
G01 X8.6193 Y8.0982
G01 X8.6344 Y8.1087
G01 X8.6441 Y8.1162
G01 X8.6534 Y8.1242
G01 X8.6623 Y8.1327
G01 X8.6748 Y8.1462
G01 X8.6826 Y8.1557
G01 X8.6934 Y8.1706
G01 X8.7031 Y8.1863
G01 X8.7089 Y8.1971
G01 X8.7141 Y8.2082
G01 X8.7189 Y8.2196
G01 X8.7230 Y8.2312
G01 X8.7266 Y8.2430
G01 X8.7296 Y8.2549
G01 X8.7320 Y8.2670
G01 X8.7345 Y8.2854
G01 X8.7357 Y8.3038
G01 X8.7357 Y8.4090
G01 X9.8639 Y8.4090
G01 X11.3901 Y6.8829
G01 X11.3723 Y6.7646
G01 X11.3708 Y6.7528
G01 X11.3699 Y6.7401
G01 X11.3646 Y6.6323
G01 X11.3643 Y6.6200
G01 X11.3646 Y6.6077
G01 X11.3699 Y6.4999
G01 X11.3708 Y6.4872
G01 X11.3723 Y6.4754
G01 X11.3881 Y6.3686
G01 X11.3901 Y6.3568
G01 X11.3929 Y6.3445
G01 X11.4191 Y6.2398
G01 X11.4222 Y6.2286
G01 X11.4263 Y6.2162
G01 X11.4626 Y6.1146
G01 X11.4671 Y6.1029
G01 X11.4721 Y6.0918
G01 X11.5182 Y5.9943
G01 X11.5235 Y5.9837
G01 X11.5298 Y5.9726
G01 X11.5853 Y5.8800
G01 X11.5918 Y5.8698
G01 X11.5990 Y5.8595
G01 X11.6705 Y5.7635
G01 X11.6789 Y5.7538
G01 X11.7514 Y5.6738
G01 X11.7599 Y5.6649
G01 X11.7688 Y5.6564
G01 X11.8488 Y5.5839
G01 X11.8585 Y5.5755
G01 X11.9545 Y5.5040
G01 X11.9640 Y5.4973
G01 X11.9640 Y4.0800
G01 X11.9643 Y4.0677
G01 X11.9671 Y4.0123
G01 X11.9691 Y3.9942
G01 X11.9784 Y3.9339
G01 X11.9811 Y3.9215
G01 X11.9931 Y3.8739
G01 X11.9961 Y3.8627
G01 X12.0002 Y3.8503
G01 X12.0212 Y3.7925
G01 X12.0472 Y3.7370
G01 X12.0525 Y3.7264
G01 X12.0588 Y3.7153
G01 X12.0904 Y3.6630
G01 X12.0977 Y3.6527
G01 X12.1341 Y3.6040
G01 X12.1425 Y3.5943
G01 X12.1840 Y3.5490
G01 X14.7240 Y1.0090
G01 X14.7693 Y0.9675
G01 X14.7790 Y0.9591
G01 X14.7883 Y0.9519
G01 X14.8277 Y0.9227
G01 X14.8380 Y0.9154
G01 X14.8903 Y0.8838
G01 X14.9014 Y0.8775
G01 X14.9120 Y0.8722
G01 X14.9675 Y0.8462
G01 X15.0253 Y0.8252
G01 X15.0377 Y0.8211
G01 X15.0489 Y0.8181
G01 X15.0965 Y0.8061
G01 X15.1089 Y0.8034
G01 X15.1692 Y0.7941
G01 X15.1810 Y0.7927
G01 X15.1937 Y0.7917
G01 X15.2550 Y0.7890
G01 X64.7850 Y0.7890
G01 X64.8463 Y0.7917
G01 X64.8590 Y0.7927
G01 X64.8708 Y0.7941
G01 X64.9311 Y0.8034
G01 X64.9435 Y0.8061
G01 X65.0023 Y0.8211
G01 X65.0147 Y0.8252
G01 X65.0609 Y0.8417
G01 X65.0725 Y0.8462
G01 X65.0836 Y0.8512
G01 X65.1386 Y0.8775
G01 X65.1497 Y0.8838
G01 X65.1918 Y0.9090
G01 X65.2020 Y0.9154
G01 X65.2123 Y0.9227
G01 X65.2610 Y0.9591
G01 X65.2707 Y0.9675
G01 X65.3160 Y1.0090
G01 X66.5902 Y2.2833
G01 X66.6275 Y2.3243
G01 X66.6359 Y2.3340
G01 X66.6723 Y2.3827
G01 X66.6796 Y2.3930
G01 X66.7112 Y2.4453
G01 X66.7175 Y2.4564
G01 X66.7438 Y2.5114
G01 X66.7511 Y2.5282
G01 X66.7698 Y2.5803
G01 X66.7739 Y2.5927
G01 X66.7889 Y2.6515
G01 X66.7916 Y2.6639
G01 X66.7937 Y2.6756
G01 X66.8023 Y2.7360
G01 X66.8033 Y2.7487
G01 X66.8059 Y2.8038
G01 X66.8060 Y5.4973
G01 X66.8155 Y5.5040
G01 X66.9022 Y5.5683
G01 X66.9115 Y5.5755
G01 X66.9212 Y5.5839
G01 X67.0012 Y5.6564
G01 X67.0101 Y5.6649
G01 X67.0186 Y5.6738
G01 X67.0911 Y5.7538
G01 X67.0995 Y5.7635
G01 X67.1067 Y5.7728
G01 X67.1710 Y5.8595
G01 X67.1782 Y5.8698
G01 X67.1847 Y5.8800
G01 X67.2402 Y5.9726
G01 X67.2465 Y5.9837
G01 X67.2518 Y5.9943
G01 X67.2979 Y6.0918
G01 X67.3029 Y6.1029
G01 X67.3074 Y6.1146
G01 X67.3437 Y6.2162
G01 X67.3478 Y6.2286
G01 X67.3509 Y6.2398
G01 X67.3771 Y6.3445
G01 X67.3799 Y6.3569
G01 X67.3819 Y6.3686
G01 X67.3977 Y6.4754
G01 X67.3992 Y6.4872
G01 X67.4001 Y6.4999
G01 X67.4057 Y6.6138
G01 X67.4054 Y6.6323
G01 X67.4001 Y6.7401
G01 X67.3992 Y6.7528
G01 X67.3977 Y6.7646
G01 X67.3819 Y6.8714
G01 X67.3799 Y6.8831
G01 X67.3771 Y6.8955
G01 X67.3478 Y7.0114
G01 X67.3437 Y7.0238
G01 X67.3074 Y7.1254
G01 X67.3029 Y7.1371
G01 X67.2979 Y7.1482
G01 X67.2518 Y7.2457
G01 X67.2465 Y7.2563
G01 X67.2402 Y7.2674
G01 X67.1847 Y7.3600
G01 X67.1782 Y7.3702
G01 X67.1710 Y7.3805
G01 X67.1067 Y7.4672
G01 X67.0995 Y7.4765
G01 X67.0911 Y7.4862
G01 X67.0186 Y7.5662
G01 X67.0101 Y7.5751
G01 X67.0012 Y7.5836
G01 X66.9212 Y7.6561
G01 X66.9115 Y7.6645
G01 X66.9022 Y7.6717
G01 X66.8155 Y7.7360
G01 X66.8060 Y7.7427
G01 X66.8060 Y18.1973
G01 X66.8155 Y18.2040
G01 X66.9022 Y18.2683
G01 X66.9115 Y18.2755
G01 X66.9212 Y18.2839
G01 X67.0012 Y18.3564
G01 X67.0101 Y18.3649
G01 X67.0186 Y18.3738
G01 X67.0911 Y18.4538
G01 X67.0995 Y18.4635
G01 X67.1067 Y18.4728
G01 X67.1710 Y18.5595
G01 X67.1782 Y18.5698
G01 X67.1847 Y18.5800
G01 X67.2402 Y18.6726
G01 X67.2465 Y18.6837
G01 X67.2518 Y18.6943
G01 X67.2979 Y18.7918
G01 X67.3029 Y18.8029
G01 X67.3074 Y18.8146
G01 X67.3437 Y18.9162
G01 X67.3478 Y18.9286
G01 X67.3771 Y19.0445
G01 X67.3799 Y19.0568
G01 X67.3819 Y19.0686
G01 X67.3977 Y19.1754
G01 X67.3992 Y19.1872
G01 X67.4001 Y19.1999
G01 X67.4054 Y19.3077
G01 X67.4057 Y19.3200
G01 X67.4054 Y19.3323
G01 X67.4001 Y19.4401
G01 X67.3992 Y19.4528
G01 X67.3977 Y19.4646
G01 X67.3819 Y19.5714
G01 X67.3799 Y19.5832
G01 X67.3771 Y19.5955
G01 X67.3478 Y19.7114
G01 X67.3437 Y19.7238
G01 X67.3074 Y19.8254
G01 X67.3029 Y19.8371
G01 X67.2979 Y19.8482
G01 X67.2518 Y19.9457
G01 X67.2465 Y19.9563
G01 X67.2402 Y19.9674
G01 X67.1847 Y20.0600
G01 X67.1782 Y20.0702
G01 X67.1710 Y20.0805
G01 X67.1067 Y20.1672
G01 X67.0995 Y20.1765
G01 X67.0911 Y20.1862
G01 X67.0186 Y20.2662
G01 X67.0101 Y20.2751
G01 X67.0012 Y20.2836
G01 X66.9212 Y20.3561
G01 X66.9115 Y20.3645
G01 X66.9022 Y20.3717
G01 X66.8155 Y20.4360
G01 X66.8060 Y20.4427
G01 X66.8060 Y30.8973
G01 X66.8155 Y30.9040
G01 X66.9022 Y30.9683
G01 X66.9115 Y30.9755
G01 X66.9212 Y30.9839
G01 X67.0012 Y31.0564
G01 X67.0101 Y31.0649
G01 X67.0186 Y31.0738
G01 X67.0911 Y31.1538
G01 X67.0995 Y31.1635
G01 X67.1067 Y31.1728
G01 X67.1710 Y31.2595
G01 X67.1782 Y31.2698
G01 X67.1847 Y31.2800
G01 X67.2402 Y31.3726
G01 X67.2465 Y31.3837
G01 X67.2518 Y31.3943
G01 X67.2979 Y31.4918
G01 X67.3029 Y31.5029
G01 X67.3074 Y31.5146
G01 X67.3437 Y31.6162
G01 X67.3478 Y31.6286
G01 X67.3771 Y31.7445
G01 X67.3799 Y31.7568
G01 X67.3819 Y31.7686
G01 X67.3977 Y31.8754
G01 X67.3992 Y31.8872
G01 X67.4001 Y31.8999
G01 X67.4054 Y32.0077
G01 X67.4057 Y32.0200
G01 X67.4054 Y32.0323
G01 X67.4001 Y32.1401
G01 X67.3992 Y32.1528
G01 X67.3977 Y32.1646
G01 X67.3819 Y32.2714
G01 X67.3799 Y32.2832
G01 X67.3771 Y32.2955
G01 X67.3478 Y32.4114
G01 X67.3437 Y32.4238
G01 X67.3074 Y32.5254
G01 X67.3029 Y32.5371
G01 X67.2979 Y32.5482
G01 X67.2518 Y32.6457
G01 X67.2465 Y32.6563
G01 X67.2402 Y32.6674
G01 X67.1847 Y32.7600
G01 X67.1782 Y32.7702
G01 X67.1710 Y32.7805
G01 X67.1067 Y32.8672
G01 X67.0995 Y32.8765
G01 X67.0911 Y32.8862
G01 X67.0186 Y32.9662
G01 X67.0101 Y32.9751
G01 X67.0012 Y32.9836
G01 X66.9212 Y33.0561
G01 X66.9115 Y33.0645
G01 X66.9022 Y33.0717
G01 X66.8155 Y33.1360
G01 X66.8060 Y33.1427
G01 X66.8060 Y43.5973
G01 X66.8155 Y43.6040
G01 X66.9022 Y43.6683
G01 X66.9115 Y43.6755
G01 X66.9212 Y43.6839
G01 X67.0012 Y43.7564
G01 X67.0101 Y43.7649
G01 X67.0186 Y43.7738
G01 X67.0911 Y43.8538
G01 X67.0995 Y43.8635
G01 X67.1067 Y43.8728
G01 X67.1710 Y43.9595
G01 X67.1782 Y43.9698
G01 X67.1847 Y43.9800
G01 X67.2402 Y44.0726
G01 X67.2465 Y44.0837
G01 X67.2518 Y44.0943
G01 X67.2979 Y44.1918
G01 X67.3029 Y44.2029
G01 X67.3074 Y44.2146
G01 X67.3437 Y44.3162
G01 X67.3478 Y44.3286
G01 X67.3771 Y44.4445
G01 X67.3799 Y44.4568
G01 X67.3819 Y44.4686
G01 X67.3977 Y44.5754
G01 X67.3992 Y44.5872
G01 X67.4001 Y44.5999
G01 X67.4054 Y44.7077
G01 X67.4057 Y44.7200
G01 X67.4054 Y44.7323
G01 X67.4001 Y44.8401
G01 X67.3992 Y44.8528
G01 X67.3977 Y44.8646
G01 X67.3819 Y44.9714
G01 X67.3799 Y44.9832
G01 X67.3771 Y44.9955
G01 X67.3478 Y45.1114
G01 X67.3437 Y45.1238
G01 X67.3074 Y45.2254
G01 X67.3029 Y45.2371
G01 X67.2979 Y45.2482
G01 X67.2518 Y45.3457
G01 X67.2465 Y45.3563
G01 X67.2402 Y45.3674
G01 X67.1847 Y45.4600
G01 X67.1782 Y45.4702
G01 X67.1710 Y45.4805
G01 X67.1067 Y45.5672
G01 X67.0995 Y45.5765
G01 X67.0911 Y45.5862
G01 X67.0186 Y45.6662
G01 X67.0101 Y45.6751
G01 X67.0012 Y45.6836
G01 X66.9212 Y45.7561
G01 X66.9115 Y45.7645
G01 X66.9022 Y45.7717
G01 X66.8155 Y45.8360
G01 X66.8060 Y45.8427
G01 X66.8060 Y56.2973
G01 X66.8155 Y56.3040
G01 X66.9022 Y56.3683
G01 X66.9115 Y56.3755
G01 X66.9212 Y56.3839
G01 X67.0012 Y56.4564
G01 X67.0101 Y56.4649
G01 X67.0186 Y56.4738
G01 X67.0911 Y56.5538
G01 X67.0995 Y56.5635
G01 X67.1067 Y56.5728
G01 X67.1710 Y56.6595
G01 X67.1782 Y56.6698
G01 X67.1847 Y56.6800
G01 X67.2402 Y56.7726
G01 X67.2465 Y56.7837
G01 X67.2518 Y56.7943
G01 X67.2979 Y56.8918
G01 X67.3029 Y56.9029
G01 X67.3074 Y56.9146
G01 X67.3437 Y57.0162
G01 X67.3478 Y57.0286
G01 X67.3771 Y57.1445
G01 X67.3799 Y57.1568
G01 X67.3819 Y57.1686
G01 X67.3977 Y57.2754
G01 X67.3992 Y57.2872
G01 X67.4001 Y57.2999
G01 X67.4054 Y57.4077
G01 X67.4057 Y57.4200
G01 X67.4054 Y57.4323
G01 X67.4001 Y57.5401
G01 X67.3992 Y57.5528
G01 X67.3977 Y57.5646
G01 X67.3819 Y57.6714
G01 X67.3799 Y57.6832
G01 X67.3771 Y57.6955
G01 X67.3478 Y57.8114
G01 X67.3437 Y57.8238
G01 X67.3074 Y57.9254
G01 X67.3029 Y57.9371
G01 X67.2979 Y57.9482
G01 X67.2518 Y58.0457
G01 X67.2465 Y58.0563
G01 X67.2402 Y58.0674
G01 X67.1847 Y58.1600
G01 X67.1782 Y58.1702
G01 X67.1710 Y58.1805
G01 X67.1067 Y58.2672
G01 X67.0995 Y58.2765
G01 X67.0911 Y58.2862
G01 X67.0186 Y58.3662
G01 X67.0101 Y58.3751
G01 X67.0012 Y58.3836
G01 X66.9212 Y58.4561
G01 X66.9115 Y58.4645
G01 X66.9022 Y58.4717
G01 X66.8155 Y58.5360
G01 X66.8060 Y58.5427
G01 X66.8060 Y68.9973
G01 X66.8155 Y69.0040
G01 X66.9115 Y69.0755
G01 X66.9212 Y69.0839
G01 X67.0012 Y69.1564
G01 X67.0101 Y69.1649
G01 X67.0186 Y69.1738
G01 X67.0911 Y69.2538
G01 X67.0995 Y69.2635
G01 X67.1710 Y69.3595
G01 X67.1782 Y69.3698
G01 X67.1847 Y69.3800
G01 X67.2402 Y69.4726
G01 X67.2465 Y69.4837
G01 X67.2518 Y69.4943
G01 X67.2979 Y69.5918
G01 X67.3029 Y69.6029
G01 X67.3074 Y69.6146
G01 X67.3437 Y69.7162
G01 X67.3478 Y69.7286
G01 X67.3509 Y69.7398
G01 X67.3771 Y69.8445
G01 X67.3799 Y69.8568
G01 X67.3819 Y69.8686
G01 X67.3977 Y69.9754
G01 X67.3992 Y69.9872
G01 X67.4001 Y69.9999
G01 X67.4054 Y70.1077
G01 X67.4057 Y70.1200
G01 X67.4054 Y70.1323
G01 X67.4001 Y70.2401
G01 X67.3992 Y70.2528
G01 X67.3977 Y70.2646
G01 X67.3799 Y70.3829
G01 X68.4910 Y71.4940
G01 X68.5325 Y71.5393
G01 X68.5455 Y71.5548
G01 X68.5603 Y71.5630
G01 X68.6445 Y71.6135
G01 X68.6547 Y71.6199
G01 X68.6649 Y71.6271
G01 X68.7531 Y71.6928
G01 X68.7628 Y71.7012
G01 X68.8355 Y71.7671
G01 X68.8444 Y71.7756
G01 X68.8529 Y71.7845
G01 X68.9188 Y71.8572
G01 X68.9272 Y71.8669
G01 X68.9929 Y71.9551
G01 X69.0001 Y71.9653
G01 X69.0065 Y71.9755
G01 X69.0570 Y72.0597
G01 X69.0662 Y72.0765
G01 X69.1105 Y72.1701
G01 X69.1155 Y72.1812
G01 X69.1200 Y72.1928
G01 X69.1530 Y72.2852
G01 X69.1571 Y72.2977
G01 X69.1840 Y72.4040
G01 X69.1868 Y72.4164
G01 X69.1888 Y72.4281
G01 X69.2032 Y72.5252
G01 X69.2047 Y72.5370
G01 X69.2056 Y72.5497
G01 X69.2104 Y72.6477
G01 X69.2107 Y72.6600
G01 X69.2104 Y72.6723
G01 X69.2056 Y72.7703
G01 X69.2047 Y72.7830
G01 X69.2032 Y72.7948
G01 X69.1888 Y72.8919
G01 X69.1868 Y72.9036
G01 X69.1840 Y72.9160
G01 X69.1571 Y73.0223
G01 X69.1530 Y73.0348
G01 X69.1200 Y73.1272
G01 X69.1155 Y73.1388
G01 X69.1105 Y73.1499
G01 X69.0686 Y73.2386
G01 X69.0633 Y73.2492
G01 X69.0570 Y73.2603
G01 X69.0065 Y73.3445
G01 X69.0001 Y73.3547
G01 X68.9929 Y73.3649
G01 X68.9272 Y73.4531
G01 X68.9188 Y73.4628
G01 X68.8529 Y73.5355
G01 X68.8444 Y73.5444
G01 X68.8355 Y73.5529
G01 X68.7628 Y73.6188
G01 X68.7531 Y73.6272
G01 X68.6649 Y73.6929
G01 X68.6547 Y73.7001
G01 X68.6445 Y73.7065
G01 X68.5603 Y73.7570
G01 X68.5492 Y73.7633
G01 X68.5386 Y73.7686
G01 X68.4499 Y73.8105
G01 X68.4388 Y73.8155
G01 X68.4272 Y73.8200
G01 X68.3348 Y73.8530
G01 X68.3223 Y73.8571
G01 X68.2160 Y73.8840
G01 X68.2036 Y73.8868
G01 X68.1919 Y73.8888
G01 X68.0948 Y73.9032
G01 X68.0830 Y73.9047
G01 X68.0703 Y73.9056
G01 X67.9723 Y73.9104
G01 X67.9600 Y73.9107
G01 X67.9477 Y73.9104
G01 X67.8497 Y73.9056
G01 X67.8370 Y73.9047
G01 X67.8252 Y73.9032
G01 X67.7281 Y73.8888
G01 X67.7164 Y73.8868
G01 X67.7040 Y73.8840
G01 X67.5977 Y73.8571
G01 X67.5852 Y73.8530
G01 X67.4928 Y73.8200
G01 X67.4812 Y73.8155
G01 X67.4701 Y73.8105
G01 X67.3814 Y73.7686
G01 X67.3708 Y73.7633
G01 X67.3597 Y73.7570
G01 X67.2755 Y73.7065
G01 X67.2653 Y73.7001
G01 X67.2551 Y73.6929
G01 X67.1669 Y73.6272
G01 X67.1572 Y73.6188
G01 X67.0845 Y73.5529
G01 X67.0756 Y73.5444
G01 X67.0671 Y73.5355
G01 X67.0012 Y73.4628
G01 X66.9928 Y73.4531
G01 X66.9271 Y73.3649
G01 X66.9199 Y73.3547
G01 X66.9135 Y73.3445
G01 X66.8630 Y73.2603
G01 X66.8567 Y73.2492
G01 X66.8514 Y73.2386
G01 X66.8095 Y73.1499
G01 X66.8045 Y73.1388
G01 X66.8000 Y73.1272
G01 X66.7670 Y73.0348
G01 X66.7613 Y73.0168
G01 X66.7360 Y72.9160
G01 X66.7332 Y72.9036
G01 X66.7312 Y72.8919
G01 X66.7168 Y72.7948
G01 X66.7153 Y72.7830
G01 X66.7144 Y72.7703
G01 X66.7096 Y72.6723
G01 X66.7093 Y72.6600
G01 X66.7096 Y72.6477
G01 X66.7144 Y72.5497
G01 X66.7160 Y72.5311
G01 X66.7312 Y72.4281
G01 X66.7332 Y72.4164
G01 X66.7360 Y72.4040
G01 X66.7598 Y72.3088
G01 X66.7649 Y72.2914
G01 X66.8000 Y72.1928
G01 X66.8070 Y72.1755
G01 X66.8538 Y72.0765
G01 X66.8630 Y72.0597
G01 X66.8891 Y72.0162
G01 X66.3179 Y71.4449
G01 X66.1996 Y71.4627
G01 X66.1878 Y71.4642
G01 X66.1751 Y71.4651
G01 X66.0673 Y71.4704
G01 X66.0550 Y71.4707
G01 X66.0427 Y71.4704
G01 X65.9349 Y71.4651
G01 X65.9222 Y71.4642
G01 X65.9104 Y71.4627
G01 X65.7921 Y71.4449
G01 X64.0417 Y73.1952
G01 X64.0007 Y73.2325
G01 X63.9910 Y73.2409
G01 X63.9423 Y73.2773
G01 X63.9320 Y73.2846
G01 X63.9218 Y73.2910
G01 X63.8742 Y73.3195
G01 X63.8580 Y73.3278
G01 X63.8025 Y73.3538
G01 X63.7447 Y73.3748
G01 X63.7323 Y73.3789
G01 X63.7211 Y73.3819
G01 X63.6735 Y73.3939
G01 X63.6553 Y73.3977
G01 X63.5890 Y73.4073
G01 X63.5763 Y73.4083
G01 X63.5212 Y73.4109
G01 X62.0757 Y73.4110
G01 X62.0757 Y73.5162
G01 X62.0745 Y73.5346
G01 X62.0720 Y73.5530
G01 X62.0696 Y73.5651
G01 X62.0666 Y73.5770
G01 X62.0630 Y73.5888
G01 X62.0589 Y73.6004
G01 X62.0541 Y73.6118
G01 X62.0489 Y73.6229
G01 X62.0400 Y73.6390
G01 X62.0334 Y73.6494
G01 X62.0263 Y73.6594
G01 X62.0188 Y73.6691
G01 X62.0108 Y73.6784
G01 X61.9979 Y73.6916
G01 X61.9841 Y73.7038
G01 X61.9744 Y73.7113
G01 X61.9593 Y73.7218
G01 X61.9487 Y73.7281
G01 X61.9324 Y73.7366
G01 X61.9212 Y73.7416
G01 X61.9038 Y73.7480
G01 X61.8920 Y73.7516
G01 X61.8801 Y73.7546
G01 X61.8680 Y73.7570
G01 X61.8496 Y73.7595
G01 X61.8373 Y73.7604
G01 X61.8250 Y73.7607
G01 X60.1250 Y73.7607
G01 X60.1127 Y73.7604
G01 X60.0942 Y73.7588
G01 X60.0820 Y73.7570
G01 X60.0699 Y73.7546
G01 X60.0520 Y73.7499
G01 X60.0345 Y73.7439
G01 X60.0232 Y73.7391
G01 X60.0121 Y73.7339
G01 X59.9959 Y73.7250
G01 X59.9856 Y73.7184
G01 X59.9756 Y73.7113
G01 X59.9659 Y73.7038
G01 X59.9566 Y73.6958
G01 X59.9434 Y73.6829
G01 X59.9312 Y73.6691
G01 X59.9237 Y73.6595
G01 X59.9166 Y73.6494
G01 X59.9100 Y73.6391
G01 X59.9040 Y73.6284
G01 X59.8959 Y73.6119
G01 X59.8890 Y73.5947
G01 X59.8851 Y73.5830
G01 X59.8818 Y73.5711
G01 X59.8791 Y73.5590
G01 X59.8770 Y73.5469
G01 X59.8749 Y73.5285
G01 X59.8743 Y73.5100
G01 X59.8743 Y71.8100
G01 X59.8746 Y71.7977
G01 X59.8755 Y71.7854
G01 X59.8770 Y71.7731
G01 X59.8791 Y71.7610
G01 X59.8818 Y71.7489
G01 X59.8851 Y71.7370
G01 X59.8890 Y71.7253
G01 X59.8934 Y71.7138
G01 X59.9011 Y71.6971
G01 X59.9069 Y71.6863
G01 X59.9132 Y71.6757
G01 X59.9201 Y71.6655
G01 X59.9274 Y71.6557
G01 X59.9352 Y71.6462
G01 X59.9434 Y71.6371
G01 X59.9521 Y71.6284
G01 X59.9659 Y71.6162
G01 X59.9756 Y71.6087
G01 X59.9856 Y71.6016
G01 X60.0013 Y71.5919
G01 X60.0121 Y71.5861
G01 X60.0232 Y71.5809
G01 X60.0403 Y71.5740
G01 X60.0521 Y71.5701
G01 X60.0639 Y71.5668
G01 X60.0820 Y71.5630
G01 X60.1004 Y71.5605
G01 X60.1188 Y71.5593
G01 X61.8250 Y71.5593
G01 X61.8373 Y71.5596
G01 X61.8496 Y71.5605
G01 X61.8680 Y71.5630
G01 X61.8801 Y71.5654
G01 X61.8920 Y71.5684
G01 X61.9038 Y71.5720
G01 X61.9154 Y71.5761
G01 X61.9268 Y71.5809
G01 X61.9434 Y71.5890
G01 X61.9540 Y71.5950
G01 X61.9695 Y71.6051
G01 X61.9793 Y71.6124
G01 X61.9888 Y71.6202
G01 X61.9979 Y71.6284
G01 X62.0108 Y71.6416
G01 X62.0188 Y71.6509
G01 X62.0263 Y71.6606
G01 X62.0368 Y71.6757
G01 X62.0431 Y71.6863
G01 X62.0489 Y71.6971
G01 X62.0541 Y71.7082
G01 X62.0589 Y71.7196
G01 X62.0630 Y71.7312
G01 X62.0666 Y71.7430
G01 X62.0696 Y71.7549
G01 X62.0720 Y71.7670
G01 X62.0745 Y71.7854
G01 X62.0757 Y71.8038
G01 X62.0757 Y71.9090
G01 X63.2039 Y71.9090
G01 X64.7301 Y70.3829
G01 X64.7123 Y70.2646
G01 X64.7108 Y70.2528
G01 X64.7099 Y70.2401
G01 X64.7046 Y70.1323
G01 X64.7043 Y70.1200
G01 X64.7046 Y70.1077
G01 X64.7099 Y69.9999
G01 X64.7108 Y69.9872
G01 X64.7123 Y69.9754
G01 X64.7281 Y69.8686
G01 X64.7301 Y69.8568
G01 X64.7329 Y69.8445
G01 X64.7591 Y69.7398
G01 X64.7622 Y69.7286
G01 X64.7663 Y69.7162
G01 X64.8026 Y69.6146
G01 X64.8071 Y69.6029
G01 X64.8121 Y69.5918
G01 X64.8582 Y69.4943
G01 X64.8635 Y69.4837
G01 X64.8698 Y69.4726
G01 X64.9253 Y69.3800
G01 X64.9318 Y69.3698
G01 X64.9390 Y69.3595
G01 X65.0105 Y69.2635
G01 X65.0189 Y69.2538
G01 X65.0914 Y69.1738
G01 X65.0999 Y69.1649
G01 X65.1088 Y69.1564
G01 X65.1888 Y69.0839
G01 X65.1985 Y69.0755
G01 X65.2945 Y69.0040
G01 X65.3040 Y68.9973
G01 X65.3040 Y59.4410
G01 X65.0961 Y59.4410
G01 X64.0460 Y60.4910
G01 X64.0007 Y60.5325
G01 X63.9910 Y60.5409
G01 X63.9817 Y60.5481
G01 X63.9423 Y60.5773
G01 X63.9320 Y60.5846
G01 X63.8797 Y60.6162
G01 X63.8686 Y60.6225
G01 X63.8136 Y60.6488
G01 X63.8025 Y60.6538
G01 X63.7447 Y60.6748
G01 X63.7323 Y60.6789
G01 X63.7211 Y60.6819
G01 X63.6735 Y60.6939
G01 X63.6611 Y60.6966
G01 X63.6008 Y60.7059
G01 X63.5827 Y60.7079
G01 X63.5212 Y60.7109
G01 X62.0757 Y60.7110
G01 X62.0757 Y60.8162
G01 X62.0745 Y60.8346
G01 X62.0730 Y60.8469
G01 X62.0709 Y60.8590
G01 X62.0682 Y60.8711
G01 X62.0649 Y60.8830
G01 X62.0610 Y60.8947
G01 X62.0566 Y60.9062
G01 X62.0516 Y60.9174
G01 X62.0460 Y60.9284
G01 X62.0400 Y60.9390
G01 X62.0299 Y60.9545
G01 X62.0226 Y60.9643
G01 X62.0148 Y60.9738
G01 X62.0023 Y60.9873
G01 X61.9934 Y60.9958
G01 X61.9841 Y61.0038
G01 X61.9695 Y61.0149
G01 X61.9540 Y61.0250
G01 X61.9434 Y61.0310
G01 X61.9268 Y61.0391
G01 X61.9154 Y61.0439
G01 X61.9038 Y61.0480
G01 X61.8861 Y61.0532
G01 X61.8740 Y61.0559
G01 X61.8619 Y61.0580
G01 X61.8435 Y61.0601
G01 X61.8312 Y61.0607
G01 X60.1250 Y61.0607
G01 X60.1065 Y61.0601
G01 X60.0942 Y61.0588
G01 X60.0760 Y61.0559
G01 X60.0639 Y61.0532
G01 X60.0521 Y61.0499
G01 X60.0346 Y61.0439
G01 X60.0232 Y61.0391
G01 X60.0121 Y61.0339
G01 X60.0013 Y61.0281
G01 X59.9907 Y61.0218
G01 X59.9805 Y61.0149
G01 X59.9707 Y61.0076
G01 X59.9612 Y60.9998
G01 X59.9521 Y60.9916
G01 X59.9392 Y60.9784
G01 X59.9312 Y60.9691
G01 X59.9237 Y60.9594
G01 X59.9166 Y60.9494
G01 X59.9100 Y60.9391
G01 X59.9040 Y60.9284
G01 X59.8984 Y60.9174
G01 X59.8911 Y60.9004
G01 X59.8851 Y60.8830
G01 X59.8818 Y60.8711
G01 X59.8791 Y60.8590
G01 X59.8770 Y60.8469
G01 X59.8755 Y60.8346
G01 X59.8743 Y60.8162
G01 X59.8743 Y59.1100
G01 X59.8746 Y59.0977
G01 X59.8755 Y59.0854
G01 X59.8770 Y59.0731
G01 X59.8791 Y59.0610
G01 X59.8818 Y59.0489
G01 X59.8851 Y59.0370
G01 X59.8890 Y59.0253
G01 X59.8934 Y59.0138
G01 X59.9011 Y58.9971
G01 X59.9069 Y58.9863
G01 X59.9132 Y58.9757
G01 X59.9201 Y58.9655
G01 X59.9274 Y58.9557
G01 X59.9392 Y58.9416
G01 X59.9477 Y58.9327
G01 X59.9566 Y58.9242
G01 X59.9659 Y58.9162
G01 X59.9756 Y58.9087
G01 X59.9856 Y58.9016
G01 X60.0013 Y58.8919
G01 X60.0121 Y58.8861
G01 X60.0232 Y58.8809
G01 X60.0403 Y58.8740
G01 X60.0521 Y58.8701
G01 X60.0639 Y58.8668
G01 X60.0820 Y58.8630
G01 X60.1004 Y58.8605
G01 X60.1188 Y58.8593
G01 X61.8250 Y58.8593
G01 X61.8373 Y58.8596
G01 X61.8496 Y58.8605
G01 X61.8619 Y58.8620
G01 X61.8740 Y58.8641
G01 X61.8861 Y58.8668
G01 X61.9038 Y58.8720
G01 X61.9154 Y58.8761
G01 X61.9268 Y58.8809
G01 X61.9434 Y58.8890
G01 X61.9540 Y58.8950
G01 X61.9644 Y58.9016
G01 X61.9793 Y58.9124
G01 X61.9888 Y58.9202
G01 X61.9979 Y58.9284
G01 X62.0066 Y58.9371
G01 X62.0188 Y58.9509
G01 X62.0299 Y58.9655
G01 X62.0368 Y58.9757
G01 X62.0431 Y58.9863
G01 X62.0489 Y58.9971
G01 X62.0541 Y59.0082
G01 X62.0589 Y59.0196
G01 X62.0630 Y59.0312
G01 X62.0666 Y59.0430
G01 X62.0696 Y59.0549
G01 X62.0720 Y59.0670
G01 X62.0745 Y59.0854
G01 X62.0757 Y59.1038
G01 X62.0757 Y59.2090
G01 X63.2039 Y59.2090
G01 X64.7301 Y57.6829
G01 X64.7123 Y57.5646
G01 X64.7108 Y57.5528
G01 X64.7099 Y57.5401
G01 X64.7046 Y57.4323
G01 X64.7043 Y57.4200
G01 X64.7046 Y57.4077
G01 X64.7099 Y57.2999
G01 X64.7108 Y57.2872
G01 X64.7123 Y57.2754
G01 X64.7281 Y57.1686
G01 X64.7301 Y57.1568
G01 X64.7329 Y57.1445
G01 X64.7591 Y57.0398
G01 X64.7622 Y57.0286
G01 X64.7663 Y57.0162
G01 X64.8026 Y56.9146
G01 X64.8071 Y56.9029
G01 X64.8121 Y56.8918
G01 X64.8582 Y56.7943
G01 X64.8635 Y56.7837
G01 X64.8698 Y56.7726
G01 X64.9253 Y56.6800
G01 X64.9318 Y56.6698
G01 X64.9390 Y56.6595
G01 X65.0105 Y56.5635
G01 X65.0189 Y56.5538
G01 X65.0914 Y56.4738
G01 X65.0999 Y56.4649
G01 X65.1088 Y56.4564
G01 X65.1888 Y56.3839
G01 X65.1985 Y56.3755
G01 X65.2945 Y56.3040
G01 X65.3040 Y56.2973
G01 X65.3040 Y46.7410
G01 X65.0961 Y46.7410
G01 X64.0460 Y47.7910
G01 X64.0007 Y47.8325
G01 X63.9910 Y47.8409
G01 X63.9817 Y47.8481
G01 X63.9423 Y47.8773
G01 X63.9320 Y47.8846
G01 X63.8797 Y47.9162
G01 X63.8686 Y47.9225
G01 X63.8136 Y47.9488
G01 X63.8025 Y47.9538
G01 X63.7447 Y47.9748
G01 X63.7323 Y47.9789
G01 X63.7211 Y47.9819
G01 X63.6735 Y47.9939
G01 X63.6611 Y47.9966
G01 X63.6008 Y48.0059
G01 X63.5827 Y48.0079
G01 X63.5212 Y48.0109
G01 X62.0757 Y48.0110
G01 X62.0757 Y48.1162
G01 X62.0745 Y48.1346
G01 X62.0730 Y48.1469
G01 X62.0709 Y48.1590
G01 X62.0682 Y48.1711
G01 X62.0649 Y48.1830
G01 X62.0610 Y48.1947
G01 X62.0566 Y48.2062
G01 X62.0516 Y48.2174
G01 X62.0460 Y48.2284
G01 X62.0400 Y48.2390
G01 X62.0299 Y48.2545
G01 X62.0226 Y48.2643
G01 X62.0148 Y48.2738
G01 X62.0066 Y48.2829
G01 X61.9934 Y48.2958
G01 X61.9793 Y48.3076
G01 X61.9695 Y48.3149
G01 X61.9593 Y48.3218
G01 X61.9434 Y48.3310
G01 X61.9268 Y48.3391
G01 X61.9154 Y48.3439
G01 X61.8979 Y48.3499
G01 X61.8861 Y48.3532
G01 X61.8680 Y48.3570
G01 X61.8558 Y48.3588
G01 X61.8435 Y48.3601
G01 X61.8312 Y48.3607
G01 X60.1250 Y48.3607
G01 X60.1127 Y48.3604
G01 X60.0942 Y48.3588
G01 X60.0820 Y48.3570
G01 X60.0699 Y48.3546
G01 X60.0520 Y48.3499
G01 X60.0346 Y48.3439
G01 X60.0232 Y48.3391
G01 X60.0121 Y48.3339
G01 X59.9960 Y48.3250
G01 X59.9856 Y48.3184
G01 X59.9756 Y48.3113
G01 X59.9659 Y48.3038
G01 X59.9566 Y48.2958
G01 X59.9477 Y48.2873
G01 X59.9392 Y48.2784
G01 X59.9312 Y48.2691
G01 X59.9237 Y48.2594
G01 X59.9166 Y48.2494
G01 X59.9100 Y48.2390
G01 X59.9040 Y48.2284
G01 X59.8984 Y48.2174
G01 X59.8911 Y48.2004
G01 X59.8851 Y48.1830
G01 X59.8818 Y48.1711
G01 X59.8791 Y48.1590
G01 X59.8770 Y48.1469
G01 X59.8755 Y48.1346
G01 X59.8743 Y48.1162
G01 X59.8743 Y46.4100
G01 X59.8746 Y46.3977
G01 X59.8755 Y46.3854
G01 X59.8770 Y46.3731
G01 X59.8791 Y46.3610
G01 X59.8818 Y46.3489
G01 X59.8851 Y46.3371
G01 X59.8890 Y46.3253
G01 X59.8934 Y46.3138
G01 X59.9011 Y46.2971
G01 X59.9069 Y46.2863
G01 X59.9132 Y46.2757
G01 X59.9201 Y46.2655
G01 X59.9274 Y46.2557
G01 X59.9352 Y46.2462
G01 X59.9434 Y46.2371
G01 X59.9521 Y46.2284
G01 X59.9659 Y46.2162
G01 X59.9756 Y46.2087
G01 X59.9856 Y46.2016
G01 X60.0013 Y46.1919
G01 X60.0121 Y46.1861
G01 X60.0232 Y46.1809
G01 X60.0403 Y46.1740
G01 X60.0521 Y46.1701
G01 X60.0639 Y46.1668
G01 X60.0820 Y46.1630
