(G-CODE GENERATED BY FLATCAM v8.994 - www.flatcam.org - Version Date: 2020/11/7)

(Name: MIDIViolina-B_Cu.gbr_edit_iso_combined_cnc)
(Type: G-code from Geometry)
(Units: MM)

(Created on Tuesday, 06 December 2022 at 10:48)

(This preprocessor is the default preprocessor used by FlatCAM.)
(It is made to work with MACH3 compatible motion controllers.)

(TOOL DIAMETER: 0.2388 mm)
(Feedrate_XY: 120.0 mm/min)
(Feedrate_Z: 60.0 mm/min)
(Feedrate rapids 1500.0 mm/min)

(Z_Cut: -0.11 mm)
(Z_Move: 2.0 mm)
(Z Start: None mm)
(Z End: 5.0 mm)
(X,Y End: None mm)
(Steps per circle: 64)
(Preprocessor Geometry: default)

(X range:    1.1466 ...   68.7034  mm)
(Y range:    0.6466 ...   98.0321  mm)

(Spindle Speed: 2000.0 RPM)
G21
G90
G94

G01 F120.00

M5
G00 Z15.0000
G00 X0.0000 Y0.0000
T1
M6    
(MSG, Change to Tool Dia = 0.2388)
M0
G00 Z15.0000

M03 S2000.0
G01 F120.00
G00 X3.9646 Y3.2999
G01 F60.00
G01 Z-0.1100
G01 F120.00
G01 X3.9074 Y3.3955
G01 X3.8982 Y3.4126
G01 X3.8746 Y3.4624
G01 X3.8746 Y3.2764
G01 X3.8870 Y3.2808
G01 X3.9069 Y3.2868
G01 X3.9272 Y3.2918
G01 X3.9646 Y3.2999
G00 Z2.0000
G00 X3.8671 Y5.1550
G01 F60.00
G01 Z-0.1100
G01 F120.00
G01 X3.8717 Y5.1269
G01 X3.8735 Y5.1082
G01 X3.8745 Y5.0894
G01 X3.8746 Y4.6976
G01 X3.8982 Y4.7474
G01 X3.9074 Y4.7645
G01 X3.9651 Y4.8609
G01 X3.9811 Y4.8843
G01 X4.0368 Y4.9594
G01 X4.0536 Y4.9804
G01 X4.1234 Y5.0576
G01 X4.1363 Y5.0712
G01 X4.1499 Y5.0841
G01 X4.1977 Y5.1274
G01 X4.1977 Y5.1379
G01 X3.9800 Y5.1379
G01 X3.9612 Y5.1384
G01 X3.9331 Y5.1408
G01 X3.9145 Y5.1436
G01 X3.8869 Y5.1494
G01 X3.8671 Y5.1550
G00 Z2.0000
G00 X3.5979 Y6.0943
G01 F60.00
G01 Z-0.1100
G01 F120.00
G01 X3.5873 Y6.0720
G01 X3.5781 Y6.0549
G01 X3.5329 Y5.9791
G01 X3.5231 Y5.9636
G01 X3.5121 Y5.9479
G01 X3.4599 Y5.8777
G01 X3.4485 Y5.8638
G01 X3.4223 Y5.8347
G01 X3.4223 Y5.4621
G01 X3.5019 Y5.4620
G01 X3.5300 Y5.4602
G01 X3.5487 Y5.4579
G01 X3.5672 Y5.4547
G01 X3.5856 Y5.4506
G01 X3.6054 Y5.4450
G01 X3.6021 Y5.4638
G01 X3.5998 Y5.4825
G01 X3.5984 Y5.5012
G01 X3.5979 Y5.5200
G01 X3.5979 Y6.0943
G00 Z2.0000
G00 X3.4900 Y7.3218
G01 F60.00
G01 Z-0.1100
G01 F120.00
G01 X3.5177 Y7.2843
G01 X3.5329 Y7.2609
G01 X3.5781 Y7.1851
G01 X3.5873 Y7.1680
G01 X3.5979 Y7.1457
G01 X3.5979 Y7.3622
G01 X3.5850 Y7.3553
G01 X3.5682 Y7.3473
G01 X3.5422 Y7.3369
G01 X3.5150 Y7.3282
G01 X3.4900 Y7.3218
G00 Z2.0000
G00 X3.7293 Y7.7200
G01 F60.00
G01 Z-0.1100
G01 F120.00
G01 X3.7293 Y5.5200
G01 X3.7296 Y5.5077
G01 X3.7312 Y5.4892
G01 X3.7341 Y5.4710
G01 X3.7368 Y5.4589
G01 X3.7401 Y5.4470
G01 X3.7461 Y5.4296
G01 X3.7509 Y5.4182
G01 X3.7590 Y5.4016
G01 X3.7650 Y5.3910
G01 X3.7751 Y5.3755
G01 X3.7862 Y5.3609
G01 X3.7942 Y5.3516
G01 X3.8071 Y5.3384
G01 X3.8162 Y5.3302
G01 X3.8306 Y5.3187
G01 X3.8457 Y5.3082
G01 X3.8616 Y5.2990
G01 X3.8726 Y5.2934
G01 X3.8896 Y5.2861
G01 X3.9012 Y5.2820
G01 X3.9189 Y5.2768
G01 X3.9370 Y5.2730
G01 X3.9554 Y5.2705
G01 X3.9738 Y5.2693
G01 X4.3290 Y5.2693
G01 X4.3290 Y5.0671
G01 X4.3171 Y5.0579
G01 X4.3074 Y5.0496
G01 X4.2381 Y4.9868
G01 X4.2292 Y4.9783
G01 X4.2207 Y4.9694
G01 X4.1579 Y4.9001
G01 X4.1496 Y4.8904
G01 X4.0866 Y4.8060
G01 X4.0794 Y4.7958
G01 X4.0730 Y4.7856
G01 X4.0249 Y4.7054
G01 X4.0186 Y4.6943
G01 X3.9733 Y4.5992
G01 X3.9684 Y4.5881
G01 X3.9639 Y4.5765
G01 X3.9324 Y4.4885
G01 X3.9283 Y4.4760
G01 X3.9010 Y4.3677
G01 X3.8978 Y4.3501
G01 X3.8841 Y4.2577
G01 X3.8826 Y4.2458
G01 X3.8816 Y4.2332
G01 X3.8771 Y4.1398
G01 X3.8768 Y4.1275
G01 X3.8768 Y4.0263
G01 X3.8820 Y3.9205
G01 X3.8841 Y3.9023
G01 X3.8978 Y3.8099
G01 X3.8998 Y3.7981
G01 X3.9026 Y3.7858
G01 X3.9283 Y3.6840
G01 X3.9324 Y3.6715
G01 X3.9661 Y3.5777
G01 X3.9733 Y3.5608
G01 X4.0186 Y3.4657
G01 X4.0249 Y3.4546
G01 X4.0730 Y3.3744
G01 X4.0794 Y3.3642
G01 X4.0866 Y3.3540
G01 X4.1496 Y3.2696
G01 X4.1579 Y3.2599
G01 X4.2207 Y3.1906
G01 X4.2292 Y3.1817
G01 X4.2381 Y3.1732
G01 X4.3074 Y3.1104
G01 X4.3171 Y3.1021
G01 X4.4015 Y3.0391
G01 X4.4117 Y3.0319
G01 X4.4219 Y3.0255
G01 X4.5021 Y2.9774
G01 X4.5132 Y2.9711
G01 X4.6083 Y2.9258
G01 X4.6194 Y2.9209
G01 X4.6310 Y2.9164
G01 X4.7190 Y2.8849
G01 X4.7315 Y2.8808
G01 X4.8333 Y2.8551
G01 X4.8456 Y2.8523
G01 X4.8574 Y2.8503
G01 X4.9498 Y2.8366
G01 X4.9617 Y2.8351
G01 X4.9743 Y2.8341
G01 X5.0677 Y2.8296
G01 X5.0800 Y2.8293
G01 X5.0923 Y2.8296
G01 X5.1857 Y2.8341
G01 X5.1983 Y2.8351
G01 X5.2102 Y2.8366
G01 X5.3026 Y2.8503
G01 X5.3144 Y2.8523
G01 X5.3267 Y2.8551
G01 X5.4285 Y2.8808
G01 X5.4410 Y2.8849
G01 X5.5348 Y2.9186
G01 X5.5517 Y2.9258
G01 X5.6362 Y2.9658
G01 X5.6468 Y2.9711
G01 X5.6579 Y2.9774
G01 X5.7381 Y3.0255
G01 X5.7483 Y3.0319
G01 X5.7585 Y3.0391
G01 X5.8336 Y3.0948
G01 X5.8429 Y3.1021
G01 X5.8526 Y3.1104
G01 X5.9219 Y3.1732
G01 X5.9308 Y3.1817
G01 X5.9393 Y3.1906
G01 X6.0021 Y3.2599
G01 X6.0104 Y3.2696
G01 X6.0177 Y3.2789
G01 X6.0734 Y3.3540
G01 X6.0806 Y3.3642
G01 X6.0870 Y3.3744
G01 X6.1351 Y3.4546
G01 X6.1414 Y3.4657
G01 X6.1467 Y3.4763
G01 X6.1867 Y3.5608
G01 X6.1916 Y3.5719
G01 X6.1961 Y3.5835
G01 X6.2276 Y3.6715
G01 X6.2317 Y3.6840
G01 X6.2347 Y3.6951
G01 X6.2574 Y3.7858
G01 X6.2602 Y3.7981
G01 X6.2622 Y3.8099
G01 X6.2767 Y3.9083
G01 X6.2784 Y3.9268
G01 X6.2829 Y4.0202
G01 X6.2832 Y4.0325
G01 X6.2832 Y4.1337
G01 X6.2780 Y4.2395
G01 X6.2759 Y4.2577
G01 X6.2622 Y4.3501
G01 X6.2602 Y4.3619
G01 X6.2574 Y4.3742
G01 X6.2347 Y4.4649
G01 X6.2297 Y4.4823
G01 X6.1961 Y4.5765
G01 X6.1916 Y4.5881
G01 X6.1867 Y4.5992
G01 X6.1467 Y4.6837
G01 X6.1414 Y4.6943
G01 X6.1351 Y4.7054
G01 X6.0870 Y4.7856
G01 X6.0806 Y4.7958
G01 X6.0734 Y4.8060
G01 X6.0104 Y4.8904
G01 X6.0021 Y4.9001
G01 X5.9393 Y4.9694
G01 X5.9308 Y4.9783
G01 X5.9219 Y4.9868
G01 X5.8526 Y5.0496
G01 X5.8429 Y5.0579
G01 X5.8310 Y5.0671
G01 X5.8310 Y5.2693
G01 X6.1800 Y5.2693
G01 X6.1923 Y5.2696
G01 X6.2108 Y5.2712
G01 X6.2230 Y5.2730
G01 X6.2351 Y5.2754
G01 X6.2530 Y5.2801
G01 X6.2704 Y5.2861
G01 X6.2874 Y5.2934
G01 X6.3037 Y5.3019
G01 X6.3194 Y5.3116
G01 X6.3343 Y5.3224
G01 X6.3484 Y5.3342
G01 X6.3616 Y5.3471
G01 X6.3738 Y5.3609
G01 X6.3849 Y5.3755
G01 X6.3950 Y5.3910
G01 X6.4039 Y5.4071
G01 X6.4116 Y5.4238
G01 X6.4180 Y5.4412
G01 X6.4232 Y5.4589
G01 X6.4259 Y5.4710
G01 X6.4288 Y5.4892
G01 X6.4304 Y5.5077
G01 X6.4307 Y5.5200
G01 X6.4307 Y7.7200
G01 X6.4301 Y7.7385
G01 X6.4288 Y7.7508
G01 X6.4259 Y7.7690
G01 X6.4216 Y7.7870
G01 X6.4180 Y7.7988
G01 X6.4116 Y7.8162
G01 X6.4066 Y7.8274
G01 X6.3981 Y7.8437
G01 X6.3884 Y7.8594
G01 X6.3776 Y7.8743
G01 X6.3658 Y7.8884
G01 X6.3529 Y7.9016
G01 X6.3391 Y7.9138
G01 X6.3245 Y7.9249
G01 X6.3090 Y7.9350
G01 X6.2929 Y7.9439
G01 X6.2762 Y7.9516
G01 X6.2647 Y7.9560
G01 X6.2470 Y7.9616
G01 X6.2290 Y7.9659
G01 X6.2108 Y7.9688
G01 X6.1985 Y7.9701
G01 X6.1862 Y7.9707
G01 X5.8310 Y7.9707
G01 X5.8310 Y8.3565
G01 X5.8539 Y8.3774
G01 X5.8626 Y8.3861
G01 X5.9274 Y8.4576
G01 X5.9385 Y8.4714
G01 X5.9918 Y8.5435
G01 X6.0018 Y8.5589
G01 X6.0447 Y8.6304
G01 X6.0510 Y8.6415
G01 X6.0563 Y8.6521
G01 X6.0944 Y8.7329
G01 X6.1014 Y8.7502
G01 X6.1295 Y8.8288
G01 X6.1336 Y8.8412
G01 X6.1569 Y8.9332
G01 X6.1597 Y8.9456
G01 X6.1617 Y8.9574
G01 X6.1754 Y9.0517
G01 X6.1763 Y9.0644
G01 X6.1804 Y9.1477
G01 X6.1807 Y9.1600
G01 X6.1804 Y9.1723
G01 X6.1763 Y9.2556
G01 X6.1754 Y9.2683
G01 X6.1617 Y9.3626
G01 X6.1597 Y9.3744
G01 X6.1569 Y9.3868
G01 X6.1336 Y9.4788
G01 X6.1295 Y9.4912
G01 X6.1014 Y9.5698
G01 X6.0969 Y9.5814
G01 X6.0920 Y9.5925
G01 X6.0510 Y9.6785
G01 X6.0447 Y9.6896
G01 X6.0018 Y9.7611
G01 X5.9954 Y9.7713
G01 X5.9881 Y9.7816
G01 X5.9312 Y9.8579
G01 X5.9228 Y9.8676
G01 X5.8668 Y9.9294
G01 X5.8539 Y9.9426
G01 X5.7876 Y10.0028
G01 X5.7779 Y10.0112
G01 X5.7016 Y10.0681
G01 X5.6913 Y10.0754
G01 X5.6811 Y10.0818
G01 X5.6096 Y10.1247
G01 X5.5985 Y10.1310
G01 X5.5125 Y10.1720
G01 X5.5014 Y10.1769
G01 X5.4898 Y10.1814
G01 X5.4112 Y10.2095
G01 X5.3988 Y10.2136
G01 X5.3068 Y10.2369
G01 X5.2944 Y10.2397
G01 X5.2826 Y10.2417
G01 X5.1883 Y10.2554
G01 X5.1756 Y10.2563
G01 X5.0923 Y10.2604
G01 X5.0800 Y10.2607
G01 X5.0677 Y10.2604
G01 X4.9844 Y10.2563
G01 X4.9717 Y10.2554
G01 X4.8774 Y10.2417
G01 X4.8656 Y10.2397
G01 X4.8532 Y10.2369
G01 X4.7612 Y10.2136
G01 X4.7488 Y10.2095
G01 X4.6702 Y10.1814
G01 X4.6586 Y10.1769
G01 X4.6475 Y10.1720
G01 X4.5615 Y10.1310
G01 X4.5504 Y10.1247
G01 X4.4789 Y10.0818
G01 X4.4687 Y10.0754
G01 X4.4584 Y10.0681
G01 X4.3821 Y10.0112
G01 X4.3724 Y10.0028
G01 X4.3106 Y9.9468
G01 X4.2974 Y9.9339
G01 X4.2372 Y9.8676
G01 X4.2288 Y9.8579
G01 X4.1719 Y9.7816
G01 X4.1646 Y9.7713
G01 X4.1582 Y9.7611
G01 X4.1153 Y9.6896
G01 X4.1090 Y9.6785
G01 X4.0680 Y9.5925
G01 X4.0631 Y9.5814
G01 X4.0586 Y9.5698
G01 X4.0305 Y9.4912
G01 X4.0264 Y9.4788
G01 X4.0031 Y9.3868
G01 X4.0003 Y9.3744
G01 X3.9983 Y9.3626
G01 X3.9846 Y9.2683
G01 X3.9837 Y9.2556
G01 X3.9796 Y9.1723
G01 X3.9793 Y9.1538
G01 X3.9837 Y9.0644
G01 X3.9846 Y9.0517
G01 X3.9983 Y8.9574
G01 X4.0003 Y8.9456
G01 X4.0031 Y8.9332
G01 X4.0264 Y8.8412
G01 X4.0305 Y8.8288
G01 X4.0586 Y8.7502
G01 X4.0656 Y8.7329
G01 X4.1037 Y8.6521
G01 X4.1090 Y8.6415
G01 X4.1153 Y8.6304
G01 X4.1582 Y8.5589
G01 X4.1682 Y8.5435
G01 X4.2215 Y8.4714
G01 X4.2326 Y8.4576
G01 X4.2974 Y8.3861
G01 X4.3061 Y8.3774
G01 X4.3290 Y8.3565
G01 X4.3290 Y7.9707
G01 X3.9800 Y7.9707
G01 X3.9677 Y7.9704
G01 X3.9554 Y7.9695
G01 X3.9431 Y7.9680
G01 X3.9249 Y7.9646
G01 X3.9070 Y7.9599
G01 X3.8953 Y7.9560
G01 X3.8838 Y7.9516
G01 X3.8671 Y7.9439
G01 X3.8510 Y7.9350
G01 X3.8355 Y7.9249
G01 X3.8209 Y7.9138
G01 X3.8071 Y7.9016
G01 X3.7942 Y7.8884
G01 X3.7824 Y7.8743
G01 X3.7716 Y7.8594
G01 X3.7619 Y7.8437
G01 X3.7534 Y7.8274
G01 X3.7461 Y7.8104
G01 X3.7401 Y7.7930
G01 X3.7354 Y7.7751
G01 X3.7320 Y7.7569
G01 X3.7299 Y7.7385
G01 X3.7293 Y7.7200
G00 Z2.0000
G00 X3.8606 Y7.7200
G01 F60.00
G01 Z-0.1100
G01 F120.00
G01 X3.8606 Y5.5200
G01 X3.8615 Y5.5053
G01 X3.8642 Y5.4909
G01 X3.8667 Y5.4825
G01 X3.8697 Y5.4742
G01 X3.8734 Y5.4662
G01 X3.8776 Y5.4585
G01 X3.8824 Y5.4512
G01 X3.8877 Y5.4442
G01 X3.8935 Y5.4377
G01 X3.8998 Y5.4315
G01 X3.9065 Y5.4259
G01 X3.9136 Y5.4208
G01 X3.9211 Y5.4162
G01 X3.9289 Y5.4121
G01 X3.9369 Y5.4086
G01 X3.9453 Y5.4058
G01 X3.9538 Y5.4035
G01 X3.9624 Y5.4019
G01 X3.9712 Y5.4009
G01 X3.9800 Y5.4006
G01 X4.4603 Y5.4006
G01 X4.4603 Y5.0010
G01 X4.4002 Y4.9562
G01 X4.3221 Y4.8854
G01 X4.2513 Y4.8073
G01 X4.1887 Y4.7229
G01 X4.1346 Y4.6326
G01 X4.0897 Y4.5378
G01 X4.0541 Y4.4383
G01 X4.0300 Y4.3423
G01 X4.0277 Y4.3308
G01 X4.0140 Y4.2384
G01 X4.0130 Y4.2297
G01 X4.0081 Y4.1304
G01 X4.0082 Y4.0266
G01 X4.0133 Y3.9273
G01 X4.0277 Y3.8292
G01 X4.0300 Y3.8177
G01 X4.0527 Y3.7270
G01 X4.0551 Y3.7187
G01 X4.0897 Y3.6222
G01 X4.1346 Y3.5274
G01 X4.1887 Y3.4371
G01 X4.2513 Y3.3527
G01 X4.3221 Y3.2746
G01 X4.4002 Y3.2038
G01 X4.4846 Y3.1412
G01 X4.5749 Y3.0871
G01 X4.6697 Y3.0422
G01 X4.7692 Y3.0066
G01 X4.8711 Y2.9812
G01 X4.9748 Y2.9658
G01 X5.0800 Y2.9606
G01 X5.1852 Y2.9658
G01 X5.2889 Y2.9812
G01 X5.3855 Y3.0052
G01 X5.3938 Y3.0076
G01 X5.4903 Y3.0422
G01 X5.5801 Y3.0845
G01 X5.5904 Y3.0901
G01 X5.6754 Y3.1412
G01 X5.7598 Y3.2038
G01 X5.8337 Y3.2705
G01 X5.8420 Y3.2788
G01 X5.9087 Y3.3527
G01 X5.9713 Y3.4371
G01 X6.0224 Y3.5221
G01 X6.0280 Y3.5324
G01 X6.0703 Y3.6222
G01 X6.1039 Y3.7158
G01 X6.1073 Y3.7270
G01 X6.1313 Y3.8236
G01 X6.1464 Y3.9244
G01 X6.1472 Y3.9333
G01 X6.1519 Y4.0296
G01 X6.1519 Y4.1275
G01 X6.1472 Y4.2267
G01 X6.1464 Y4.2356
G01 X6.1313 Y4.3364
G01 X6.1073 Y4.4330
G01 X6.1039 Y4.4442
G01 X6.0703 Y4.5378
G01 X6.0280 Y4.6276
G01 X6.0224 Y4.6379
G01 X5.9713 Y4.7229
G01 X5.9087 Y4.8073
G01 X5.8420 Y4.8812
G01 X5.8337 Y4.8895
G01 X5.7598 Y4.9562
G01 X5.6997 Y5.0010
G01 X5.6997 Y5.4006
G01 X6.1800 Y5.4006
G01 X6.1917 Y5.4012
G01 X6.2033 Y5.4029
G01 X6.2119 Y5.4049
G01 X6.2203 Y5.4076
G01 X6.2285 Y5.4109
G01 X6.2389 Y5.4162
G01 X6.2464 Y5.4208
G01 X6.2558 Y5.4277
G01 X6.2644 Y5.4356
G01 X6.2704 Y5.4420
G01 X6.2759 Y5.4488
G01 X6.2824 Y5.4585
G01 X6.2879 Y5.4689
G01 X6.2914 Y5.4769
G01 X6.2942 Y5.4853
G01 X6.2971 Y5.4967
G01 X6.2985 Y5.5053
G01 X6.2993 Y5.5141
G01 X6.2994 Y7.7200
G01 X6.2991 Y7.7288
G01 X6.2981 Y7.7376
G01 X6.2965 Y7.7462
G01 X6.2942 Y7.7547
G01 X6.2914 Y7.7631
G01 X6.2879 Y7.7711
G01 X6.2838 Y7.7789
G01 X6.2792 Y7.7864
G01 X6.2741 Y7.7935
G01 X6.2665 Y7.8023
G01 X6.2602 Y7.8085
G01 X6.2535 Y7.8141
G01 X6.2439 Y7.8208
G01 X6.2364 Y7.8253
G01 X6.2258 Y7.8303
G01 X6.2175 Y7.8333
G01 X6.2091 Y7.8358
G01 X6.2005 Y7.8376
G01 X6.1888 Y7.8391
G01 X6.1800 Y7.8394
G01 X5.6997 Y7.8394
G01 X5.6997 Y8.4147
G01 X5.7655 Y8.4745
G01 X5.8255 Y8.5406
G01 X5.8330 Y8.5496
G01 X5.8827 Y8.6166
G01 X5.8892 Y8.6264
G01 X5.9350 Y8.7032
G01 X5.9732 Y8.7837
G01 X5.9777 Y8.7945
G01 X6.0078 Y8.8789
G01 X6.0308 Y8.9711
G01 X6.0447 Y9.0648
G01 X6.0494 Y9.1600
G01 X6.0447 Y9.2552
G01 X6.0308 Y9.3489
G01 X6.0078 Y9.4411
G01 X5.9777 Y9.5255
G01 X5.9732 Y9.5363
G01 X5.9350 Y9.6168
G01 X5.8892 Y9.6936
G01 X5.8827 Y9.7034
G01 X5.8330 Y9.7704
G01 X5.8255 Y9.7794
G01 X5.7655 Y9.8455
G01 X5.6969 Y9.9077
G01 X5.6904 Y9.9130
G01 X5.6185 Y9.9661
G01 X5.5368 Y10.0150
G01 X5.4510 Y10.0556
G01 X5.3611 Y10.0878
G01 X5.2689 Y10.1108
G01 X5.1752 Y10.1247
G01 X5.0800 Y10.1294
G01 X4.9848 Y10.1247
G01 X4.8911 Y10.1108
G01 X4.7989 Y10.0878
G01 X4.7090 Y10.0556
G01 X4.6232 Y10.0150
G01 X4.5415 Y9.9661
G01 X4.4652 Y9.9095
G01 X4.3945 Y9.8455
G01 X4.3323 Y9.7769
G01 X4.3270 Y9.7704
G01 X4.2739 Y9.6985
G01 X4.2250 Y9.6168
G01 X4.1844 Y9.5310
G01 X4.1522 Y9.4411
G01 X4.1292 Y9.3489
G01 X4.1153 Y9.2552
G01 X4.1106 Y9.1600
G01 X4.1150 Y9.0678
G01 X4.1160 Y9.0592
G01 X4.1292 Y8.9711
G01 X4.1522 Y8.8789
G01 X4.1844 Y8.7890
G01 X4.2250 Y8.7032
G01 X4.2739 Y8.6215
G01 X4.3305 Y8.5452
G01 X4.3945 Y8.4745
G01 X4.4603 Y8.4147
G01 X4.4603 Y7.8394
G01 X3.9800 Y7.8394
G01 X3.9683 Y7.8388
G01 X3.9567 Y7.8371
G01 X3.9453 Y7.8342
G01 X3.9369 Y7.8314
G01 X3.9289 Y7.8279
G01 X3.9185 Y7.8224
G01 X3.9088 Y7.8159
G01 X3.9020 Y7.8104
G01 X3.8956 Y7.8044
G01 X3.8877 Y7.7958
G01 X3.8824 Y7.7888
G01 X3.8762 Y7.7789
G01 X3.8709 Y7.7685
G01 X3.8676 Y7.7603
G01 X3.8642 Y7.7491
G01 X3.8624 Y7.7405
G01 X3.8609 Y7.7288
G01 X3.8606 Y7.7200
G00 Z2.0000
G00 X6.2566 Y8.4730
G01 F60.00
G01 Z-0.1100
G01 F120.00
G01 X6.2207 Y8.4133
G01 X6.2067 Y8.3924
G01 X6.1991 Y8.3819
G01 X6.1421 Y8.3053
G01 X6.1269 Y8.2866
G01 X6.0937 Y8.2497
G01 X6.0937 Y8.2334
G01 X6.1800 Y8.2334
G01 X6.2053 Y8.2328
G01 X6.2304 Y8.2309
G01 X6.2430 Y8.2295
G01 X6.2634 Y8.2266
G01 X6.2605 Y8.2470
G01 X6.2591 Y8.2596
G01 X6.2572 Y8.2847
G01 X6.2567 Y8.2974
G01 X6.2566 Y8.4730
G00 Z2.0000
G00 X6.1954 Y9.6811
G01 F60.00
G01 Z-0.1100
G01 F120.00
G01 X6.2144 Y9.6405
G01 X6.2217 Y9.6229
G01 X6.2564 Y9.5260
G01 X6.2640 Y9.4996
G01 X6.2843 Y9.4187
G01 X6.2902 Y9.3909
G01 X6.3039 Y9.2994
G01 X6.3061 Y9.2813
G01 X6.3075 Y9.2621
G01 X6.3116 Y9.1787
G01 X6.3120 Y9.1506
G01 X6.3075 Y9.0579
G01 X6.3061 Y9.0387
G01 X6.3039 Y9.0206
G01 X6.2916 Y8.9381
G01 X6.2885 Y8.9202
G01 X6.2843 Y8.9013
G01 X6.2640 Y8.8204
G01 X6.2594 Y8.8035
G01 X6.2531 Y8.7845
G01 X6.2250 Y8.7060
G01 X6.2182 Y8.6883
G01 X6.2107 Y8.6714
G01 X6.1750 Y8.5960
G01 X6.1669 Y8.5798
G01 X6.1574 Y8.5629
G01 X6.1145 Y8.4913
G01 X6.0992 Y8.4679
G01 X6.0439 Y8.3932
G01 X6.0329 Y8.3790
G01 X6.0202 Y8.3642
G01 X5.9623 Y8.3004
G01 X5.9623 Y8.1021
G01 X6.1894 Y8.1020
G01 X6.2175 Y8.1002
G01 X6.2362 Y8.0979
G01 X6.2547 Y8.0947
G01 X6.2821 Y8.0882
G01 X6.3001 Y8.0827
G01 X6.3265 Y8.0729
G01 X6.3521 Y8.0611
G01 X6.3686 Y8.0523
G01 X6.3924 Y8.0376
G01 X6.4152 Y8.0211
G01 X6.4345 Y8.0050
G01 X6.4637 Y8.0385
G01 X6.4828 Y8.0581
G01 X6.4747 Y8.0675
G01 X6.4632 Y8.0823
G01 X6.4473 Y8.1054
G01 X6.4377 Y8.1214
G01 X6.4289 Y8.1379
G01 X6.4171 Y8.1635
G01 X6.4073 Y8.1899
G01 X6.4018 Y8.2079
G01 X6.3972 Y8.2261
G01 X6.3921 Y8.2538
G01 X6.3898 Y8.2725
G01 X6.3884 Y8.2912
G01 X6.3879 Y8.3100
G01 X6.3879 Y9.7312
G01 X6.3716 Y9.7226
G01 X6.3464 Y9.7111
G01 X6.3204 Y9.7016
G01 X6.2938 Y9.6939
G01 X6.2758 Y9.6898
G01 X6.2485 Y9.6854
G01 X6.2292 Y9.6835
G01 X6.1954 Y9.6811
G00 Z2.0000
G00 X6.3971 Y5.2056
G01 F60.00
G01 Z-0.1100
G01 F120.00
G01 X6.3766 Y5.1924
G01 X6.3604 Y5.1832
G01 X6.3352 Y5.1709
G01 X6.3178 Y5.1636
G01 X6.2912 Y5.1544
G01 X6.2731 Y5.1494
G01 X6.2547 Y5.1453
G01 X6.2362 Y5.1421
G01 X6.2082 Y5.1390
G01 X6.1894 Y5.1380
G01 X5.9623 Y5.1379
G01 X5.9623 Y5.1274
G01 X6.0101 Y5.0841
G01 X6.0237 Y5.0712
G01 X6.0366 Y5.0576
G01 X6.1064 Y4.9804
G01 X6.1232 Y4.9594
G01 X6.1789 Y4.8843
G01 X6.1949 Y4.8609
G01 X6.2478 Y4.7729
G01 X6.2573 Y4.7560
G01 X6.2654 Y4.7399
G01 X6.3054 Y4.6554
G01 X6.3129 Y4.6385
G01 X6.3197 Y4.6207
G01 X6.3500 Y4.5362
G01 X6.3803 Y4.6207
G01 X6.3871 Y4.6385
G01 X6.3946 Y4.6554
G01 X6.4346 Y4.7399
G01 X6.4474 Y4.7645
G01 X6.5003 Y4.8531
G01 X6.5155 Y4.8765
G01 X6.5823 Y4.9665
G01 X6.5936 Y4.9804
G01 X6.6308 Y5.0217
G01 X6.6057 Y5.0319
G01 X6.5800 Y5.0446
G01 X6.5554 Y5.0592
G01 X6.5397 Y5.0699
G01 X6.5256 Y5.0805
G01 X6.5119 Y5.0917
G01 X6.4583 Y5.1382
G01 X6.4448 Y5.1505
G01 X6.4318 Y5.1635
G01 X6.4193 Y5.1773
G01 X6.4075 Y5.1917
G01 X6.3971 Y5.2056
G00 Z2.0000
G00 X6.3684 Y5.0424
G01 F60.00
G01 Z-0.1100
G01 F120.00
G01 X6.3414 Y5.0326
G01 X6.3172 Y5.0253
G01 X6.3050 Y5.0220
G01 X6.2804 Y5.0165
G01 X6.2680 Y5.0142
G01 X6.2483 Y5.0112
G01 X6.2844 Y4.9625
G01 X6.2992 Y4.9415
G01 X6.3123 Y4.9206
G01 X6.3500 Y4.8578
G01 X6.3941 Y4.9311
G01 X6.4081 Y4.9521
G01 X6.4333 Y4.9863
G01 X6.3684 Y5.0424
G00 Z2.0000
G00 X6.3500 Y3.6238
G01 F60.00
G01 Z-0.1100
G01 F120.00
G01 X6.3352 Y3.5826
G01 X6.3496 Y3.5821
G01 X6.3653 Y3.5810
G01 X6.3500 Y3.6238
G00 Z2.0000
G00 X8.2394 Y2.8425
G01 F60.00
G01 Z-0.1100
G01 F120.00
G01 X8.3649 Y2.9118
G01 X8.5379 Y3.0485
G01 X8.6863 Y3.2116
G01 X8.8058 Y3.3964
G01 X8.8337 Y3.4603
G01 X8.5254 Y3.4603
G01 X8.5096 Y3.4346
G01 X8.4505 Y3.3549
G01 X8.4448 Y3.3481
G01 X8.3800 Y3.2766
G01 X8.3737 Y3.2705
G01 X8.3020 Y3.2056
G01 X8.2954 Y3.2003
G01 X8.2394 Y3.1588
G01 X8.2394 Y2.8425
G00 Z2.0000
G00 X8.3707 Y3.0838
G01 F60.00
G01 Z-0.1100
G01 F120.00
G01 X8.4479 Y3.1447
G01 X8.5818 Y3.2918
G01 X8.6058 Y3.3290
G01 X8.5949 Y3.3290
G01 X8.5504 Y3.2696
G01 X8.5421 Y3.2599
G01 X8.4793 Y3.1906
G01 X8.4708 Y3.1817
G01 X8.4619 Y3.1732
G01 X8.3926 Y3.1104
G01 X8.3829 Y3.1021
G01 X8.3707 Y3.0927
G01 X8.3707 Y3.0838
G00 Z2.0000
G00 X8.3707 Y5.0767
G01 F60.00
G01 Z-0.1100
G01 F120.00
G01 X8.3707 Y5.0673
G01 X8.3829 Y5.0579
G01 X8.3926 Y5.0496
G01 X8.4619 Y4.9868
G01 X8.4708 Y4.9783
G01 X8.4793 Y4.9694
G01 X8.5421 Y4.9001
G01 X8.5504 Y4.8904
G01 X8.5949 Y4.8310
G01 X8.6046 Y4.8310
G01 X8.5634 Y4.8914
G01 X8.4260 Y5.0353
G01 X8.3707 Y5.0767
G00 Z2.0000
G00 X8.2394 Y5.3171
G01 F60.00
G01 Z-0.1100
G01 F120.00
G01 X8.2394 Y5.0012
G01 X8.2954 Y4.9597
G01 X8.3020 Y4.9544
G01 X8.3737 Y4.8895
G01 X8.3800 Y4.8834
G01 X8.4448 Y4.8119
G01 X8.4505 Y4.8051
G01 X8.5096 Y4.7254
G01 X8.5254 Y4.6997
G01 X8.8330 Y4.6997
G01 X8.7899 Y4.7924
G01 X8.6660 Y4.9742
G01 X8.5136 Y5.1336
G01 X8.3373 Y5.2661
G01 X8.2394 Y5.3171
G00 Z2.0000
G00 X11.6985 Y8.8693
G01 F60.00
G01 Z-0.1100
G01 F120.00
G01 X11.7955 Y8.7723
G01 X11.8177 Y8.7723
G01 X11.8177 Y8.9205
G01 X11.8041 Y8.9121
G01 X11.7880 Y8.9031
G01 X11.7631 Y8.8910
G01 X11.7460 Y8.8840
G01 X11.7287 Y8.8778
G01 X11.7110 Y8.8725
G01 X11.6985 Y8.8693
G00 Z2.0000
G00 X8.2394 Y15.5425
G01 F60.00
G01 Z-0.1100
G01 F120.00
G01 X8.3649 Y15.6118
G01 X8.5379 Y15.7485
G01 X8.6863 Y15.9116
G01 X8.8058 Y16.0964
G01 X8.8337 Y16.1603
G01 X8.5254 Y16.1603
G01 X8.5096 Y16.1346
G01 X8.4505 Y16.0549
G01 X8.4448 Y16.0481
G01 X8.3800 Y15.9766
G01 X8.3737 Y15.9705
G01 X8.3020 Y15.9056
G01 X8.2954 Y15.9003
G01 X8.2394 Y15.8588
G01 X8.2394 Y15.5425
G00 Z2.0000
G00 X8.3707 Y15.7838
G01 F60.00
G01 Z-0.1100
G01 F120.00
G01 X8.4479 Y15.8447
G01 X8.5818 Y15.9918
G01 X8.6058 Y16.0290
G01 X8.5949 Y16.0290
G01 X8.5504 Y15.9696
G01 X8.5421 Y15.9599
G01 X8.4793 Y15.8906
G01 X8.4708 Y15.8817
G01 X8.4619 Y15.8732
G01 X8.3926 Y15.8104
G01 X8.3829 Y15.8021
G01 X8.3707 Y15.7927
G01 X8.3707 Y15.7838
G00 Z2.0000
G00 X8.3707 Y17.7767
G01 F60.00
G01 Z-0.1100
G01 F120.00
G01 X8.3707 Y17.7673
G01 X8.3829 Y17.7579
G01 X8.3926 Y17.7496
G01 X8.4619 Y17.6868
G01 X8.4708 Y17.6783
G01 X8.4793 Y17.6694
G01 X8.5421 Y17.6001
G01 X8.5504 Y17.5904
G01 X8.5949 Y17.5310
G01 X8.6046 Y17.5310
G01 X8.5634 Y17.5914
G01 X8.4260 Y17.7353
G01 X8.3707 Y17.7767
G00 Z2.0000
G00 X8.2394 Y18.0171
G01 F60.00
G01 Z-0.1100
G01 F120.00
G01 X8.2394 Y17.7012
G01 X8.2954 Y17.6597
G01 X8.3020 Y17.6544
G01 X8.3737 Y17.5895
G01 X8.3800 Y17.5834
G01 X8.4448 Y17.5119
G01 X8.4505 Y17.5051
G01 X8.5096 Y17.4254
G01 X8.5254 Y17.3997
G01 X8.8330 Y17.3997
G01 X8.7899 Y17.4924
G01 X8.6660 Y17.6742
G01 X8.5136 Y17.8336
G01 X8.3373 Y17.9661
G01 X8.2394 Y18.0171
G00 Z2.0000
G00 X6.3971 Y17.9056
G01 F60.00
G01 Z-0.1100
G01 F120.00
G01 X6.3766 Y17.8924
G01 X6.3604 Y17.8832
G01 X6.3352 Y17.8709
G01 X6.3178 Y17.8636
G01 X6.3001 Y17.8573
G01 X6.2821 Y17.8518
G01 X6.2547 Y17.8453
G01 X6.2362 Y17.8421
G01 X6.2082 Y17.8390
G01 X6.1894 Y17.8380
G01 X5.9623 Y17.8379
G01 X5.9623 Y17.8274
G01 X6.0101 Y17.7841
G01 X6.0237 Y17.7712
G01 X6.0366 Y17.7576
G01 X6.1064 Y17.6804
G01 X6.1232 Y17.6594
G01 X6.1789 Y17.5843
G01 X6.1949 Y17.5609
G01 X6.2478 Y17.4729
G01 X6.2573 Y17.4560
G01 X6.2654 Y17.4399
G01 X6.3054 Y17.3554
G01 X6.3129 Y17.3385
G01 X6.3197 Y17.3207
G01 X6.3500 Y17.2362
G01 X6.3803 Y17.3207
G01 X6.3871 Y17.3385
G01 X6.3946 Y17.3554
G01 X6.4346 Y17.4399
G01 X6.4474 Y17.4645
G01 X6.5003 Y17.5531
G01 X6.5155 Y17.5765
G01 X6.5823 Y17.6665
G01 X6.5936 Y17.6804
G01 X6.6308 Y17.7217
G01 X6.6057 Y17.7319
G01 X6.5800 Y17.7446
G01 X6.5554 Y17.7592
G01 X6.5397 Y17.7699
G01 X6.5256 Y17.7805
G01 X6.5119 Y17.7917
G01 X6.4583 Y17.8382
G01 X6.4448 Y17.8505
G01 X6.4318 Y17.8635
G01 X6.4193 Y17.8773
G01 X6.4075 Y17.8917
G01 X6.3971 Y17.9056
G00 Z2.0000
G00 X6.3684 Y17.7424
G01 F60.00
G01 Z-0.1100
G01 F120.00
G01 X6.3414 Y17.7326
G01 X6.3173 Y17.7253
G01 X6.3050 Y17.7220
G01 X6.2804 Y17.7165
G01 X6.2680 Y17.7142
G01 X6.2483 Y17.7112
G01 X6.2844 Y17.6625
G01 X6.2992 Y17.6415
G01 X6.3123 Y17.6206
G01 X6.3500 Y17.5578
G01 X6.3941 Y17.6311
G01 X6.4081 Y17.6521
G01 X6.4333 Y17.6863
G01 X6.3684 Y17.7424
G00 Z2.0000
G00 X6.3500 Y16.3238
G01 F60.00
G01 Z-0.1100
G01 F120.00
G01 X6.3352 Y16.2826
G01 X6.3496 Y16.2821
G01 X6.3653 Y16.2810
G01 X6.3500 Y16.3238
G00 Z2.0000
G00 X4.0042 Y15.7383
G01 F60.00
G01 Z-0.1100
G01 F120.00
G01 X4.0020 Y15.7170
G01 X4.0003 Y15.7045
G01 X3.9960 Y15.6796
G01 X3.9905 Y15.6550
G01 X3.9837 Y15.6306
G01 X3.9758 Y15.6066
G01 X3.9667 Y15.5831
G01 X3.9564 Y15.5601
G01 X3.9509 Y15.5488
G01 X3.9390 Y15.5266
G01 X3.9261 Y15.5051
G01 X3.9121 Y15.4842
G01 X3.8971 Y15.4640
G01 X3.8812 Y15.4446
G01 X3.8643 Y15.4260
G01 X3.8465 Y15.4082
G01 X3.8373 Y15.3996
G01 X3.8183 Y15.3832
G01 X3.7985 Y15.3677
G01 X3.7780 Y15.3533
G01 X3.7674 Y15.3464
G01 X3.7459 Y15.3335
G01 X3.7237 Y15.3216
G01 X3.7010 Y15.3108
G01 X3.6777 Y15.3011
G01 X3.6539 Y15.2926
G01 X3.6297 Y15.2853
G01 X3.6052 Y15.2791
G01 X3.5805 Y15.2742
G01 X3.5680 Y15.2722
G01 X3.5429 Y15.2691
G01 X3.5178 Y15.2672
G01 X3.4925 Y15.2666
G01 X3.3589 Y15.2666
G01 X3.3751 Y15.2537
G01 X3.9578 Y15.2537
G01 X4.0011 Y15.3011
G01 X4.0189 Y15.3189
G01 X4.1115 Y15.4028
G01 X4.1207 Y15.4106
G01 X4.1398 Y15.4254
G01 X4.2186 Y15.4839
G01 X4.2396 Y15.4987
G01 X4.2646 Y15.5143
G01 X4.2450 Y15.5281
G01 X4.1699 Y15.5838
G01 X4.1509 Y15.5986
G01 X4.1416 Y15.6064
G01 X4.0525 Y15.6871
G01 X4.0346 Y15.7050
G01 X4.0042 Y15.7383
G00 Z2.0000
G00 X3.8746 Y16.1624
G01 F60.00
G01 Z-0.1100
G01 F120.00
G01 X3.8745 Y15.7706
G01 X3.8735 Y15.7518
G01 X3.8717 Y15.7331
G01 X3.8689 Y15.7145
G01 X3.8653 Y15.6961
G01 X3.8581 Y15.6688
G01 X3.8521 Y15.6510
G01 X3.8454 Y15.6335
G01 X3.8377 Y15.6163
G01 X3.8293 Y15.5996
G01 X3.8201 Y15.5834
G01 X3.8101 Y15.5676
G01 X3.7936 Y15.5448
G01 X3.7818 Y15.5304
G01 X3.7692 Y15.5165
G01 X3.7560 Y15.5033
G01 X3.7421 Y15.4907
G01 X3.7277 Y15.4789
G01 X3.7126 Y15.4677
G01 X3.6891 Y15.4524
G01 X3.6646 Y15.4389
G01 X3.6390 Y15.4271
G01 X3.6215 Y15.4204
G01 X3.5946 Y15.4118
G01 X3.5764 Y15.4072
G01 X3.5487 Y15.4021
G01 X3.5207 Y15.3990
G01 X3.4925 Y15.3979
G01 X2.7775 Y15.3979
G01 X2.8736 Y15.3739
G01 X2.9009 Y15.3653
G01 X2.9749 Y15.3388
G01 X2.9926 Y15.3320
G01 X3.0095 Y15.3245
G01 X3.0880 Y15.2873
G01 X3.1135 Y15.2733
G01 X3.1809 Y15.2329
G01 X3.2043 Y15.2177
G01 X3.2823 Y15.1599
G01 X3.2962 Y15.1485
G01 X3.3253 Y15.1223
G01 X4.0163 Y15.1223
G01 X4.0898 Y15.2037
G01 X4.1027 Y15.2173
G01 X4.1163 Y15.2302
G01 X4.1890 Y15.2961
G01 X4.2038 Y15.3089
G01 X4.2180 Y15.3199
G01 X4.2968 Y15.3784
G01 X4.3125 Y15.3894
G01 X4.3280 Y15.3992
G01 X4.4122 Y15.4496
G01 X4.4377 Y15.4637
G01 X4.5409 Y15.5124
G01 X4.4676 Y15.5471
G01 X4.4515 Y15.5552
G01 X4.4346 Y15.5647
G01 X4.3544 Y15.6128
G01 X4.3389 Y15.6226
G01 X4.3232 Y15.6336
G01 X4.2481 Y15.6893
G01 X4.2340 Y15.7003
G01 X4.2192 Y15.7131
G01 X4.1430 Y15.7823
G01 X4.1234 Y15.8024
G01 X4.0606 Y15.8717
G01 X4.0478 Y15.8865
G01 X4.0368 Y15.9006
G01 X3.9755 Y15.9835
G01 X3.9603 Y16.0069
G01 X3.9074 Y16.0955
G01 X3.8982 Y16.1126
G01 X3.8746 Y16.1624
G00 Z2.0000
G00 X3.8671 Y17.8550
G01 F60.00
G01 Z-0.1100
G01 F120.00
G01 X3.8717 Y17.8269
G01 X3.8735 Y17.8082
G01 X3.8745 Y17.7894
G01 X3.8746 Y17.3976
G01 X3.8982 Y17.4474
G01 X3.9074 Y17.4645
G01 X3.9651 Y17.5609
G01 X3.9811 Y17.5843
G01 X4.0368 Y17.6594
G01 X4.0536 Y17.6804
G01 X4.1234 Y17.7576
G01 X4.1363 Y17.7712
G01 X4.1499 Y17.7841
G01 X4.1977 Y17.8274
G01 X4.1977 Y17.8379
G01 X3.9800 Y17.8379
G01 X3.9612 Y17.8384
G01 X3.9331 Y17.8408
G01 X3.9145 Y17.8436
G01 X3.8869 Y17.8494
G01 X3.8671 Y17.8550
G00 Z2.0000
G00 X3.9800 Y17.9693
G01 F60.00
G01 Z-0.1100
G01 F120.00
G01 X4.3290 Y17.9693
G01 X4.3290 Y17.7671
G01 X4.3171 Y17.7579
G01 X4.3074 Y17.7496
G01 X4.2381 Y17.6868
G01 X4.2292 Y17.6783
G01 X4.2207 Y17.6694
G01 X4.1579 Y17.6001
G01 X4.1496 Y17.5904
G01 X4.0866 Y17.5060
G01 X4.0794 Y17.4958
G01 X4.0730 Y17.4856
G01 X4.0249 Y17.4054
G01 X4.0186 Y17.3943
G01 X3.9733 Y17.2992
G01 X3.9684 Y17.2881
G01 X3.9639 Y17.2765
G01 X3.9324 Y17.1885
G01 X3.9283 Y17.1760
G01 X3.9026 Y17.0742
G01 X3.8998 Y17.0619
G01 X3.8978 Y17.0501
G01 X3.8841 Y16.9577
G01 X3.8826 Y16.9458
G01 X3.8816 Y16.9332
G01 X3.8771 Y16.8398
G01 X3.8768 Y16.8275
G01 X3.8768 Y16.7263
G01 X3.8820 Y16.6205
G01 X3.8841 Y16.6023
G01 X3.8978 Y16.5099
G01 X3.8998 Y16.4981
G01 X3.9026 Y16.4858
G01 X3.9268 Y16.3895
G01 X3.9324 Y16.3715
G01 X3.9639 Y16.2835
G01 X3.9684 Y16.2719
G01 X3.9733 Y16.2608
G01 X4.0186 Y16.1657
G01 X4.0249 Y16.1546
G01 X4.0730 Y16.0744
G01 X4.0794 Y16.0642
G01 X4.0866 Y16.0540
G01 X4.1423 Y15.9789
G01 X4.1533 Y15.9651
G01 X4.2207 Y15.8906
G01 X4.2292 Y15.8817
G01 X4.2381 Y15.8732
G01 X4.3074 Y15.8104
G01 X4.3171 Y15.8021
G01 X4.4015 Y15.7391
G01 X4.4117 Y15.7319
G01 X4.4219 Y15.7255
G01 X4.5021 Y15.6774
G01 X4.5132 Y15.6711
G01 X4.6083 Y15.6258
G01 X4.6194 Y15.6209
G01 X4.6310 Y15.6164
G01 X4.7190 Y15.5849
G01 X4.7315 Y15.5808
G01 X4.8333 Y15.5551
G01 X4.8456 Y15.5523
G01 X4.8574 Y15.5503
G01 X4.9498 Y15.5366
G01 X4.9617 Y15.5351
G01 X4.9743 Y15.5341
G01 X5.0677 Y15.5296
G01 X5.0800 Y15.5293
G01 X5.0923 Y15.5296
G01 X5.1857 Y15.5341
G01 X5.1983 Y15.5351
G01 X5.2102 Y15.5366
G01 X5.3026 Y15.5503
G01 X5.3144 Y15.5523
G01 X5.3267 Y15.5551
G01 X5.4285 Y15.5808
G01 X5.4410 Y15.5849
G01 X5.5290 Y15.6164
G01 X5.5406 Y15.6209
G01 X5.5517 Y15.6258
G01 X5.6468 Y15.6711
G01 X5.6579 Y15.6774
G01 X5.7381 Y15.7255
G01 X5.7483 Y15.7319
G01 X5.7585 Y15.7391
G01 X5.8336 Y15.7948
G01 X5.8474 Y15.8058
G01 X5.9219 Y15.8732
G01 X5.9308 Y15.8817
G01 X5.9393 Y15.8906
G01 X6.0021 Y15.9599
G01 X6.0104 Y15.9696
G01 X6.0734 Y16.0540
G01 X6.0806 Y16.0642
G01 X6.0870 Y16.0744
G01 X6.1351 Y16.1546
G01 X6.1414 Y16.1657
G01 X6.1867 Y16.2608
G01 X6.1916 Y16.2719
G01 X6.1961 Y16.2835
G01 X6.2276 Y16.3715
G01 X6.2317 Y16.3840
G01 X6.2574 Y16.4858
G01 X6.2602 Y16.4981
G01 X6.2622 Y16.5099
G01 X6.2767 Y16.6083
G01 X6.2784 Y16.6268
G01 X6.2829 Y16.7202
G01 X6.2832 Y16.7325
G01 X6.2832 Y16.8337
G01 X6.2780 Y16.9395
G01 X6.2759 Y16.9577
G01 X6.2622 Y17.0501
G01 X6.2602 Y17.0619
G01 X6.2574 Y17.0742
G01 X6.2347 Y17.1649
G01 X6.2297 Y17.1823
G01 X6.1961 Y17.2765
G01 X6.1916 Y17.2881
G01 X6.1867 Y17.2992
G01 X6.1467 Y17.3837
G01 X6.1414 Y17.3943
G01 X6.1351 Y17.4054
G01 X6.0870 Y17.4856
G01 X6.0806 Y17.4958
G01 X6.0734 Y17.5060
G01 X6.0104 Y17.5904
G01 X6.0021 Y17.6001
G01 X5.9393 Y17.6694
G01 X5.9308 Y17.6783
G01 X5.9219 Y17.6868
G01 X5.8526 Y17.7496
G01 X5.8429 Y17.7579
G01 X5.8310 Y17.7671
G01 X5.8310 Y17.9693
G01 X6.1862 Y17.9693
G01 X6.2046 Y17.9705
G01 X6.2230 Y17.9730
G01 X6.2411 Y17.9768
G01 X6.2588 Y17.9820
G01 X6.2704 Y17.9861
G01 X6.2874 Y17.9934
G01 X6.3037 Y18.0019
G01 X6.3143 Y18.0082
G01 X6.3294 Y18.0187
G01 X6.3438 Y18.0302
G01 X6.3529 Y18.0384
G01 X6.3658 Y18.0516
G01 X6.3738 Y18.0609
G01 X6.3849 Y18.0755
G01 X6.3918 Y18.0857
G01 X6.4010 Y18.1016
G01 X6.4091 Y18.1182
G01 X6.4139 Y18.1296
G01 X6.4180 Y18.1412
G01 X6.4232 Y18.1589
G01 X6.4259 Y18.1710
G01 X6.4288 Y18.1892
G01 X6.4301 Y18.2015
G01 X6.4307 Y18.2200
G01 X6.4307 Y20.4200
G01 X6.4301 Y20.4385
G01 X6.4280 Y20.4569
G01 X6.4259 Y20.4690
G01 X6.4216 Y20.4870
G01 X6.4160 Y20.5047
G01 X6.4091 Y20.5218
G01 X6.4010 Y20.5384
G01 X6.3918 Y20.5543
G01 X6.3813 Y20.5694
G01 X6.3698 Y20.5838
G01 X6.3573 Y20.5973
G01 X6.3438 Y20.6098
G01 X6.3294 Y20.6213
G01 X6.3143 Y20.6318
G01 X6.2984 Y20.6410
G01 X6.2818 Y20.6491
G01 X6.2704 Y20.6539
G01 X6.2530 Y20.6599
G01 X6.2351 Y20.6646
G01 X6.2169 Y20.6680
G01 X6.2046 Y20.6695
G01 X6.1923 Y20.6704
G01 X6.1800 Y20.6707
G01 X5.8310 Y20.6707
G01 X5.8310 Y21.0565
G01 X5.8539 Y21.0774
G01 X5.8626 Y21.0861
G01 X5.9228 Y21.1524
G01 X5.9349 Y21.1667
G01 X5.9881 Y21.2384
G01 X5.9954 Y21.2487
G01 X6.0018 Y21.2589
G01 X6.0479 Y21.3359
G01 X6.0563 Y21.3521
G01 X6.0920 Y21.4275
G01 X6.0969 Y21.4386
G01 X6.1014 Y21.4502
G01 X6.1295 Y21.5288
G01 X6.1336 Y21.5412
G01 X6.1584 Y21.6398
G01 X6.1617 Y21.6574
G01 X6.1754 Y21.7517
G01 X6.1763 Y21.7644
G01 X6.1804 Y21.8477
G01 X6.1807 Y21.8600
G01 X6.1804 Y21.8723
G01 X6.1763 Y21.9556
G01 X6.1754 Y21.9683
G01 X6.1617 Y22.0626
G01 X6.1597 Y22.0744
G01 X6.1569 Y22.0868
G01 X6.1366 Y22.1677
G01 X6.1336 Y22.1788
G01 X6.1295 Y22.1912
G01 X6.1014 Y22.2698
G01 X6.0969 Y22.2814
G01 X6.0920 Y22.2925
G01 X6.0510 Y22.3785
G01 X6.0447 Y22.3896
G01 X6.0018 Y22.4611
G01 X5.9954 Y22.4713
G01 X5.9881 Y22.4816
G01 X5.9312 Y22.5579
G01 X5.9228 Y22.5676
G01 X5.8668 Y22.6294
G01 X5.8583 Y22.6383
G01 X5.8494 Y22.6468
G01 X5.7876 Y22.7028
G01 X5.7779 Y22.7112
G01 X5.7016 Y22.7681
G01 X5.6913 Y22.7754
G01 X5.6811 Y22.7818
G01 X5.6096 Y22.8247
G01 X5.5985 Y22.8310
G01 X5.5125 Y22.8720
G01 X5.5014 Y22.8769
G01 X5.4898 Y22.8814
G01 X5.4112 Y22.9095
G01 X5.3932 Y22.9152
G01 X5.3068 Y22.9369
G01 X5.2944 Y22.9397
G01 X5.2826 Y22.9417
G01 X5.1883 Y22.9554
G01 X5.1756 Y22.9563
G01 X5.0923 Y22.9604
G01 X5.0800 Y22.9607
G01 X5.0677 Y22.9604
G01 X4.9844 Y22.9563
G01 X4.9717 Y22.9554
G01 X4.8774 Y22.9417
G01 X4.8656 Y22.9397
G01 X4.8532 Y22.9369
G01 X4.7612 Y22.9136
G01 X4.7488 Y22.9095
G01 X4.6702 Y22.8814
G01 X4.6586 Y22.8769
G01 X4.6475 Y22.8720
G01 X4.5615 Y22.8310
G01 X4.5504 Y22.8247
G01 X4.4789 Y22.7818
G01 X4.4687 Y22.7754
G01 X4.4584 Y22.7681
G01 X4.3821 Y22.7112
G01 X4.3724 Y22.7028
G01 X4.3106 Y22.6468
G01 X4.3017 Y22.6383
G01 X4.2932 Y22.6294
G01 X4.2372 Y22.5676
G01 X4.2288 Y22.5579
G01 X4.1719 Y22.4816
G01 X4.1646 Y22.4713
G01 X4.1582 Y22.4611
G01 X4.1153 Y22.3896
G01 X4.1090 Y22.3785
G01 X4.0680 Y22.2925
G01 X4.0631 Y22.2814
G01 X4.0586 Y22.2698
G01 X4.0305 Y22.1912
G01 X4.0248 Y22.1732
G01 X4.0031 Y22.0868
G01 X4.0003 Y22.0744
G01 X3.9983 Y22.0626
G01 X3.9846 Y21.9683
G01 X3.9837 Y21.9556
G01 X3.9796 Y21.8723
G01 X3.9793 Y21.8600
G01 X3.9796 Y21.8477
G01 X3.9837 Y21.7644
G01 X3.9846 Y21.7517
G01 X3.9983 Y21.6574
G01 X4.0003 Y21.6456
G01 X4.0031 Y21.6332
G01 X4.0264 Y21.5412
G01 X4.0305 Y21.5288
G01 X4.0586 Y21.4502
G01 X4.0631 Y21.4386
G01 X4.0680 Y21.4275
G01 X4.1037 Y21.3521
G01 X4.1121 Y21.3359
G01 X4.1582 Y21.2589
G01 X4.1646 Y21.2487
G01 X4.1719 Y21.2384
G01 X4.2251 Y21.1667
G01 X4.2372 Y21.1524
G01 X4.2974 Y21.0861
G01 X4.3061 Y21.0774
G01 X4.3290 Y21.0565
G01 X4.3290 Y20.6707
G01 X3.9738 Y20.6707
G01 X3.9554 Y20.6695
G01 X3.9431 Y20.6680
G01 X3.9310 Y20.6659
G01 X3.9130 Y20.6616
G01 X3.8953 Y20.6560
G01 X3.8838 Y20.6516
G01 X3.8671 Y20.6439
G01 X3.8510 Y20.6350
G01 X3.8355 Y20.6249
G01 X3.8209 Y20.6138
G01 X3.8071 Y20.6016
G01 X3.7942 Y20.5884
G01 X3.7824 Y20.5743
G01 X3.7716 Y20.5594
G01 X3.7619 Y20.5437
G01 X3.7534 Y20.5274
G01 X3.7484 Y20.5162
G01 X3.7420 Y20.4988
G01 X3.7368 Y20.4811
G01 X3.7341 Y20.4690
G01 X3.7312 Y20.4508
G01 X3.7296 Y20.4323
G01 X3.7293 Y20.4200
G01 X3.7293 Y18.2200
G01 X3.7296 Y18.2077
G01 X3.7305 Y18.1954
G01 X3.7320 Y18.1831
G01 X3.7341 Y18.1710
G01 X3.7384 Y18.1530
G01 X3.7420 Y18.1412
G01 X3.7461 Y18.1296
G01 X3.7509 Y18.1182
G01 X3.7561 Y18.1071
G01 X3.7619 Y18.0963
G01 X3.7682 Y18.0857
G01 X3.7751 Y18.0755
G01 X3.7824 Y18.0657
G01 X3.7902 Y18.0562
G01 X3.7984 Y18.0471
G01 X3.8116 Y18.0342
G01 X3.8209 Y18.0262
G01 X3.8306 Y18.0187
G01 X3.8406 Y18.0116
G01 X3.8510 Y18.0050
G01 X3.8616 Y17.9990
G01 X3.8726 Y17.9934
G01 X3.8896 Y17.9861
G01 X3.9070 Y17.9801
G01 X3.9189 Y17.9768
G01 X3.9310 Y17.9741
G01 X3.9431 Y17.9720
G01 X3.9554 Y17.9705
G01 X3.9677 Y17.9696
G01 X3.9800 Y17.9693
G00 Z2.0000
G00 X3.9800 Y18.1006
G01 F60.00
G01 Z-0.1100
G01 F120.00
G01 X4.4603 Y18.1006
G01 X4.4603 Y17.7010
G01 X4.4002 Y17.6562
G01 X4.3263 Y17.5895
G01 X4.3180 Y17.5812
G01 X4.2552 Y17.5119
G01 X4.2478 Y17.5029
G01 X4.1887 Y17.4229
G01 X4.1360 Y17.3353
G01 X4.1320 Y17.3276
G01 X4.0897 Y17.2378
G01 X4.0541 Y17.1383
G01 X4.0287 Y17.0364
G01 X4.0133 Y16.9327
G01 X4.0081 Y16.8275
G01 X4.0081 Y16.7296
G01 X4.0130 Y16.6303
G01 X4.0140 Y16.6216
G01 X4.0287 Y16.5236
G01 X4.0534 Y16.4243
G01 X4.0561 Y16.4158
G01 X4.0897 Y16.3222
G01 X4.1346 Y16.2274
G01 X4.1887 Y16.1371
G01 X4.2513 Y16.0527
G01 X4.3221 Y15.9746
G01 X4.4002 Y15.9038
G01 X4.4846 Y15.8412
G01 X4.5749 Y15.7871
G01 X4.6697 Y15.7422
G01 X4.7692 Y15.7066
G01 X4.8711 Y15.6812
G01 X4.9748 Y15.6658
G01 X5.0800 Y15.6606
G01 X5.1852 Y15.6658
G01 X5.2889 Y15.6812
G01 X5.3908 Y15.7066
G01 X5.4903 Y15.7422
G01 X5.5851 Y15.7871
G01 X5.6754 Y15.8412
G01 X5.7598 Y15.9038
G01 X5.8379 Y15.9746
G01 X5.9048 Y16.0481
G01 X5.9122 Y16.0571
G01 X5.9713 Y16.1371
G01 X6.0224 Y16.2221
G01 X6.0280 Y16.2324
G01 X6.0703 Y16.3222
G01 X6.1059 Y16.4217
G01 X6.1300 Y16.5177
G01 X6.1319 Y16.5264
G01 X6.1460 Y16.6216
G01 X6.1470 Y16.6303
G01 X6.1519 Y16.7296
G01 X6.1519 Y16.8304
G01 X6.1472 Y16.9267
G01 X6.1460 Y16.9384
G01 X6.1313 Y17.0364
G01 X6.1073 Y17.1330
G01 X6.1039 Y17.1442
G01 X6.0703 Y17.2378
G01 X6.0254 Y17.3326
G01 X5.9713 Y17.4229
G01 X5.9122 Y17.5029
G01 X5.9048 Y17.5119
G01 X5.8420 Y17.5812
G01 X5.8337 Y17.5895
G01 X5.7598 Y17.6562
G01 X5.6997 Y17.7010
G01 X5.6997 Y18.1006
G01 X6.1800 Y18.1006
G01 X6.1888 Y18.1009
G01 X6.1976 Y18.1019
G01 X6.2062 Y18.1035
G01 X6.2147 Y18.1058
G01 X6.2231 Y18.1086
G01 X6.2312 Y18.1121
G01 X6.2389 Y18.1162
G01 X6.2464 Y18.1208
G01 X6.2535 Y18.1259
G01 X6.2602 Y18.1315
G01 X6.2665 Y18.1377
G01 X6.2723 Y18.1442
G01 X6.2776 Y18.1512
G01 X6.2824 Y18.1585
G01 X6.2866 Y18.1662
G01 X6.2903 Y18.1742
G01 X6.2933 Y18.1825
G01 X6.2958 Y18.1909
G01 X6.2985 Y18.2053
G01 X6.2994 Y18.2200
G01 X6.2993 Y20.4259
G01 X6.2985 Y20.4347
G01 X6.2971 Y20.4433
G01 X6.2942 Y20.4547
G01 X6.2914 Y20.4631
G01 X6.2879 Y20.4711
G01 X6.2824 Y20.4815
G01 X6.2776 Y20.4888
G01 X6.2704 Y20.4980
G01 X6.2644 Y20.5044
G01 X6.2558 Y20.5123
G01 X6.2464 Y20.5192
G01 X6.2389 Y20.5238
G01 X6.2285 Y20.5291
G01 X6.2203 Y20.5324
G01 X6.2119 Y20.5351
G01 X6.2033 Y20.5371
G01 X6.1917 Y20.5388
G01 X6.1800 Y20.5394
G01 X5.6997 Y20.5394
G01 X5.6997 Y21.1147
G01 X5.7655 Y21.1745
G01 X5.8255 Y21.2406
G01 X5.8330 Y21.2496
G01 X5.8861 Y21.3215
G01 X5.9320 Y21.3979
G01 X5.9376 Y21.4083
G01 X5.9756 Y21.4890
G01 X6.0058 Y21.5730
G01 X6.0092 Y21.5842
G01 X6.0308 Y21.6711
G01 X6.0440 Y21.7592
G01 X6.0452 Y21.7708
G01 X6.0494 Y21.8600
G01 X6.0452 Y21.9492
G01 X6.0440 Y21.9608
G01 X6.0318 Y22.0433
G01 X6.0295 Y22.0548
G01 X6.0092 Y22.1358
G01 X6.0058 Y22.1470
G01 X5.9756 Y22.2310
G01 X5.9376 Y22.3117
G01 X5.9320 Y22.3221
G01 X5.8861 Y22.3985
G01 X5.8330 Y22.4704
G01 X5.8255 Y22.4794
G01 X5.7655 Y22.5455
G01 X5.6994 Y22.6055
G01 X5.6904 Y22.6130
G01 X5.6185 Y22.6661
G01 X5.5368 Y22.7150
G01 X5.4563 Y22.7532
G01 X5.4455 Y22.7577
G01 X5.3611 Y22.7878
G01 X5.2689 Y22.8108
G01 X5.1752 Y22.8247
G01 X5.0800 Y22.8294
G01 X4.9848 Y22.8247
G01 X4.8911 Y22.8108
G01 X4.7989 Y22.7878
G01 X4.7090 Y22.7556
G01 X4.6232 Y22.7150
G01 X4.5415 Y22.6661
G01 X4.4652 Y22.6095
G01 X4.3945 Y22.5455
G01 X4.3305 Y22.4748
G01 X4.2739 Y22.3985
G01 X4.2250 Y22.3168
G01 X4.1844 Y22.2310
G01 X4.1522 Y22.1411
G01 X4.1305 Y22.0548
G01 X4.1282 Y22.0433
G01 X4.1153 Y21.9552
G01 X4.1107 Y21.8659
G01 X4.1107 Y21.8541
G01 X4.1153 Y21.7648
G01 X4.1292 Y21.6711
G01 X4.1522 Y21.5789
G01 X4.1823 Y21.4945
G01 X4.1868 Y21.4837
G01 X4.2224 Y21.4083
G01 X4.2280 Y21.3979
G01 X4.2739 Y21.3215
G01 X4.3305 Y21.2452
G01 X4.3945 Y21.1745
G01 X4.4603 Y21.1147
G01 X4.4603 Y20.5394
G01 X3.9800 Y20.5394
G01 X3.9712 Y20.5391
G01 X3.9624 Y20.5381
G01 X3.9538 Y20.5365
G01 X3.9453 Y20.5342
G01 X3.9369 Y20.5314
G01 X3.9289 Y20.5279
G01 X3.9211 Y20.5238
G01 X3.9136 Y20.5192
G01 X3.9042 Y20.5123
G01 X3.8977 Y20.5065
G01 X3.8896 Y20.4980
G01 X3.8841 Y20.4912
G01 X3.8792 Y20.4839
G01 X3.8747 Y20.4764
G01 X3.8709 Y20.4685
G01 X3.8676 Y20.4603
G01 X3.8649 Y20.4519
G01 X3.8629 Y20.4433
G01 X3.8612 Y20.4317
G01 X3.8606 Y20.4200
G01 X3.8607 Y18.2141
G01 X3.8619 Y18.2024
G01 X3.8642 Y18.1909
G01 X3.8676 Y18.1797
G01 X3.8709 Y18.1715
G01 X3.8762 Y18.1611
G01 X3.8824 Y18.1512
G01 X3.8896 Y18.1420
G01 X3.8977 Y18.1335
G01 X3.9065 Y18.1259
G01 X3.9161 Y18.1192
G01 X3.9262 Y18.1134
G01 X3.9369 Y18.1086
G01 X3.9453 Y18.1058
G01 X3.9567 Y18.1029
G01 X3.9683 Y18.1012
G01 X3.9800 Y18.1006
G00 Z2.0000
G00 X3.5979 Y18.7943
G01 F60.00
G01 Z-0.1100
G01 F120.00
G01 X3.5873 Y18.7720
G01 X3.5781 Y18.7549
G01 X3.5329 Y18.6791
G01 X3.5231 Y18.6636
G01 X3.5121 Y18.6479
G01 X3.4599 Y18.5777
G01 X3.4485 Y18.5638
G01 X3.4223 Y18.5347
G01 X3.4223 Y18.1621
G01 X3.5019 Y18.1620
G01 X3.5300 Y18.1602
G01 X3.5487 Y18.1579
G01 X3.5672 Y18.1547
G01 X3.5856 Y18.1506
G01 X3.6054 Y18.1450
G01 X3.6021 Y18.1638
G01 X3.5998 Y18.1825
G01 X3.5984 Y18.2012
G01 X3.5979 Y18.2200
G01 X3.5979 Y18.7943
G00 Z2.0000
G00 X3.4900 Y20.0218
G01 F60.00
G01 Z-0.1100
G01 F120.00
G01 X3.5177 Y19.9843
G01 X3.5329 Y19.9609
G01 X3.5781 Y19.8851
G01 X3.5873 Y19.8680
G01 X3.5979 Y19.8457
G01 X3.5979 Y20.0622
G01 X3.5850 Y20.0553
G01 X3.5682 Y20.0473
G01 X3.5422 Y20.0369
G01 X3.5150 Y20.0282
G01 X3.4900 Y20.0218
G00 Z2.0000
G00 X6.2566 Y21.1730
G01 F60.00
G01 Z-0.1100
G01 F120.00
G01 X6.2207 Y21.1133
G01 X6.2067 Y21.0924
G01 X6.1991 Y21.0819
G01 X6.1421 Y21.0053
G01 X6.1269 Y20.9866
G01 X6.0937 Y20.9497
G01 X6.0937 Y20.9334
G01 X6.1800 Y20.9334
G01 X6.2053 Y20.9328
G01 X6.2304 Y20.9309
G01 X6.2430 Y20.9295
G01 X6.2634 Y20.9266
G01 X6.2605 Y20.9470
G01 X6.2591 Y20.9596
G01 X6.2572 Y20.9847
G01 X6.2567 Y20.9974
G01 X6.2566 Y21.1730
G00 Z2.0000
G00 X6.4828 Y20.7581
G01 F60.00
G01 Z-0.1100
G01 F120.00
G01 X6.4747 Y20.7675
G01 X6.4632 Y20.7823
G01 X6.4473 Y20.8054
G01 X6.4377 Y20.8214
G01 X6.4289 Y20.8379
G01 X6.4171 Y20.8635
G01 X6.4073 Y20.8899
G01 X6.4018 Y20.9079
G01 X6.3972 Y20.9261
G01 X6.3921 Y20.9538
G01 X6.3898 Y20.9725
G01 X6.3884 Y20.9912
G01 X6.3879 Y21.0100
G01 X6.3879 Y22.4312
G01 X6.3716 Y22.4226
G01 X6.3464 Y22.4111
G01 X6.3204 Y22.4016
G01 X6.2938 Y22.3939
G01 X6.2667 Y22.3882
G01 X6.2485 Y22.3854
G01 X6.2292 Y22.3835
G01 X6.1954 Y22.3811
G01 X6.2144 Y22.3405
G01 X6.2217 Y22.3229
G01 X6.2564 Y22.2260
G01 X6.2640 Y22.1996
G01 X6.2843 Y22.1187
G01 X6.2902 Y22.0909
G01 X6.3039 Y21.9994
G01 X6.3061 Y21.9813
G01 X6.3075 Y21.9621
G01 X6.3116 Y21.8787
G01 X6.3120 Y21.8506
G01 X6.3075 Y21.7579
G01 X6.3061 Y21.7387
G01 X6.3039 Y21.7206
G01 X6.2916 Y21.6381
G01 X6.2885 Y21.6202
G01 X6.2843 Y21.6013
G01 X6.2640 Y21.5204
G01 X6.2594 Y21.5035
G01 X6.2531 Y21.4845
G01 X6.2250 Y21.4060
G01 X6.2182 Y21.3883
G01 X6.2107 Y21.3714
G01 X6.1750 Y21.2960
G01 X6.1669 Y21.2798
G01 X6.1574 Y21.2629
G01 X6.1145 Y21.1913
G01 X6.0992 Y21.1679
G01 X6.0439 Y21.0932
G01 X6.0329 Y21.0790
G01 X6.0202 Y21.0642
G01 X5.9623 Y21.0004
G01 X5.9623 Y20.8021
G01 X6.1894 Y20.8020
G01 X6.2082 Y20.8010
G01 X6.2269 Y20.7992
G01 X6.2547 Y20.7947
G01 X6.2821 Y20.7882
G01 X6.3001 Y20.7827
G01 X6.3265 Y20.7729
G01 X6.3521 Y20.7611
G01 X6.3686 Y20.7523
G01 X6.3924 Y20.7376
G01 X6.4152 Y20.7211
G01 X6.4345 Y20.7050
G01 X6.4637 Y20.7385
G01 X6.4828 Y20.7581
G00 Z2.0000
G00 X11.6985 Y21.5693
G01 F60.00
G01 Z-0.1100
G01 F120.00
G01 X11.7955 Y21.4723
G01 X11.8177 Y21.4723
G01 X11.8177 Y21.6205
G01 X11.8041 Y21.6121
G01 X11.7880 Y21.6031
G01 X11.7631 Y21.5910
G01 X11.7460 Y21.5840
G01 X11.7286 Y21.5778
G01 X11.7110 Y21.5725
G01 X11.6985 Y21.5693
G00 Z2.0000
G00 X8.2394 Y28.2425
G01 F60.00
G01 Z-0.1100
G01 F120.00
G01 X8.3649 Y28.3118
G01 X8.5379 Y28.4485
G01 X8.6863 Y28.6116
G01 X8.8058 Y28.7964
G01 X8.8337 Y28.8603
G01 X8.5254 Y28.8603
G01 X8.5096 Y28.8346
G01 X8.4505 Y28.7549
G01 X8.4448 Y28.7481
G01 X8.3800 Y28.6766
G01 X8.3737 Y28.6705
G01 X8.3020 Y28.6056
G01 X8.2954 Y28.6003
G01 X8.2394 Y28.5588
G01 X8.2394 Y28.2425
G00 Z2.0000
G00 X8.3707 Y28.4838
G01 F60.00
G01 Z-0.1100
G01 F120.00
G01 X8.4479 Y28.5447
G01 X8.5818 Y28.6918
G01 X8.6058 Y28.7290
G01 X8.5949 Y28.7290
G01 X8.5505 Y28.6696
G01 X8.5421 Y28.6599
G01 X8.4793 Y28.5906
G01 X8.4708 Y28.5817
G01 X8.4619 Y28.5732
G01 X8.3926 Y28.5104
G01 X8.3829 Y28.5021
G01 X8.3707 Y28.4927
G01 X8.3707 Y28.4838
G00 Z2.0000
G00 X8.3707 Y30.4767
G01 F60.00
G01 Z-0.1100
G01 F120.00
G01 X8.3707 Y30.4673
G01 X8.3829 Y30.4579
G01 X8.3926 Y30.4496
G01 X8.4619 Y30.3868
G01 X8.4708 Y30.3783
G01 X8.4793 Y30.3694
G01 X8.5421 Y30.3001
G01 X8.5505 Y30.2904
G01 X8.5949 Y30.2310
G01 X8.6046 Y30.2310
G01 X8.5634 Y30.2914
G01 X8.4260 Y30.4353
G01 X8.3707 Y30.4767
G00 Z2.0000
G00 X8.2394 Y30.7171
G01 F60.00
G01 Z-0.1100
G01 F120.00
G01 X8.2394 Y30.4012
G01 X8.2954 Y30.3597
G01 X8.3020 Y30.3544
G01 X8.3737 Y30.2895
G01 X8.3800 Y30.2834
G01 X8.4448 Y30.2119
G01 X8.4505 Y30.2051
G01 X8.5096 Y30.1254
G01 X8.5254 Y30.0997
G01 X8.8330 Y30.0997
G01 X8.7899 Y30.1924
G01 X8.6660 Y30.3742
G01 X8.5136 Y30.5336
G01 X8.3373 Y30.6661
G01 X8.2394 Y30.7171
G00 Z2.0000
G00 X6.3971 Y30.6056
G01 F60.00
G01 Z-0.1100
G01 F120.00
G01 X6.3766 Y30.5924
G01 X6.3604 Y30.5832
G01 X6.3352 Y30.5709
G01 X6.3178 Y30.5636
G01 X6.3001 Y30.5573
G01 X6.2821 Y30.5518
G01 X6.2639 Y30.5472
G01 X6.2362 Y30.5421
G01 X6.2175 Y30.5398
G01 X6.1894 Y30.5380
G01 X5.9623 Y30.5379
G01 X5.9623 Y30.5274
G01 X6.0101 Y30.4841
G01 X6.0237 Y30.4712
G01 X6.0366 Y30.4576
G01 X6.1064 Y30.3804
G01 X6.1232 Y30.3594
G01 X6.1789 Y30.2843
G01 X6.1949 Y30.2609
G01 X6.2478 Y30.1729
G01 X6.2573 Y30.1560
G01 X6.2654 Y30.1399
G01 X6.3054 Y30.0554
G01 X6.3129 Y30.0385
G01 X6.3197 Y30.0207
G01 X6.3500 Y29.9362
G01 X6.3803 Y30.0207
G01 X6.3871 Y30.0385
G01 X6.3946 Y30.0554
G01 X6.4346 Y30.1399
G01 X6.4474 Y30.1645
G01 X6.5003 Y30.2531
G01 X6.5155 Y30.2765
G01 X6.5822 Y30.3665
G01 X6.5936 Y30.3804
G01 X6.6308 Y30.4217
G01 X6.6057 Y30.4319
G01 X6.5800 Y30.4446
G01 X6.5554 Y30.4592
G01 X6.5397 Y30.4699
G01 X6.5256 Y30.4805
G01 X6.5119 Y30.4917
G01 X6.4583 Y30.5382
G01 X6.4448 Y30.5505
G01 X6.4318 Y30.5635
G01 X6.4193 Y30.5773
G01 X6.4075 Y30.5917
G01 X6.3971 Y30.6056
G00 Z2.0000
G00 X6.3684 Y30.4424
G01 F60.00
G01 Z-0.1100
G01 F120.00
G01 X6.3414 Y30.4326
G01 X6.3294 Y30.4288
G01 X6.3050 Y30.4220
G01 X6.2804 Y30.4165
G01 X6.2680 Y30.4142
G01 X6.2483 Y30.4112
G01 X6.2844 Y30.3625
G01 X6.2992 Y30.3415
G01 X6.3123 Y30.3206
G01 X6.3500 Y30.2578
G01 X6.3941 Y30.3311
G01 X6.4081 Y30.3521
G01 X6.4333 Y30.3863
G01 X6.3684 Y30.4424
G00 Z2.0000
G00 X6.3500 Y29.0238
G01 F60.00
G01 Z-0.1100
G01 F120.00
G01 X6.3352 Y28.9826
G01 X6.3496 Y28.9821
G01 X6.3653 Y28.9810
G01 X6.3500 Y29.0238
G00 Z2.0000
G00 X3.8671 Y30.5550
G01 F60.00
G01 Z-0.1100
G01 F120.00
G01 X3.8717 Y30.5269
G01 X3.8735 Y30.5082
G01 X3.8745 Y30.4894
G01 X3.8746 Y30.0976
G01 X3.8982 Y30.1474
G01 X3.9074 Y30.1645
G01 X3.9651 Y30.2609
G01 X3.9811 Y30.2843
G01 X4.0368 Y30.3594
G01 X4.0536 Y30.3804
G01 X4.1234 Y30.4576
G01 X4.1363 Y30.4712
G01 X4.1499 Y30.4841
G01 X4.1977 Y30.5274
G01 X4.1977 Y30.5379
G01 X3.9800 Y30.5379
G01 X3.9612 Y30.5384
G01 X3.9425 Y30.5398
G01 X3.9145 Y30.5436
G01 X3.8869 Y30.5494
G01 X3.8671 Y30.5550
G00 Z2.0000
G00 X3.5979 Y31.4943
G01 F60.00
G01 Z-0.1100
G01 F120.00
G01 X3.5873 Y31.4720
G01 X3.5781 Y31.4549
G01 X3.5329 Y31.3791
G01 X3.5231 Y31.3636
G01 X3.5121 Y31.3479
G01 X3.4599 Y31.2777
G01 X3.4485 Y31.2638
G01 X3.4223 Y31.2347
G01 X3.4223 Y30.8621
G01 X3.5019 Y30.8620
G01 X3.5300 Y30.8602
G01 X3.5487 Y30.8579
G01 X3.5672 Y30.8547
G01 X3.5856 Y30.8506
G01 X3.6054 Y30.8450
G01 X3.6021 Y30.8638
G01 X3.5998 Y30.8825
G01 X3.5984 Y30.9012
G01 X3.5979 Y30.9200
G01 X3.5979 Y31.4943
G00 Z2.0000
G00 X3.4900 Y32.7218
G01 F60.00
G01 Z-0.1100
G01 F120.00
G01 X3.5177 Y32.6843
G01 X3.5329 Y32.6609
G01 X3.5781 Y32.5851
G01 X3.5873 Y32.5680
G01 X3.5979 Y32.5457
G01 X3.5979 Y32.7622
G01 X3.5850 Y32.7553
G01 X3.5682 Y32.7473
G01 X3.5422 Y32.7369
G01 X3.5150 Y32.7282
G01 X3.4900 Y32.7218
G00 Z2.0000
G00 X3.7293 Y33.1200
G01 F60.00
G01 Z-0.1100
G01 F120.00
G01 X3.7293 Y30.9200
G01 X3.7299 Y30.9015
G01 X3.7312 Y30.8892
G01 X3.7330 Y30.8770
G01 X3.7368 Y30.8589
G01 X3.7420 Y30.8412
G01 X3.7461 Y30.8296
G01 X3.7509 Y30.8182
G01 X3.7590 Y30.8016
G01 X3.7650 Y30.7910
G01 X3.7751 Y30.7755
G01 X3.7862 Y30.7609
G01 X3.7942 Y30.7516
G01 X3.8071 Y30.7384
G01 X3.8162 Y30.7302
G01 X3.8306 Y30.7187
G01 X3.8457 Y30.7082
G01 X3.8563 Y30.7019
G01 X3.8726 Y30.6934
G01 X3.8896 Y30.6861
G01 X3.9012 Y30.6820
G01 X3.9189 Y30.6768
G01 X3.9370 Y30.6730
G01 X3.9554 Y30.6705
G01 X3.9738 Y30.6693
G01 X4.3290 Y30.6693
G01 X4.3290 Y30.4671
G01 X4.3171 Y30.4579
G01 X4.3074 Y30.4496
G01 X4.2381 Y30.3868
G01 X4.2292 Y30.3783
G01 X4.2207 Y30.3694
G01 X4.1579 Y30.3001
G01 X4.1495 Y30.2904
G01 X4.0866 Y30.2060
G01 X4.0794 Y30.1958
G01 X4.0730 Y30.1856
G01 X4.0249 Y30.1054
G01 X4.0186 Y30.0943
G01 X3.9733 Y29.9992
G01 X3.9684 Y29.9881
G01 X3.9639 Y29.9765
G01 X3.9324 Y29.8885
G01 X3.9283 Y29.8760
G01 X3.9010 Y29.7677
G01 X3.8978 Y29.7501
G01 X3.8841 Y29.6577
G01 X3.8826 Y29.6458
G01 X3.8816 Y29.6332
G01 X3.8771 Y29.5398
G01 X3.8768 Y29.5275
G01 X3.8768 Y29.4263
G01 X3.8820 Y29.3205
G01 X3.8841 Y29.3023
G01 X3.8978 Y29.2099
G01 X3.8998 Y29.1981
G01 X3.9026 Y29.1858
G01 X3.9283 Y29.0840
G01 X3.9324 Y29.0715
G01 X3.9661 Y28.9777
G01 X3.9733 Y28.9608
G01 X4.0186 Y28.8657
G01 X4.0249 Y28.8546
G01 X4.0730 Y28.7744
G01 X4.0794 Y28.7642
G01 X4.0866 Y28.7540
G01 X4.1495 Y28.6696
G01 X4.1579 Y28.6599
G01 X4.2207 Y28.5906
G01 X4.2292 Y28.5817
G01 X4.2381 Y28.5732
G01 X4.3074 Y28.5104
G01 X4.3171 Y28.5021
G01 X4.4015 Y28.4391
G01 X4.4117 Y28.4319
G01 X4.4219 Y28.4255
G01 X4.5021 Y28.3774
G01 X4.5132 Y28.3711
G01 X4.6083 Y28.3258
G01 X4.6194 Y28.3209
G01 X4.6310 Y28.3164
G01 X4.7190 Y28.2849
G01 X4.7315 Y28.2808
G01 X4.8333 Y28.2551
G01 X4.8456 Y28.2523
G01 X4.8574 Y28.2503
G01 X4.9498 Y28.2366
G01 X4.9617 Y28.2351
G01 X4.9743 Y28.2341
G01 X5.0677 Y28.2296
G01 X5.0800 Y28.2293
G01 X5.0923 Y28.2296
G01 X5.1857 Y28.2341
G01 X5.1983 Y28.2351
G01 X5.2102 Y28.2366
G01 X5.3026 Y28.2503
G01 X5.3144 Y28.2523
G01 X5.3267 Y28.2551
G01 X5.4285 Y28.2808
G01 X5.4410 Y28.2849
G01 X5.5348 Y28.3186
G01 X5.5517 Y28.3258
G01 X5.6362 Y28.3658
G01 X5.6468 Y28.3711
G01 X5.6579 Y28.3774
G01 X5.7381 Y28.4255
G01 X5.7483 Y28.4319
G01 X5.7585 Y28.4391
G01 X5.8336 Y28.4948
G01 X5.8429 Y28.5021
G01 X5.8526 Y28.5104
G01 X5.9219 Y28.5732
G01 X5.9308 Y28.5817
G01 X5.9393 Y28.5906
G01 X6.0021 Y28.6599
G01 X6.0105 Y28.6696
G01 X6.0177 Y28.6789
G01 X6.0734 Y28.7540
G01 X6.0806 Y28.7642
G01 X6.0870 Y28.7744
G01 X6.1351 Y28.8546
G01 X6.1414 Y28.8657
G01 X6.1467 Y28.8763
G01 X6.1867 Y28.9608
G01 X6.1916 Y28.9719
G01 X6.1961 Y28.9835
G01 X6.2276 Y29.0715
G01 X6.2317 Y29.0840
G01 X6.2347 Y29.0951
G01 X6.2574 Y29.1858
G01 X6.2602 Y29.1981
G01 X6.2622 Y29.2099
G01 X6.2767 Y29.3083
G01 X6.2784 Y29.3268
G01 X6.2829 Y29.4202
G01 X6.2832 Y29.4325
G01 X6.2832 Y29.5337
G01 X6.2780 Y29.6395
G01 X6.2759 Y29.6577
G01 X6.2622 Y29.7501
G01 X6.2602 Y29.7619
G01 X6.2574 Y29.7742
G01 X6.2347 Y29.8649
G01 X6.2297 Y29.8823
G01 X6.1961 Y29.9765
G01 X6.1916 Y29.9881
G01 X6.1867 Y29.9992
G01 X6.1467 Y30.0837
G01 X6.1414 Y30.0943
G01 X6.1351 Y30.1054
G01 X6.0870 Y30.1856
G01 X6.0806 Y30.1958
G01 X6.0734 Y30.2060
G01 X6.0105 Y30.2904
G01 X6.0021 Y30.3001
G01 X5.9393 Y30.3694
G01 X5.9308 Y30.3783
G01 X5.9219 Y30.3868
G01 X5.8526 Y30.4496
G01 X5.8429 Y30.4579
G01 X5.8310 Y30.4671
G01 X5.8310 Y30.6693
G01 X6.1800 Y30.6693
G01 X6.1923 Y30.6696
G01 X6.2108 Y30.6712
G01 X6.2230 Y30.6730
G01 X6.2351 Y30.6754
G01 X6.2530 Y30.6801
G01 X6.2704 Y30.6861
G01 X6.2874 Y30.6934
G01 X6.3037 Y30.7019
G01 X6.3194 Y30.7116
G01 X6.3343 Y30.7224
G01 X6.3484 Y30.7342
G01 X6.3616 Y30.7471
G01 X6.3738 Y30.7609
G01 X6.3849 Y30.7755
G01 X6.3950 Y30.7910
G01 X6.4039 Y30.8071
G01 X6.4116 Y30.8238
G01 X6.4180 Y30.8412
G01 X6.4232 Y30.8589
G01 X6.4259 Y30.8710
G01 X6.4288 Y30.8892
G01 X6.4304 Y30.9077
G01 X6.4307 Y30.9200
G01 X6.4307 Y33.1200
G01 X6.4301 Y33.1385
G01 X6.4288 Y33.1508
G01 X6.4270 Y33.1630
G01 X6.4232 Y33.1811
G01 X6.4180 Y33.1988
G01 X6.4116 Y33.2162
G01 X6.4066 Y33.2274
G01 X6.3981 Y33.2437
G01 X6.3884 Y33.2594
G01 X6.3776 Y33.2743
G01 X6.3658 Y33.2884
G01 X6.3529 Y33.3016
G01 X6.3391 Y33.3138
G01 X6.3245 Y33.3249
G01 X6.3090 Y33.3350
G01 X6.2929 Y33.3439
G01 X6.2762 Y33.3516
G01 X6.2647 Y33.3560
G01 X6.2470 Y33.3616
G01 X6.2351 Y33.3646
G01 X6.2230 Y33.3670
G01 X6.2046 Y33.3695
G01 X6.1862 Y33.3707
G01 X5.8310 Y33.3707
G01 X5.8310 Y33.7565
G01 X5.8539 Y33.7774
G01 X5.8626 Y33.7861
G01 X5.9274 Y33.8576
G01 X5.9385 Y33.8714
G01 X5.9918 Y33.9435
G01 X6.0018 Y33.9589
G01 X6.0447 Y34.0304
G01 X6.0510 Y34.0415
G01 X6.0563 Y34.0521
G01 X6.0944 Y34.1329
G01 X6.1014 Y34.1502
G01 X6.1295 Y34.2288
G01 X6.1336 Y34.2412
G01 X6.1569 Y34.3332
G01 X6.1597 Y34.3456
G01 X6.1617 Y34.3574
G01 X6.1754 Y34.4517
G01 X6.1763 Y34.4644
G01 X6.1804 Y34.5477
G01 X6.1807 Y34.5600
G01 X6.1804 Y34.5723
G01 X6.1763 Y34.6556
G01 X6.1754 Y34.6683
G01 X6.1617 Y34.7626
G01 X6.1597 Y34.7744
G01 X6.1569 Y34.7868
G01 X6.1336 Y34.8788
G01 X6.1295 Y34.8912
G01 X6.1014 Y34.9698
G01 X6.0969 Y34.9814
G01 X6.0920 Y34.9925
G01 X6.0510 Y35.0785
G01 X6.0447 Y35.0896
G01 X6.0018 Y35.1611
G01 X5.9954 Y35.1713
G01 X5.9881 Y35.1816
G01 X5.9312 Y35.2579
G01 X5.9228 Y35.2676
G01 X5.8668 Y35.3294
G01 X5.8539 Y35.3426
G01 X5.7876 Y35.4028
G01 X5.7779 Y35.4112
G01 X5.7016 Y35.4681
G01 X5.6913 Y35.4754
G01 X5.6811 Y35.4818
G01 X5.6096 Y35.5247
G01 X5.5985 Y35.5310
G01 X5.5125 Y35.5720
G01 X5.5014 Y35.5769
G01 X5.4898 Y35.5814
G01 X5.4112 Y35.6095
G01 X5.3988 Y35.6136
G01 X5.3068 Y35.6369
G01 X5.2944 Y35.6397
G01 X5.2826 Y35.6417
G01 X5.1883 Y35.6554
G01 X5.1756 Y35.6563
G01 X5.0923 Y35.6604
G01 X5.0800 Y35.6607
G01 X5.0677 Y35.6604
G01 X4.9844 Y35.6563
G01 X4.9717 Y35.6554
G01 X4.8774 Y35.6417
G01 X4.8656 Y35.6397
G01 X4.8532 Y35.6369
G01 X4.7612 Y35.6136
G01 X4.7488 Y35.6095
G01 X4.6702 Y35.5814
G01 X4.6586 Y35.5769
G01 X4.6475 Y35.5720
G01 X4.5615 Y35.5310
G01 X4.5504 Y35.5247
G01 X4.4789 Y35.4818
G01 X4.4687 Y35.4754
G01 X4.4584 Y35.4681
G01 X4.3821 Y35.4112
G01 X4.3724 Y35.4028
G01 X4.3106 Y35.3468
G01 X4.2974 Y35.3339
G01 X4.2372 Y35.2676
G01 X4.2288 Y35.2579
G01 X4.1719 Y35.1816
G01 X4.1646 Y35.1713
G01 X4.1582 Y35.1611
G01 X4.1153 Y35.0896
G01 X4.1090 Y35.0785
G01 X4.0680 Y34.9925
G01 X4.0631 Y34.9814
G01 X4.0586 Y34.9698
G01 X4.0305 Y34.8912
G01 X4.0264 Y34.8788
G01 X4.0031 Y34.7868
G01 X4.0003 Y34.7744
G01 X3.9983 Y34.7626
G01 X3.9846 Y34.6683
G01 X3.9837 Y34.6556
G01 X3.9796 Y34.5723
G01 X3.9793 Y34.5538
G01 X3.9837 Y34.4644
G01 X3.9846 Y34.4517
G01 X3.9983 Y34.3574
G01 X4.0003 Y34.3456
G01 X4.0031 Y34.3332
G01 X4.0264 Y34.2412
G01 X4.0305 Y34.2288
G01 X4.0586 Y34.1502
G01 X4.0656 Y34.1329
G01 X4.1037 Y34.0521
G01 X4.1090 Y34.0415
G01 X4.1153 Y34.0304
G01 X4.1582 Y33.9589
G01 X4.1682 Y33.9435
G01 X4.2215 Y33.8714
G01 X4.2326 Y33.8576
G01 X4.2974 Y33.7861
G01 X4.3061 Y33.7774
G01 X4.3290 Y33.7565
G01 X4.3290 Y33.3707
G01 X3.9800 Y33.3707
G01 X3.9677 Y33.3704
G01 X3.9492 Y33.3688
G01 X3.9370 Y33.3670
G01 X3.9249 Y33.3646
G01 X3.9130 Y33.3616
G01 X3.9012 Y33.3580
G01 X3.8838 Y33.3516
G01 X3.8671 Y33.3439
G01 X3.8509 Y33.3350
G01 X3.8355 Y33.3249
G01 X3.8209 Y33.3138
G01 X3.8071 Y33.3016
G01 X3.7942 Y33.2884
G01 X3.7824 Y33.2743
G01 X3.7716 Y33.2594
G01 X3.7619 Y33.2438
G01 X3.7534 Y33.2274
G01 X3.7461 Y33.2104
G01 X3.7401 Y33.1930
G01 X3.7354 Y33.1751
G01 X3.7320 Y33.1569
G01 X3.7299 Y33.1385
G01 X3.7293 Y33.1200
G00 Z2.0000
G00 X3.8606 Y33.1200
G01 F60.00
G01 Z-0.1100
G01 F120.00
G01 X3.8606 Y30.9200
G01 X3.8615 Y30.9054
G01 X3.8642 Y30.8909
G01 X3.8667 Y30.8825
G01 X3.8697 Y30.8742
G01 X3.8734 Y30.8662
G01 X3.8776 Y30.8585
G01 X3.8824 Y30.8512
G01 X3.8877 Y30.8442
G01 X3.8935 Y30.8377
G01 X3.8998 Y30.8315
G01 X3.9065 Y30.8259
G01 X3.9136 Y30.8208
G01 X3.9211 Y30.8162
G01 X3.9289 Y30.8121
G01 X3.9369 Y30.8086
G01 X3.9453 Y30.8058
G01 X3.9538 Y30.8035
G01 X3.9624 Y30.8019
G01 X3.9712 Y30.8009
G01 X3.9800 Y30.8006
G01 X4.4603 Y30.8006
G01 X4.4603 Y30.4010
G01 X4.4002 Y30.3562
G01 X4.3221 Y30.2854
G01 X4.2513 Y30.2073
G01 X4.1887 Y30.1229
G01 X4.1346 Y30.0326
G01 X4.0897 Y29.9378
G01 X4.0541 Y29.8383
G01 X4.0300 Y29.7423
G01 X4.0277 Y29.7308
G01 X4.0140 Y29.6384
G01 X4.0130 Y29.6297
G01 X4.0081 Y29.5304
G01 X4.0082 Y29.4266
G01 X4.0133 Y29.3273
G01 X4.0277 Y29.2292
G01 X4.0300 Y29.2177
G01 X4.0527 Y29.1270
G01 X4.0551 Y29.1187
G01 X4.0897 Y29.0222
G01 X4.1346 Y28.9274
G01 X4.1887 Y28.8371
G01 X4.2513 Y28.7527
G01 X4.3221 Y28.6746
G01 X4.4002 Y28.6038
G01 X4.4846 Y28.5412
G01 X4.5749 Y28.4871
G01 X4.6697 Y28.4422
G01 X4.7692 Y28.4066
G01 X4.8711 Y28.3812
G01 X4.9748 Y28.3658
G01 X5.0800 Y28.3606
G01 X5.1852 Y28.3658
G01 X5.2889 Y28.3812
G01 X5.3855 Y28.4052
G01 X5.3938 Y28.4076
G01 X5.4903 Y28.4422
G01 X5.5801 Y28.4845
G01 X5.5904 Y28.4901
G01 X5.6754 Y28.5412
G01 X5.7598 Y28.6038
G01 X5.8337 Y28.6705
G01 X5.8420 Y28.6788
G01 X5.9087 Y28.7527
G01 X5.9713 Y28.8371
G01 X6.0224 Y28.9221
G01 X6.0280 Y28.9324
G01 X6.0703 Y29.0222
G01 X6.1039 Y29.1158
G01 X6.1073 Y29.1270
G01 X6.1313 Y29.2236
G01 X6.1464 Y29.3244
G01 X6.1472 Y29.3333
G01 X6.1519 Y29.4325
G01 X6.1519 Y29.5304
G01 X6.1472 Y29.6267
G01 X6.1464 Y29.6356
G01 X6.1313 Y29.7364
G01 X6.1073 Y29.8330
G01 X6.1039 Y29.8442
G01 X6.0703 Y29.9378
G01 X6.0280 Y30.0276
G01 X6.0224 Y30.0379
G01 X5.9713 Y30.1229
G01 X5.9087 Y30.2073
G01 X5.8420 Y30.2812
G01 X5.8337 Y30.2895
G01 X5.7598 Y30.3562
G01 X5.6997 Y30.4010
G01 X5.6997 Y30.8006
G01 X6.1800 Y30.8006
G01 X6.1917 Y30.8012
G01 X6.2033 Y30.8029
G01 X6.2119 Y30.8049
G01 X6.2203 Y30.8076
G01 X6.2285 Y30.8109
G01 X6.2389 Y30.8162
G01 X6.2488 Y30.8224
G01 X6.2558 Y30.8277
G01 X6.2644 Y30.8356
G01 X6.2704 Y30.8420
G01 X6.2776 Y30.8512
G01 X6.2824 Y30.8585
G01 X6.2879 Y30.8689
G01 X6.2914 Y30.8769
G01 X6.2942 Y30.8853
G01 X6.2965 Y30.8938
G01 X6.2985 Y30.9053
G01 X6.2993 Y30.9141
G01 X6.2994 Y33.1200
G01 X6.2991 Y33.1288
G01 X6.2981 Y33.1376
G01 X6.2965 Y33.1462
G01 X6.2942 Y33.1547
G01 X6.2914 Y33.1631
G01 X6.2879 Y33.1711
G01 X6.2838 Y33.1789
G01 X6.2776 Y33.1888
G01 X6.2723 Y33.1958
G01 X6.2665 Y33.2023
G01 X6.2602 Y33.2085
G01 X6.2512 Y33.2159
G01 X6.2439 Y33.2208
G01 X6.2364 Y33.2253
G01 X6.2258 Y33.2303
G01 X6.2175 Y33.2333
G01 X6.2091 Y33.2358
G01 X6.2005 Y33.2376
G01 X6.1888 Y33.2391
G01 X6.1800 Y33.2394
G01 X5.6997 Y33.2394
G01 X5.6997 Y33.8147
G01 X5.7655 Y33.8745
G01 X5.8255 Y33.9406
G01 X5.8330 Y33.9496
G01 X5.8827 Y34.0166
G01 X5.8892 Y34.0264
G01 X5.9350 Y34.1032
G01 X5.9732 Y34.1837
G01 X5.9777 Y34.1945
G01 X6.0078 Y34.2789
G01 X6.0308 Y34.3711
G01 X6.0447 Y34.4648
G01 X6.0494 Y34.5600
G01 X6.0447 Y34.6552
G01 X6.0308 Y34.7489
G01 X6.0078 Y34.8411
G01 X5.9777 Y34.9255
G01 X5.9732 Y34.9363
G01 X5.9350 Y35.0168
G01 X5.8892 Y35.0936
G01 X5.8827 Y35.1034
G01 X5.8330 Y35.1704
G01 X5.8255 Y35.1794
G01 X5.7655 Y35.2455
G01 X5.6969 Y35.3077
G01 X5.6904 Y35.3130
G01 X5.6185 Y35.3661
G01 X5.5368 Y35.4150
G01 X5.4510 Y35.4556
G01 X5.3611 Y35.4878
G01 X5.2689 Y35.5108
G01 X5.1752 Y35.5247
G01 X5.0800 Y35.5294
G01 X4.9848 Y35.5247
G01 X4.8911 Y35.5108
G01 X4.7989 Y35.4878
G01 X4.7090 Y35.4556
G01 X4.6232 Y35.4150
G01 X4.5415 Y35.3661
G01 X4.4652 Y35.3095
G01 X4.3945 Y35.2455
G01 X4.3323 Y35.1769
G01 X4.3270 Y35.1704
G01 X4.2739 Y35.0985
G01 X4.2250 Y35.0168
G01 X4.1844 Y34.9310
G01 X4.1522 Y34.8411
G01 X4.1292 Y34.7489
G01 X4.1153 Y34.6552
G01 X4.1106 Y34.5600
G01 X4.1150 Y34.4678
G01 X4.1160 Y34.4592
G01 X4.1292 Y34.3711
G01 X4.1522 Y34.2789
G01 X4.1844 Y34.1890
G01 X4.2250 Y34.1032
G01 X4.2739 Y34.0215
G01 X4.3305 Y33.9452
G01 X4.3945 Y33.8745
G01 X4.4603 Y33.8147
G01 X4.4603 Y33.2394
G01 X3.9800 Y33.2394
G01 X3.9683 Y33.2388
G01 X3.9567 Y33.2371
G01 X3.9481 Y33.2351
G01 X3.9369 Y33.2314
G01 X3.9288 Y33.2279
G01 X3.9185 Y33.2224
G01 X3.9112 Y33.2176
G01 X3.9020 Y33.2104
G01 X3.8956 Y33.2044
G01 X3.8877 Y33.1958
G01 X3.8824 Y33.1888
G01 X3.8762 Y33.1789
G01 X3.8709 Y33.1685
G01 X3.8676 Y33.1603
G01 X3.8649 Y33.1519
G01 X3.8624 Y33.1405
G01 X3.8609 Y33.1288
G01 X3.8606 Y33.1200
G00 Z2.0000
G00 X6.2566 Y33.8730
G01 F60.00
G01 Z-0.1100
G01 F120.00
G01 X6.2207 Y33.8133
G01 X6.2067 Y33.7924
G01 X6.1991 Y33.7819
G01 X6.1421 Y33.7053
G01 X6.1269 Y33.6866
G01 X6.0937 Y33.6497
G01 X6.0937 Y33.6334
G01 X6.1800 Y33.6334
G01 X6.2053 Y33.6328
G01 X6.2304 Y33.6309
G01 X6.2430 Y33.6295
G01 X6.2634 Y33.6266
G01 X6.2605 Y33.6470
G01 X6.2591 Y33.6596
G01 X6.2580 Y33.6721
G01 X6.2567 Y33.6974
G01 X6.2566 Y33.8730
G00 Z2.0000
G00 X6.4828 Y33.4581
G01 F60.00
G01 Z-0.1100
G01 F120.00
G01 X6.4747 Y33.4675
G01 X6.4632 Y33.4823
G01 X6.4473 Y33.5054
G01 X6.4377 Y33.5214
G01 X6.4289 Y33.5379
G01 X6.4171 Y33.5635
G01 X6.4073 Y33.5899
G01 X6.4018 Y33.6079
G01 X6.3972 Y33.6261
G01 X6.3921 Y33.6538
G01 X6.3898 Y33.6725
G01 X6.3884 Y33.6912
G01 X6.3879 Y33.7100
G01 X6.3879 Y35.1312
G01 X6.3716 Y35.1226
G01 X6.3464 Y35.1111
G01 X6.3204 Y35.1016
G01 X6.2938 Y35.0939
G01 X6.2667 Y35.0882
G01 X6.2485 Y35.0854
G01 X6.2292 Y35.0835
G01 X6.1954 Y35.0811
G01 X6.2144 Y35.0405
G01 X6.2217 Y35.0229
G01 X6.2564 Y34.9260
G01 X6.2640 Y34.8996
G01 X6.2843 Y34.8187
G01 X6.2902 Y34.7909
G01 X6.3039 Y34.6994
G01 X6.3061 Y34.6813
G01 X6.3075 Y34.6621
G01 X6.3116 Y34.5787
G01 X6.3120 Y34.5506
G01 X6.3075 Y34.4579
G01 X6.3061 Y34.4387
G01 X6.3039 Y34.4206
G01 X6.2916 Y34.3381
G01 X6.2885 Y34.3202
G01 X6.2843 Y34.3013
G01 X6.2640 Y34.2204
G01 X6.2594 Y34.2035
G01 X6.2531 Y34.1845
G01 X6.2250 Y34.1060
G01 X6.2182 Y34.0883
G01 X6.2107 Y34.0714
G01 X6.1750 Y33.9960
G01 X6.1669 Y33.9798
G01 X6.1574 Y33.9629
G01 X6.1145 Y33.8913
G01 X6.0992 Y33.8679
G01 X6.0439 Y33.7932
G01 X6.0329 Y33.7790
G01 X6.0202 Y33.7642
G01 X5.9623 Y33.7004
G01 X5.9623 Y33.5021
G01 X6.1894 Y33.5020
G01 X6.2082 Y33.5010
G01 X6.2269 Y33.4992
G01 X6.2547 Y33.4947
G01 X6.2730 Y33.4906
G01 X6.3001 Y33.4827
G01 X6.3265 Y33.4729
G01 X6.3521 Y33.4611
G01 X6.3686 Y33.4523
G01 X6.3924 Y33.4376
G01 X6.4152 Y33.4211
G01 X6.4345 Y33.4050
G01 X6.4637 Y33.4385
G01 X6.4828 Y33.4581
G00 Z2.0000
G00 X6.5193 Y35.4100
G01 F60.00
G01 Z-0.1100
G01 F120.00
G01 X6.5193 Y33.7100
G01 X6.5196 Y33.6977
G01 X6.5205 Y33.6854
G01 X6.5220 Y33.6731
G01 X6.5241 Y33.6610
G01 X6.5268 Y33.6489
G01 X6.5301 Y33.6371
G01 X6.5340 Y33.6253
G01 X6.5384 Y33.6138
G01 X6.5461 Y33.5971
G01 X6.5519 Y33.5863
G01 X6.5582 Y33.5757
G01 X6.5651 Y33.5655
G01 X6.5724 Y33.5557
G01 X6.5802 Y33.5462
G01 X6.5927 Y33.5327
G01 X6.6016 Y33.5242
G01 X6.6109 Y33.5162
G01 X6.6206 Y33.5087
G01 X6.6306 Y33.5016
G01 X6.6463 Y33.4919
G01 X6.6571 Y33.4861
G01 X6.6682 Y33.4809
G01 X6.6853 Y33.4740
G01 X6.7030 Y33.4684
G01 X6.7210 Y33.4641
G01 X6.7331 Y33.4620
G01 X6.7454 Y33.4605
G01 X6.7638 Y33.4593
G01 X8.4700 Y33.4593
G01 X8.4823 Y33.4596
G01 X8.4946 Y33.4605
G01 X8.5069 Y33.4620
G01 X8.5251 Y33.4654
G01 X8.5370 Y33.4684
G01 X8.5488 Y33.4720
G01 X8.5604 Y33.4761
G01 X8.5718 Y33.4809
G01 X8.5884 Y33.4890
G01 X8.5990 Y33.4950
G01 X8.6145 Y33.5051
G01 X8.6243 Y33.5124
G01 X8.6384 Y33.5242
G01 X8.6473 Y33.5327
G01 X8.6558 Y33.5416
G01 X8.6676 Y33.5557
G01 X8.6749 Y33.5655
G01 X8.6818 Y33.5757
G01 X8.6881 Y33.5862
G01 X8.6939 Y33.5971
G01 X8.6991 Y33.6082
G01 X8.7039 Y33.6196
G01 X8.7080 Y33.6312
G01 X8.7116 Y33.6430
G01 X8.7146 Y33.6549
G01 X8.7170 Y33.6670
G01 X8.7195 Y33.6854
G01 X8.7207 Y33.7038
G01 X8.7207 Y33.8090
G01 X9.8489 Y33.8090
G01 X11.3751 Y32.2829
G01 X11.3573 Y32.1646
G01 X11.3558 Y32.1528
G01 X11.3549 Y32.1401
G01 X11.3496 Y32.0323
G01 X11.3493 Y32.0200
G01 X11.3496 Y32.0077
G01 X11.3549 Y31.8999
G01 X11.3558 Y31.8872
G01 X11.3573 Y31.8754
G01 X11.3731 Y31.7686
G01 X11.3751 Y31.7568
G01 X11.3779 Y31.7445
G01 X11.4041 Y31.6398
G01 X11.4072 Y31.6286
G01 X11.4113 Y31.6162
G01 X11.4476 Y31.5146
G01 X11.4521 Y31.5029
G01 X11.4571 Y31.4918
G01 X11.5032 Y31.3943
G01 X11.5085 Y31.3837
G01 X11.5148 Y31.3726
G01 X11.5703 Y31.2800
G01 X11.5768 Y31.2698
G01 X11.5840 Y31.2595
G01 X11.6555 Y31.1635
G01 X11.6639 Y31.1538
G01 X11.7364 Y31.0738
G01 X11.7449 Y31.0649
G01 X11.7538 Y31.0564
G01 X11.8338 Y30.9839
G01 X11.8435 Y30.9755
G01 X11.9395 Y30.9040
G01 X11.9490 Y30.8973
G01 X11.9490 Y21.3410
G01 X11.7411 Y21.3410
G01 X10.6910 Y22.3910
G01 X10.6457 Y22.4325
G01 X10.6360 Y22.4409
G01 X10.6267 Y22.4481
G01 X10.5873 Y22.4773
G01 X10.5770 Y22.4846
G01 X10.5247 Y22.5162
G01 X10.5136 Y22.5225
G01 X10.4586 Y22.5488
G01 X10.4475 Y22.5538
G01 X10.3897 Y22.5748
G01 X10.3773 Y22.5789
G01 X10.3661 Y22.5819
G01 X10.3185 Y22.5939
G01 X10.3061 Y22.5966
G01 X10.2458 Y22.6059
G01 X10.2277 Y22.6079
G01 X10.1662 Y22.6109
G01 X8.7207 Y22.6110
G01 X8.7207 Y22.7162
G01 X8.7201 Y22.7285
G01 X8.7188 Y22.7408
G01 X8.7159 Y22.7590
G01 X8.7132 Y22.7711
G01 X8.7099 Y22.7830
G01 X8.7060 Y22.7947
G01 X8.7016 Y22.8062
G01 X8.6966 Y22.8174
G01 X8.6910 Y22.8284
G01 X8.6850 Y22.8390
G01 X8.6749 Y22.8545
G01 X8.6676 Y22.8643
G01 X8.6558 Y22.8784
G01 X8.6473 Y22.8873
G01 X8.6384 Y22.8958
G01 X8.6243 Y22.9076
G01 X8.6145 Y22.9149
G01 X8.6043 Y22.9218
G01 X8.5884 Y22.9310
G01 X8.5718 Y22.9391
G01 X8.5604 Y22.9439
G01 X8.5429 Y22.9499
G01 X8.5311 Y22.9532
G01 X8.5190 Y22.9559
G01 X8.5069 Y22.9580
G01 X8.4885 Y22.9601
G01 X8.4762 Y22.9607
G01 X6.7700 Y22.9607
G01 X6.7577 Y22.9604
G01 X6.7392 Y22.9588
G01 X6.7270 Y22.9570
G01 X6.7149 Y22.9546
G01 X6.6970 Y22.9499
G01 X6.6853 Y22.9460
G01 X6.6738 Y22.9416
G01 X6.6626 Y22.9366
G01 X6.6516 Y22.9310
G01 X6.6410 Y22.9250
G01 X6.6306 Y22.9184
G01 X6.6206 Y22.9113
G01 X6.6109 Y22.9038
G01 X6.5971 Y22.8916
G01 X6.5884 Y22.8829
G01 X6.5802 Y22.8738
G01 X6.5724 Y22.8643
G01 X6.5651 Y22.8545
G01 X6.5582 Y22.8443
G01 X6.5519 Y22.8337
G01 X6.5461 Y22.8229
G01 X6.5409 Y22.8118
G01 X6.5340 Y22.7947
G01 X6.5301 Y22.7830
G01 X6.5268 Y22.7711
G01 X6.5230 Y22.7530
G01 X6.5212 Y22.7408
G01 X6.5199 Y22.7285
G01 X6.5193 Y22.7100
G01 X6.5193 Y21.0100
G01 X6.5196 Y20.9977
G01 X6.5205 Y20.9854
G01 X6.5220 Y20.9731
G01 X6.5241 Y20.9610
G01 X6.5268 Y20.9489
G01 X6.5301 Y20.9370
G01 X6.5340 Y20.9253
G01 X6.5384 Y20.9138
G01 X6.5461 Y20.8971
G01 X6.5550 Y20.8810
G01 X6.5616 Y20.8706
G01 X6.5687 Y20.8606
G01 X6.5762 Y20.8509
G01 X6.5842 Y20.8416
G01 X6.5927 Y20.8327
G01 X6.6016 Y20.8242
G01 X6.6109 Y20.8162
G01 X6.6255 Y20.8051
G01 X6.6357 Y20.7982
G01 X6.6463 Y20.7919
G01 X6.6571 Y20.7861
G01 X6.6682 Y20.7809
G01 X6.6853 Y20.7740
G01 X6.7030 Y20.7684
G01 X6.7210 Y20.7641
G01 X6.7331 Y20.7620
G01 X6.7454 Y20.7605
G01 X6.7638 Y20.7593
G01 X8.4700 Y20.7593
G01 X8.4823 Y20.7596
G01 X8.4946 Y20.7605
G01 X8.5069 Y20.7620
G01 X8.5251 Y20.7654
G01 X8.5370 Y20.7684
G01 X8.5488 Y20.7720
G01 X8.5604 Y20.7761
G01 X8.5718 Y20.7809
G01 X8.5884 Y20.7890
G01 X8.5990 Y20.7950
G01 X8.6145 Y20.8051
G01 X8.6243 Y20.8124
G01 X8.6338 Y20.8202
G01 X8.6473 Y20.8327
G01 X8.6558 Y20.8416
G01 X8.6638 Y20.8509
G01 X8.6713 Y20.8606
G01 X8.6818 Y20.8757
G01 X8.6881 Y20.8863
G01 X8.6939 Y20.8971
G01 X8.6991 Y20.9082
G01 X8.7039 Y20.9196
G01 X8.7080 Y20.9312
G01 X8.7116 Y20.9430
G01 X8.7146 Y20.9549
G01 X8.7170 Y20.9670
G01 X8.7195 Y20.9854
G01 X8.7207 Y21.0038
G01 X8.7207 Y21.1090
G01 X9.8489 Y21.1090
G01 X11.3751 Y19.5829
G01 X11.3573 Y19.4646
G01 X11.3558 Y19.4528
G01 X11.3549 Y19.4401
G01 X11.3496 Y19.3323
G01 X11.3493 Y19.3200
G01 X11.3496 Y19.3077
G01 X11.3549 Y19.1999
G01 X11.3558 Y19.1872
G01 X11.3573 Y19.1754
G01 X11.3731 Y19.0686
G01 X11.3751 Y19.0568
G01 X11.3779 Y19.0445
G01 X11.4041 Y18.9398
G01 X11.4072 Y18.9286
G01 X11.4113 Y18.9162
G01 X11.4476 Y18.8146
G01 X11.4521 Y18.8029
G01 X11.4571 Y18.7918
G01 X11.5032 Y18.6943
G01 X11.5085 Y18.6837
G01 X11.5148 Y18.6726
G01 X11.5703 Y18.5800
G01 X11.5768 Y18.5698
G01 X11.5840 Y18.5595
G01 X11.6555 Y18.4635
G01 X11.6639 Y18.4538
G01 X11.7364 Y18.3738
G01 X11.7449 Y18.3649
G01 X11.7538 Y18.3564
G01 X11.8338 Y18.2839
G01 X11.8435 Y18.2755
G01 X11.9395 Y18.2040
G01 X11.9490 Y18.1973
G01 X11.9490 Y8.6410
G01 X11.7411 Y8.6410
G01 X10.6910 Y9.6910
G01 X10.6824 Y9.6993
G01 X10.6405 Y9.7371
G01 X10.6267 Y9.7481
G01 X10.5873 Y9.7773
G01 X10.5770 Y9.7846
G01 X10.5247 Y9.8162
G01 X10.5136 Y9.8225
G01 X10.5030 Y9.8278
G01 X10.4475 Y9.8538
G01 X10.3897 Y9.8748
G01 X10.3773 Y9.8789
G01 X10.3185 Y9.8939
G01 X10.3061 Y9.8966
G01 X10.2944 Y9.8987
G01 X10.2340 Y9.9073
G01 X10.2213 Y9.9083
G01 X10.1662 Y9.9109
G01 X8.7207 Y9.9110
G01 X8.7207 Y10.0162
G01 X8.7195 Y10.0346
G01 X8.7170 Y10.0530
G01 X8.7146 Y10.0651
G01 X8.7116 Y10.0770
G01 X8.7080 Y10.0888
G01 X8.7039 Y10.1004
G01 X8.6991 Y10.1118
G01 X8.6939 Y10.1229
G01 X8.6881 Y10.1337
G01 X8.6818 Y10.1443
G01 X8.6749 Y10.1545
G01 X8.6676 Y10.1643
G01 X8.6558 Y10.1784
G01 X8.6473 Y10.1873
G01 X8.6338 Y10.1998
G01 X8.6243 Y10.2076
G01 X8.6145 Y10.2149
G01 X8.5990 Y10.2250
G01 X8.5829 Y10.2339
G01 X8.5718 Y10.2391
G01 X8.5604 Y10.2439
G01 X8.5488 Y10.2480
G01 X8.5370 Y10.2516
G01 X8.5251 Y10.2546
G01 X8.5069 Y10.2580
G01 X8.4946 Y10.2595
G01 X8.4823 Y10.2604
G01 X8.4700 Y10.2607
G01 X6.7700 Y10.2607
G01 X6.7515 Y10.2601
G01 X6.7331 Y10.2580
G01 X6.7210 Y10.2559
G01 X6.7089 Y10.2532
G01 X6.6970 Y10.2499
G01 X6.6853 Y10.2460
G01 X6.6682 Y10.2391
G01 X6.6516 Y10.2310
G01 X6.6410 Y10.2250
G01 X6.6306 Y10.2184
G01 X6.6157 Y10.2076
G01 X6.6062 Y10.1998
G01 X6.5971 Y10.1916
G01 X6.5842 Y10.1784
G01 X6.5762 Y10.1691
G01 X6.5687 Y10.1594
G01 X6.5582 Y10.1443
G01 X6.5519 Y10.1337
G01 X6.5461 Y10.1229
G01 X6.5409 Y10.1118
G01 X6.5361 Y10.1004
G01 X6.5301 Y10.0830
G01 X6.5268 Y10.0711
G01 X6.5241 Y10.0590
G01 X6.5212 Y10.0408
G01 X6.5196 Y10.0223
G01 X6.5193 Y10.0100
G01 X6.5193 Y8.3100
G01 X6.5196 Y8.2977
G01 X6.5205 Y8.2854
G01 X6.5220 Y8.2731
G01 X6.5241 Y8.2610
G01 X6.5284 Y8.2430
G01 X6.5340 Y8.2253
G01 X6.5409 Y8.2082
G01 X6.5461 Y8.1971
G01 X6.5519 Y8.1863
G01 X6.5616 Y8.1706
G01 X6.5724 Y8.1557
G01 X6.5842 Y8.1416
G01 X6.5927 Y8.1327
G01 X6.6016 Y8.1242
G01 X6.6157 Y8.1124
G01 X6.6255 Y8.1051
G01 X6.6357 Y8.0982
G01 X6.6516 Y8.0890
G01 X6.6682 Y8.0809
G01 X6.6853 Y8.0740
G01 X6.6970 Y8.0701
G01 X6.7089 Y8.0668
G01 X6.7270 Y8.0630
G01 X6.7454 Y8.0605
G01 X6.7577 Y8.0596
G01 X6.7700 Y8.0593
G01 X8.4700 Y8.0593
G01 X8.4823 Y8.0596
G01 X8.4946 Y8.0605
G01 X8.5069 Y8.0620
G01 X8.5190 Y8.0641
G01 X8.5370 Y8.0684
G01 X8.5547 Y8.0740
G01 X8.5662 Y8.0784
G01 X8.5774 Y8.0834
G01 X8.5937 Y8.0919
G01 X8.6043 Y8.0982
G01 X8.6194 Y8.1087
G01 X8.6291 Y8.1162
G01 X8.6384 Y8.1242
G01 X8.6473 Y8.1327
G01 X8.6598 Y8.1462
G01 X8.6676 Y8.1557
G01 X8.6784 Y8.1706
G01 X8.6881 Y8.1863
G01 X8.6939 Y8.1971
G01 X8.6991 Y8.2082
G01 X8.7039 Y8.2196
G01 X8.7080 Y8.2312
G01 X8.7116 Y8.2430
G01 X8.7146 Y8.2549
G01 X8.7170 Y8.2670
G01 X8.7195 Y8.2854
G01 X8.7207 Y8.3038
G01 X8.7207 Y8.4090
G01 X9.8489 Y8.4090
G01 X11.3751 Y6.8829
G01 X11.3573 Y6.7646
G01 X11.3558 Y6.7528
G01 X11.3549 Y6.7401
G01 X11.3496 Y6.6323
G01 X11.3493 Y6.6200
G01 X11.3496 Y6.6077
G01 X11.3549 Y6.4999
G01 X11.3558 Y6.4872
G01 X11.3573 Y6.4754
G01 X11.3731 Y6.3686
G01 X11.3751 Y6.3568
G01 X11.3779 Y6.3445
G01 X11.4041 Y6.2398
G01 X11.4072 Y6.2286
G01 X11.4113 Y6.2162
G01 X11.4476 Y6.1146
G01 X11.4521 Y6.1029
G01 X11.4571 Y6.0918
G01 X11.5032 Y5.9943
G01 X11.5085 Y5.9837
G01 X11.5148 Y5.9726
G01 X11.5703 Y5.8800
G01 X11.5768 Y5.8698
G01 X11.5840 Y5.8595
G01 X11.6555 Y5.7635
G01 X11.6639 Y5.7538
G01 X11.7364 Y5.6738
G01 X11.7449 Y5.6649
G01 X11.7538 Y5.6564
G01 X11.8338 Y5.5839
G01 X11.8435 Y5.5755
G01 X11.9395 Y5.5040
G01 X11.9490 Y5.4973
G01 X11.9491 Y2.8038
G01 X11.9517 Y2.7487
G01 X11.9527 Y2.7360
G01 X11.9613 Y2.6756
G01 X11.9634 Y2.6639
G01 X11.9661 Y2.6515
G01 X11.9811 Y2.5927
G01 X11.9852 Y2.5803
G01 X12.0039 Y2.5282
G01 X12.0112 Y2.5114
G01 X12.0375 Y2.4564
G01 X12.0438 Y2.4453
G01 X12.0754 Y2.3930
G01 X12.0827 Y2.3827
G01 X12.1191 Y2.3340
G01 X12.1275 Y2.3243
G01 X12.1690 Y2.2790
G01 X13.4433 Y1.0048
G01 X13.4843 Y0.9675
G01 X13.4940 Y0.9591
G01 X13.5427 Y0.9227
G01 X13.5530 Y0.9154
G01 X13.5632 Y0.9090
G01 X13.6053 Y0.8838
G01 X13.6220 Y0.8746
G01 X13.6767 Y0.8487
G01 X13.6941 Y0.8417
G01 X13.7403 Y0.8252
G01 X13.7527 Y0.8211
G01 X13.8115 Y0.8061
G01 X13.8239 Y0.8034
G01 X13.8356 Y0.8013
G01 X13.8960 Y0.7927
G01 X13.9087 Y0.7917
G01 X13.9700 Y0.7890
G01 X29.2100 Y0.7890
G01 X29.2713 Y0.7917
G01 X29.2840 Y0.7927
G01 X29.2958 Y0.7941
G01 X29.3561 Y0.8034
G01 X29.3685 Y0.8061
G01 X29.4161 Y0.8181
G01 X29.4273 Y0.8211
G01 X29.4397 Y0.8252
G01 X29.4975 Y0.8462
G01 X29.5530 Y0.8722
G01 X29.5636 Y0.8775
G01 X29.5747 Y0.8838
G01 X29.6270 Y0.9154
G01 X29.6373 Y0.9227
G01 X29.6767 Y0.9519
G01 X29.6905 Y0.9629
G01 X29.7366 Y1.0047
G01 X31.0110 Y2.2790
G01 X31.0193 Y2.2876
G01 X31.0525 Y2.3243
G01 X31.0609 Y2.3340
G01 X31.0973 Y2.3827
G01 X31.1046 Y2.3930
G01 X31.1110 Y2.4032
G01 X31.1362 Y2.4453
G01 X31.1425 Y2.4564
G01 X31.1688 Y2.5114
G01 X31.1738 Y2.5225
G01 X31.1948 Y2.5803
G01 X31.1989 Y2.5927
G01 X31.2019 Y2.6039
G01 X31.2139 Y2.6515
G01 X31.2177 Y2.6697
G01 X31.2273 Y2.7360
G01 X31.2283 Y2.7487
G01 X31.2310 Y2.8100
G01 X31.2310 Y5.4973
G01 X31.2405 Y5.5040
G01 X31.3272 Y5.5683
G01 X31.3365 Y5.5755
G01 X31.3462 Y5.5839
G01 X31.4262 Y5.6564
G01 X31.4351 Y5.6649
G01 X31.4436 Y5.6738
G01 X31.5161 Y5.7538
G01 X31.5245 Y5.7635
G01 X31.5317 Y5.7728
G01 X31.5960 Y5.8595
G01 X31.6032 Y5.8698
G01 X31.6097 Y5.8800
G01 X31.6652 Y5.9726
G01 X31.6715 Y5.9837
G01 X31.6768 Y5.9943
G01 X31.7229 Y6.0918
G01 X31.7279 Y6.1029
G01 X31.7324 Y6.1146
G01 X31.7687 Y6.2162
G01 X31.7728 Y6.2286
G01 X31.8021 Y6.3445
G01 X31.8049 Y6.3568
G01 X31.8069 Y6.3686
G01 X31.8227 Y6.4754
G01 X31.8242 Y6.4872
G01 X31.8251 Y6.4999
G01 X31.8304 Y6.6077
G01 X31.8307 Y6.6200
G01 X31.8304 Y6.6323
G01 X31.8251 Y6.7401
G01 X31.8242 Y6.7528
G01 X31.8227 Y6.7646
G01 X31.8069 Y6.8714
G01 X31.8049 Y6.8832
G01 X31.8021 Y6.8955
G01 X31.7728 Y7.0114
G01 X31.7687 Y7.0238
G01 X31.7324 Y7.1254
G01 X31.7279 Y7.1371
G01 X31.7229 Y7.1482
G01 X31.6768 Y7.2457
G01 X31.6715 Y7.2563
G01 X31.6652 Y7.2674
G01 X31.6097 Y7.3600
G01 X31.6032 Y7.3702
G01 X31.5960 Y7.3805
G01 X31.5317 Y7.4672
G01 X31.5245 Y7.4765
G01 X31.5161 Y7.4862
G01 X31.4436 Y7.5662
G01 X31.4351 Y7.5751
G01 X31.4262 Y7.5836
G01 X31.3462 Y7.6561
G01 X31.3365 Y7.6645
G01 X31.3272 Y7.6717
G01 X31.2405 Y7.7360
G01 X31.2310 Y7.7427
G01 X31.2310 Y10.9490
G01 X36.9993 Y10.9490
G01 X36.9993 Y10.8438
G01 X37.0005 Y10.8254
G01 X37.0020 Y10.8131
G01 X37.0041 Y10.8010
G01 X37.0068 Y10.7889
G01 X37.0101 Y10.7771
G01 X37.0140 Y10.7653
G01 X37.0184 Y10.7538
G01 X37.0234 Y10.7426
G01 X37.0290 Y10.7316
G01 X37.0382 Y10.7157
G01 X37.0451 Y10.7055
G01 X37.0562 Y10.6909
G01 X37.0642 Y10.6816
G01 X37.0727 Y10.6727
G01 X37.0862 Y10.6602
G01 X37.0957 Y10.6524
G01 X37.1055 Y10.6451
G01 X37.1157 Y10.6382
G01 X37.1316 Y10.6290
G01 X37.1482 Y10.6209
G01 X37.1596 Y10.6161
G01 X37.1712 Y10.6120
G01 X37.1889 Y10.6068
G01 X37.2010 Y10.6041
G01 X37.2192 Y10.6012
G01 X37.2315 Y10.5999
G01 X37.2438 Y10.5993
G01 X38.9500 Y10.5993
G01 X38.9685 Y10.5999
G01 X38.9808 Y10.6012
G01 X38.9990 Y10.6041
G01 X39.0111 Y10.6068
G01 X39.0288 Y10.6120
G01 X39.0404 Y10.6161
G01 X39.0574 Y10.6234
G01 X39.0737 Y10.6319
G01 X39.0843 Y10.6382
G01 X39.0994 Y10.6487
G01 X39.1091 Y10.6562
G01 X39.1229 Y10.6684
G01 X39.1316 Y10.6771
G01 X39.1438 Y10.6909
G01 X39.1513 Y10.7006
G01 X39.1618 Y10.7157
G01 X39.1710 Y10.7316
G01 X39.1791 Y10.7482
G01 X39.1839 Y10.7596
G01 X39.1880 Y10.7712
G01 X39.1932 Y10.7889
G01 X39.1970 Y10.8070
G01 X39.1988 Y10.8192
G01 X39.2001 Y10.8315
G01 X39.2007 Y10.8438
G01 X39.2007 Y12.5562
G01 X39.2001 Y12.5685
G01 X39.1988 Y12.5808
G01 X39.1970 Y12.5930
G01 X39.1946 Y12.6051
G01 X39.1916 Y12.6170
G01 X39.1880 Y12.6288
G01 X39.1839 Y12.6404
G01 X39.1791 Y12.6518
G01 X39.1739 Y12.6629
G01 X39.1681 Y12.6737
G01 X39.1584 Y12.6894
G01 X39.1513 Y12.6994
G01 X39.1438 Y12.7091
G01 X39.1358 Y12.7184
G01 X39.1273 Y12.7273
G01 X39.1184 Y12.7358
G01 X39.1091 Y12.7438
G01 X39.0994 Y12.7513
G01 X39.0894 Y12.7584
G01 X39.0790 Y12.7650
G01 X39.0684 Y12.7710
G01 X39.0574 Y12.7766
G01 X39.0404 Y12.7839
G01 X39.0229 Y12.7899
G01 X39.0111 Y12.7932
G01 X38.9990 Y12.7959
G01 X38.9869 Y12.7980
G01 X38.9746 Y12.7995
G01 X38.9562 Y12.8007
G01 X37.2500 Y12.8007
G01 X37.2315 Y12.8001
G01 X37.2131 Y12.7980
G01 X37.1949 Y12.7946
G01 X37.1830 Y12.7916
G01 X37.1712 Y12.7880
G01 X37.1538 Y12.7816
G01 X37.1371 Y12.7739
G01 X37.1263 Y12.7681
G01 X37.1157 Y12.7618
G01 X37.1006 Y12.7513
G01 X37.0909 Y12.7438
G01 X37.0816 Y12.7358
G01 X37.0727 Y12.7273
G01 X37.0642 Y12.7184
G01 X37.0524 Y12.7043
G01 X37.0416 Y12.6894
G01 X37.0350 Y12.6790
G01 X37.0290 Y12.6684
G01 X37.0234 Y12.6574
G01 X37.0184 Y12.6462
G01 X37.0120 Y12.6288
G01 X37.0068 Y12.6111
G01 X37.0024 Y12.5896
G01 X36.3110 Y13.2811
G01 X36.3110 Y13.9289
G01 X37.1411 Y14.7590
G01 X50.4889 Y14.7590
G01 X53.5093 Y11.7387
G01 X53.5093 Y10.8500
G01 X53.5099 Y10.8315
G01 X53.5112 Y10.8192
G01 X53.5130 Y10.8070
G01 X53.5154 Y10.7949
G01 X53.5184 Y10.7830
G01 X53.5220 Y10.7712
G01 X53.5261 Y10.7596
G01 X53.5309 Y10.7482
G01 X53.5361 Y10.7371
G01 X53.5419 Y10.7263
G01 X53.5482 Y10.7157
G01 X53.5551 Y10.7055
G01 X53.5662 Y10.6909
G01 X53.5742 Y10.6816
G01 X53.5827 Y10.6727
G01 X53.5916 Y10.6642
G01 X53.6009 Y10.6562
G01 X53.6155 Y10.6451
G01 X53.6257 Y10.6382
G01 X53.6363 Y10.6319
G01 X53.6471 Y10.6261
G01 X53.6582 Y10.6209
G01 X53.6753 Y10.6140
G01 X53.6930 Y10.6084
G01 X53.7049 Y10.6054
G01 X53.7170 Y10.6030
G01 X53.7354 Y10.6005
G01 X53.7538 Y10.5993
G01 X55.4600 Y10.5993
G01 X55.4785 Y10.5999
G01 X55.4908 Y10.6012
G01 X55.5030 Y10.6030
G01 X55.5151 Y10.6054
G01 X55.5270 Y10.6084
G01 X55.5388 Y10.6120
G01 X55.5504 Y10.6161
G01 X55.5618 Y10.6209
G01 X55.5729 Y10.6261
G01 X55.5890 Y10.6350
G01 X55.6045 Y10.6451
G01 X55.6191 Y10.6562
G01 X55.6329 Y10.6684
G01 X55.6458 Y10.6816
G01 X55.6576 Y10.6957
G01 X55.6684 Y10.7106
G01 X55.6781 Y10.7263
G01 X55.6866 Y10.7426
G01 X55.6939 Y10.7596
G01 X55.6980 Y10.7712
G01 X55.7032 Y10.7889
G01 X55.7070 Y10.8070
G01 X55.7088 Y10.8192
G01 X55.7104 Y10.8377
G01 X55.7107 Y10.8500
G01 X55.7107 Y12.5562
G01 X55.7095 Y12.5746
G01 X55.7070 Y12.5930
G01 X55.7046 Y12.6051
G01 X55.7016 Y12.6170
G01 X55.6960 Y12.6347
G01 X55.6891 Y12.6518
G01 X55.6839 Y12.6629
G01 X55.6781 Y12.6737
G01 X55.6684 Y12.6894
G01 X55.6613 Y12.6994
G01 X55.6538 Y12.7091
G01 X55.6458 Y12.7184
G01 X55.6373 Y12.7273
G01 X55.6284 Y12.7358
G01 X55.6143 Y12.7476
G01 X55.6045 Y12.7549
G01 X55.5943 Y12.7618
G01 X55.5837 Y12.7681
G01 X55.5729 Y12.7739
G01 X55.5618 Y12.7791
G01 X55.5504 Y12.7839
G01 X55.5388 Y12.7880
G01 X55.5270 Y12.7916
G01 X55.5151 Y12.7946
G01 X55.5030 Y12.7970
G01 X55.4908 Y12.7988
G01 X55.4785 Y12.8001
G01 X55.4600 Y12.8007
G01 X54.5713 Y12.8007
G01 X51.3267 Y16.0452
G01 X51.2857 Y16.0825
G01 X51.2760 Y16.0909
G01 X51.2273 Y16.1273
G01 X51.2170 Y16.1346
G01 X51.1647 Y16.1662
G01 X51.1536 Y16.1725
G01 X51.0986 Y16.1988
G01 X51.0875 Y16.2038
G01 X51.0759 Y16.2083
G01 X51.0235 Y16.2269
G01 X51.0061 Y16.2319
G01 X50.9585 Y16.2439
G01 X50.9461 Y16.2466
G01 X50.8858 Y16.2559
G01 X50.8677 Y16.2579
G01 X50.8123 Y16.2607
G01 X50.8000 Y16.2610
G01 X36.8300 Y16.2610
G01 X36.7687 Y16.2583
G01 X36.7560 Y16.2573
G01 X36.6956 Y16.2487
G01 X36.6839 Y16.2466
G01 X36.6715 Y16.2439
G01 X36.6239 Y16.2319
G01 X36.6127 Y16.2289
G01 X36.6003 Y16.2248
G01 X36.5425 Y16.2038
G01 X36.5314 Y16.1988
G01 X36.4764 Y16.1725
G01 X36.4653 Y16.1662
G01 X36.4232 Y16.1410
G01 X36.4130 Y16.1346
G01 X36.4027 Y16.1273
G01 X36.3540 Y16.0909
G01 X36.3443 Y16.0825
G01 X36.3079 Y16.0495
G01 X36.2990 Y16.0410
G01 X35.0290 Y14.7710
G01 X34.9875 Y14.7257
G01 X34.9791 Y14.7160
G01 X34.9390 Y14.6622
G01 X34.9290 Y14.6468
G01 X34.9038 Y14.6047
G01 X34.8975 Y14.5936
G01 X34.8712 Y14.5386
G01 X34.8662 Y14.5275
G01 X34.8617 Y14.5159
G01 X34.8452 Y14.4697
G01 X34.8411 Y14.4573
G01 X34.8261 Y14.3985
G01 X34.8234 Y14.3861
G01 X34.8213 Y14.3744
G01 X34.8127 Y14.3140
G01 X34.8117 Y14.3013
G01 X34.8090 Y14.2400
G01 X34.8090 Y13.2811
G01 X33.9789 Y12.4510
G01 X31.2310 Y12.4510
G01 X31.2310 Y18.1973
G01 X31.2405 Y18.2040
G01 X31.3272 Y18.2683
G01 X31.3365 Y18.2755
G01 X31.3462 Y18.2839
G01 X31.4262 Y18.3564
G01 X31.4351 Y18.3649
G01 X31.4436 Y18.3738
G01 X31.5161 Y18.4538
G01 X31.5245 Y18.4635
G01 X31.5317 Y18.4728
G01 X31.5960 Y18.5595
G01 X31.6032 Y18.5698
G01 X31.6097 Y18.5800
G01 X31.6652 Y18.6726
G01 X31.6715 Y18.6837
G01 X31.6768 Y18.6943
G01 X31.7229 Y18.7918
G01 X31.7279 Y18.8029
G01 X31.7324 Y18.8146
G01 X31.7687 Y18.9162
G01 X31.7728 Y18.9286
G01 X31.8021 Y19.0445
G01 X31.8049 Y19.0568
G01 X31.8069 Y19.0686
G01 X31.8227 Y19.1754
G01 X31.8242 Y19.1872
G01 X31.8251 Y19.1999
G01 X31.8304 Y19.3077
G01 X31.8307 Y19.3200
G01 X31.8304 Y19.3323
G01 X31.8251 Y19.4401
G01 X31.8242 Y19.4528
G01 X31.8227 Y19.4646
G01 X31.8069 Y19.5714
G01 X31.8049 Y19.5832
G01 X31.8021 Y19.5955
G01 X31.7728 Y19.7114
G01 X31.7687 Y19.7238
G01 X31.7324 Y19.8254
G01 X31.7279 Y19.8371
G01 X31.7229 Y19.8482
G01 X31.6768 Y19.9457
G01 X31.6715 Y19.9563
G01 X31.6652 Y19.9674
G01 X31.6097 Y20.0600
G01 X31.6032 Y20.0702
G01 X31.5960 Y20.0805
G01 X31.5317 Y20.1672
G01 X31.5245 Y20.1765
G01 X31.5161 Y20.1862
G01 X31.4436 Y20.2662
G01 X31.4351 Y20.2751
G01 X31.4262 Y20.2836
G01 X31.3462 Y20.3561
G01 X31.3365 Y20.3645
G01 X31.3272 Y20.3717
G01 X31.2405 Y20.4360
G01 X31.2310 Y20.4427
G01 X31.2310 Y26.1890
G01 X36.9993 Y26.1890
G01 X36.9993 Y26.0838
G01 X37.0005 Y26.0654
G01 X37.0020 Y26.0531
G01 X37.0041 Y26.0410
G01 X37.0068 Y26.0289
G01 X37.0101 Y26.0170
G01 X37.0140 Y26.0053
G01 X37.0184 Y25.9938
G01 X37.0234 Y25.9826
G01 X37.0290 Y25.9716
G01 X37.0382 Y25.9557
G01 X37.0451 Y25.9455
G01 X37.0524 Y25.9357
G01 X37.0642 Y25.9216
G01 X37.0727 Y25.9127
G01 X37.0816 Y25.9042
G01 X37.0909 Y25.8962
G01 X37.1055 Y25.8851
G01 X37.1210 Y25.8750
G01 X37.1316 Y25.8690
G01 X37.1482 Y25.8609
G01 X37.1596 Y25.8561
G01 X37.1770 Y25.8501
G01 X37.1889 Y25.8468
G01 X37.2070 Y25.8430
G01 X37.2192 Y25.8412
G01 X37.2315 Y25.8399
G01 X37.2438 Y25.8393
G01 X38.9500 Y25.8393
G01 X38.9623 Y25.8396
G01 X38.9808 Y25.8412
G01 X38.9930 Y25.8430
G01 X39.0051 Y25.8454
G01 X39.0230 Y25.8501
G01 X39.0347 Y25.8540
G01 X39.0462 Y25.8584
G01 X39.0574 Y25.8634
G01 X39.0684 Y25.8690
G01 X39.0790 Y25.8750
G01 X39.0894 Y25.8816
G01 X39.0994 Y25.8887
G01 X39.1091 Y25.8962
G01 X39.1184 Y25.9042
G01 X39.1273 Y25.9127
G01 X39.1398 Y25.9262
G01 X39.1476 Y25.9357
G01 X39.1549 Y25.9455
G01 X39.1618 Y25.9557
G01 X39.1681 Y25.9663
G01 X39.1739 Y25.9771
G01 X39.1791 Y25.9882
G01 X39.1860 Y26.0053
G01 X39.1899 Y26.0170
G01 X39.1932 Y26.0289
G01 X39.1970 Y26.0470
G01 X39.1995 Y26.0654
G01 X39.2004 Y26.0777
G01 X39.2007 Y26.0900
G01 X39.2007 Y27.7900
G01 X39.2004 Y27.8023
G01 X39.1995 Y27.8146
G01 X39.1970 Y27.8330
G01 X39.1946 Y27.8451
G01 X39.1916 Y27.8570
G01 X39.1860 Y27.8747
G01 X39.1791 Y27.8918
G01 X39.1710 Y27.9084
G01 X39.1650 Y27.9190
G01 X39.1584 Y27.9294
G01 X39.1476 Y27.9443
G01 X39.1358 Y27.9584
G01 X39.1273 Y27.9673
G01 X39.1184 Y27.9758
G01 X39.1043 Y27.9876
G01 X39.0894 Y27.9984
G01 X39.0737 Y28.0081
G01 X39.0629 Y28.0139
G01 X39.0518 Y28.0191
G01 X39.0347 Y28.0260
G01 X39.0170 Y28.0316
G01 X38.9990 Y28.0359
G01 X38.9869 Y28.0380
G01 X38.9746 Y28.0395
G01 X38.9623 Y28.0404
G01 X38.9500 Y28.0407
G01 X37.2500 Y28.0407
G01 X37.2377 Y28.0404
G01 X37.2254 Y28.0395
G01 X37.2070 Y28.0370
G01 X37.1949 Y28.0346
G01 X37.1830 Y28.0316
G01 X37.1712 Y28.0280
G01 X37.1596 Y28.0239
G01 X37.1482 Y28.0191
G01 X37.1371 Y28.0139
G01 X37.1210 Y28.0050
G01 X37.1106 Y27.9984
G01 X37.1006 Y27.9913
G01 X37.0862 Y27.9798
G01 X37.0771 Y27.9716
G01 X37.0684 Y27.9629
G01 X37.0602 Y27.9538
G01 X37.0487 Y27.9394
G01 X37.0416 Y27.9294
G01 X37.0350 Y27.9190
G01 X37.0290 Y27.9084
G01 X37.0234 Y27.8974
G01 X37.0184 Y27.8862
G01 X37.0140 Y27.8747
G01 X37.0101 Y27.8630
G01 X37.0068 Y27.8511
G01 X37.0041 Y27.8390
G01 X37.0020 Y27.8269
G01 X37.0005 Y27.8146
G01 X36.9993 Y27.7962
G01 X36.9993 Y27.6910
G01 X31.2310 Y27.6910
G01 X31.2310 Y30.8973
G01 X31.2405 Y30.9040
G01 X31.3272 Y30.9683
G01 X31.3365 Y30.9755
G01 X31.3462 Y30.9839
G01 X31.4262 Y31.0564
G01 X31.4351 Y31.0649
G01 X31.4436 Y31.0738
G01 X31.5161 Y31.1538
G01 X31.5245 Y31.1635
G01 X31.5317 Y31.1728
G01 X31.5960 Y31.2595
G01 X31.6032 Y31.2698
G01 X31.6097 Y31.2800
G01 X31.6652 Y31.3726
G01 X31.6715 Y31.3837
G01 X31.6768 Y31.3943
G01 X31.7229 Y31.4918
G01 X31.7279 Y31.5029
G01 X31.7324 Y31.5146
G01 X31.7687 Y31.6162
G01 X31.7728 Y31.6286
G01 X31.8021 Y31.7445
G01 X31.8049 Y31.7568
G01 X31.8069 Y31.7686
G01 X31.8227 Y31.8754
G01 X31.8242 Y31.8872
G01 X31.8251 Y31.8999
G01 X31.8304 Y32.0077
G01 X31.8307 Y32.0200
G01 X31.8304 Y32.0323
G01 X31.8251 Y32.1401
G01 X31.8242 Y32.1528
G01 X31.8227 Y32.1646
G01 X31.8069 Y32.2714
G01 X31.8049 Y32.2832
G01 X31.8021 Y32.2955
G01 X31.7728 Y32.4114
G01 X31.7687 Y32.4238
G01 X31.7324 Y32.5254
G01 X31.7279 Y32.5371
G01 X31.7229 Y32.5482
G01 X31.6768 Y32.6457
G01 X31.6715 Y32.6563
G01 X31.6652 Y32.6674
G01 X31.6097 Y32.7600
G01 X31.6032 Y32.7702
G01 X31.5960 Y32.7805
G01 X31.5317 Y32.8672
G01 X31.5245 Y32.8765
G01 X31.5161 Y32.8862
G01 X31.4436 Y32.9662
G01 X31.4351 Y32.9751
G01 X31.4262 Y32.9836
G01 X31.3462 Y33.0561
G01 X31.3365 Y33.0645
G01 X31.3272 Y33.0717
G01 X31.2405 Y33.1360
G01 X31.2310 Y33.1427
G01 X31.2310 Y44.4089
G01 X32.0611 Y45.2390
G01 X35.2489 Y45.2390
G01 X36.2990 Y44.1890
G01 X36.3076 Y44.1807
G01 X36.3495 Y44.1429
G01 X36.3633 Y44.1319
G01 X36.4027 Y44.1027
G01 X36.4130 Y44.0954
G01 X36.4232 Y44.0890
G01 X36.4653 Y44.0638
G01 X36.4764 Y44.0575
G01 X36.5314 Y44.0312
G01 X36.5425 Y44.0262
G01 X36.6003 Y44.0052
G01 X36.6127 Y44.0011
G01 X36.6715 Y43.9861
G01 X36.6839 Y43.9834
G01 X36.6956 Y43.9813
G01 X36.7442 Y43.9741
G01 X36.7623 Y43.9721
G01 X36.8177 Y43.9693
G01 X36.8300 Y43.9690
G01 X53.3400 Y43.9690
G01 X53.4013 Y43.9717
G01 X53.4140 Y43.9727
G01 X53.4744 Y43.9813
G01 X53.4861 Y43.9834
G01 X53.4985 Y43.9861
G01 X53.5573 Y44.0011
G01 X53.5697 Y44.0052
G01 X53.6159 Y44.0217
G01 X53.6275 Y44.0262
G01 X53.6386 Y44.0312
G01 X53.6936 Y44.0575
G01 X53.7047 Y44.0638
G01 X53.7468 Y44.0890
G01 X53.7570 Y44.0954
G01 X53.7673 Y44.1027
G01 X53.8160 Y44.1391
G01 X53.8257 Y44.1475
G01 X53.8710 Y44.1890
G01 X59.9861 Y50.3040
G01 X61.1293 Y50.3040
G01 X61.1293 Y50.1988
G01 X61.1305 Y50.1804
G01 X61.1330 Y50.1620
G01 X61.1354 Y50.1499
G01 X61.1384 Y50.1380
G01 X61.1420 Y50.1262
G01 X61.1461 Y50.1146
G01 X61.1509 Y50.1032
G01 X61.1561 Y50.0921
G01 X61.1650 Y50.0760
G01 X61.1716 Y50.0656
G01 X61.1787 Y50.0556
G01 X61.1902 Y50.0412
G01 X61.2027 Y50.0277
G01 X61.2116 Y50.0192
G01 X61.2209 Y50.0112
G01 X61.2306 Y50.0037
G01 X61.2457 Y49.9932
G01 X61.2563 Y49.9869
G01 X61.2726 Y49.9784
G01 X61.2838 Y49.9734
G01 X61.2953 Y49.9690
G01 X61.3070 Y49.9651
G01 X61.3189 Y49.9618
G01 X61.3310 Y49.9591
G01 X61.3431 Y49.9570
G01 X61.3615 Y49.9549
G01 X61.3800 Y49.9543
G01 X63.0800 Y49.9543
G01 X63.0985 Y49.9549
G01 X63.1169 Y49.9570
G01 X63.1290 Y49.9591
G01 X63.1411 Y49.9618
G01 X63.1588 Y49.9670
G01 X63.1704 Y49.9711
G01 X63.1874 Y49.9784
G01 X63.2037 Y49.9869
G01 X63.2143 Y49.9932
G01 X63.2294 Y50.0037
G01 X63.2391 Y50.0112
G01 X63.2484 Y50.0192
G01 X63.2616 Y50.0321
G01 X63.2698 Y50.0412
G01 X63.2813 Y50.0556
G01 X63.2884 Y50.0656
G01 X63.2981 Y50.0813
G01 X63.3066 Y50.0976
G01 X63.3116 Y50.1088
G01 X63.3160 Y50.1203
G01 X63.3216 Y50.1380
G01 X63.3246 Y50.1499
G01 X63.3280 Y50.1681
G01 X63.3295 Y50.1804
G01 X63.3307 Y50.1988
G01 X63.3307 Y51.9050
G01 X63.3301 Y51.9235
G01 X63.3280 Y51.9419
G01 X63.3246 Y51.9601
G01 X63.3216 Y51.9720
G01 X63.3180 Y51.9838
G01 X63.3139 Y51.9954
G01 X63.3091 Y52.0068
G01 X63.3039 Y52.0179
G01 X63.2950 Y52.0340
G01 X63.2884 Y52.0444
G01 X63.2813 Y52.0544
G01 X63.2698 Y52.0688
G01 X63.2616 Y52.0779
G01 X63.2529 Y52.0866
G01 X63.2391 Y52.0988
G01 X63.2294 Y52.1063
G01 X63.2194 Y52.1134
G01 X63.2090 Y52.1200
G01 X63.1984 Y52.1260
G01 X63.1874 Y52.1316
G01 X63.1762 Y52.1366
G01 X63.1647 Y52.1410
G01 X63.1530 Y52.1449
G01 X63.1411 Y52.1482
G01 X63.1290 Y52.1509
G01 X63.1169 Y52.1530
G01 X63.1046 Y52.1545
G01 X63.0862 Y52.1557
G01 X62.9810 Y52.1557
G01 X62.9810 Y58.7093
G01 X63.1825 Y58.7093
G01 X63.2010 Y58.7099
G01 X63.2133 Y58.7112
G01 X63.2255 Y58.7130
G01 X63.2436 Y58.7168
G01 X63.2554 Y58.7201
G01 X63.2672 Y58.7240
G01 X63.2787 Y58.7284
G01 X63.2899 Y58.7334
G01 X63.3009 Y58.7390
G01 X63.3168 Y58.7482
G01 X63.3270 Y58.7551
G01 X63.3416 Y58.7662
G01 X63.3554 Y58.7784
G01 X63.3641 Y58.7871
G01 X63.3723 Y58.7962
G01 X63.3838 Y58.8106
G01 X63.3909 Y58.8206
G01 X63.4006 Y58.8363
G01 X63.4091 Y58.8526
G01 X63.4141 Y58.8638
G01 X63.4185 Y58.8753
G01 X63.4224 Y58.8871
G01 X63.4271 Y58.9049
G01 X63.4295 Y58.9170
G01 X63.4320 Y58.9354
G01 X63.4329 Y58.9477
G01 X63.4332 Y58.9600
G01 X63.4332 Y60.9600
G01 X63.4329 Y60.9723
G01 X63.4320 Y60.9846
G01 X63.4305 Y60.9969
G01 X63.4271 Y61.0151
G01 X63.4241 Y61.0270
G01 X63.4205 Y61.0388
G01 X63.4164 Y61.0504
G01 X63.4116 Y61.0618
G01 X63.4064 Y61.0729
G01 X63.3975 Y61.0890
G01 X63.3874 Y61.1045
G01 X63.3763 Y61.1191
G01 X63.3641 Y61.1329
G01 X63.3509 Y61.1458
G01 X63.3416 Y61.1538
G01 X63.3270 Y61.1649
G01 X63.3115 Y61.1750
G01 X63.2954 Y61.1839
G01 X63.2787 Y61.1916
G01 X63.2672 Y61.1960
G01 X63.2555 Y61.1999
G01 X63.2376 Y61.2046
G01 X63.2194 Y61.2080
G01 X63.2071 Y61.2095
G01 X63.1948 Y61.2104
G01 X63.1825 Y61.2107
G01 X62.0244 Y61.2107
G01 X62.0070 Y61.2229
G01 X61.9597 Y61.2512
G01 X61.9486 Y61.2575
G01 X61.8936 Y61.2838
G01 X61.8825 Y61.2888
G01 X61.8709 Y61.2933
G01 X61.8247 Y61.3098
G01 X61.8123 Y61.3139
G01 X61.7535 Y61.3289
G01 X61.7411 Y61.3316
G01 X61.7294 Y61.3337
G01 X61.6690 Y61.3423
G01 X61.6563 Y61.3433
G01 X61.5950 Y61.3460
G01 X60.6361 Y61.3460
G01 X60.4410 Y61.5411
G01 X60.4410 Y62.7713
G01 X60.4738 Y62.7956
G01 X60.4876 Y62.8066
G01 X60.5655 Y62.8771
G01 X60.5787 Y62.8900
G01 X60.6488 Y62.9672
G01 X60.6572 Y62.9769
G01 X60.7229 Y63.0651
G01 X60.7334 Y63.0804
G01 X60.7870 Y63.1697
G01 X60.7933 Y63.1808
G01 X60.7986 Y63.1914
G01 X60.8405 Y63.2801
G01 X60.8455 Y63.2912
G01 X60.8500 Y63.3028
G01 X60.8830 Y63.3952
G01 X60.8871 Y63.4077
G01 X60.9140 Y63.5140
G01 X60.9179 Y63.5322
G01 X60.9332 Y63.6352
G01 X60.9347 Y63.6470
G01 X60.9356 Y63.6597
G01 X60.9404 Y63.7577
G01 X60.9407 Y63.7700
G01 X60.9404 Y63.7823
G01 X60.9356 Y63.8803
G01 X60.9347 Y63.8930
G01 X60.9332 Y63.9048
G01 X60.9188 Y64.0019
G01 X60.9168 Y64.0136
G01 X60.9140 Y64.0260
G01 X60.8871 Y64.1323
G01 X60.8830 Y64.1448
G01 X60.8500 Y64.2372
G01 X60.8455 Y64.2488
G01 X60.8405 Y64.2599
G01 X60.7986 Y64.3486
G01 X60.7933 Y64.3592
G01 X60.7870 Y64.3703
G01 X60.7334 Y64.4596
G01 X60.7229 Y64.4749
G01 X60.6572 Y64.5631
G01 X60.6488 Y64.5728
G01 X60.5829 Y64.6455
G01 X60.5744 Y64.6544
G01 X60.5655 Y64.6629
G01 X60.4928 Y64.7288
G01 X60.4831 Y64.7372
G01 X60.3949 Y64.8029
G01 X60.3847 Y64.8101
G01 X60.3745 Y64.8165
G01 X60.2903 Y64.8670
G01 X60.2792 Y64.8733
G01 X60.2686 Y64.8786
G01 X60.1799 Y64.9205
G01 X60.1688 Y64.9255
G01 X60.1572 Y64.9300
G01 X60.0648 Y64.9630
G01 X60.0523 Y64.9671
G01 X59.9460 Y64.9940
G01 X59.9336 Y64.9968
G01 X59.9219 Y64.9988
G01 X59.8248 Y65.0132
G01 X59.8130 Y65.0147
G01 X59.8003 Y65.0156
G01 X59.7023 Y65.0204
G01 X59.6900 Y65.0207
G01 X59.6777 Y65.0204
G01 X59.5797 Y65.0156
G01 X59.5670 Y65.0147
G01 X59.5552 Y65.0132
G01 X59.4581 Y64.9988
G01 X59.4464 Y64.9968
G01 X59.4340 Y64.9940
G01 X59.3277 Y64.9671
G01 X59.3152 Y64.9630
G01 X59.2228 Y64.9300
G01 X59.2112 Y64.9255
G01 X59.2001 Y64.9205
G01 X59.1114 Y64.8786
G01 X59.1008 Y64.8733
G01 X59.0897 Y64.8670
G01 X59.0055 Y64.8165
G01 X58.9953 Y64.8101
G01 X58.9851 Y64.8029
G01 X58.9062 Y64.7444
G01 X58.8969 Y64.7372
G01 X58.8872 Y64.7288
G01 X58.8145 Y64.6629
G01 X58.8056 Y64.6544
G01 X58.7971 Y64.6455
G01 X58.7312 Y64.5728
G01 X58.7228 Y64.5631
G01 X58.7156 Y64.5538
G01 X58.6535 Y64.4698
G01 X58.6435 Y64.4545
G01 X58.5930 Y64.3703
G01 X58.5867 Y64.3592
G01 X58.5814 Y64.3486
G01 X58.5395 Y64.2599
G01 X58.5345 Y64.2488
G01 X58.5300 Y64.2372
G01 X58.4970 Y64.1448
G01 X58.4929 Y64.1323
G01 X58.4898 Y64.1212
G01 X58.4660 Y64.0260
G01 X58.4632 Y64.0136
G01 X58.4612 Y64.0019
G01 X58.4468 Y63.9048
G01 X58.4453 Y63.8930
G01 X58.4444 Y63.8803
G01 X58.4396 Y63.7823
G01 X58.4393 Y63.7700
G01 X58.4396 Y63.7577
G01 X58.4444 Y63.6597
G01 X58.4453 Y63.6470
G01 X58.4468 Y63.6352
G01 X58.4612 Y63.5381
G01 X58.4632 Y63.5264
G01 X58.4660 Y63.5140
G01 X58.4929 Y63.4077
G01 X58.4970 Y63.3952
G01 X58.5300 Y63.3028
G01 X58.5345 Y63.2912
G01 X58.5395 Y63.2801
G01 X58.5814 Y63.1914
G01 X58.5898 Y63.1752
G01 X58.6435 Y63.0855
G01 X58.6499 Y63.0753
G01 X58.6571 Y63.0651
G01 X58.7156 Y62.9862
G01 X58.7266 Y62.9724
G01 X58.7971 Y62.8945
G01 X58.8100 Y62.8813
G01 X58.8924 Y62.8066
G01 X58.9062 Y62.7956
G01 X58.9390 Y62.7713
G01 X58.9391 Y61.2238
G01 X58.9417 Y61.1687
G01 X58.9427 Y61.1560
G01 X58.9513 Y61.0956
G01 X58.9546 Y61.0780
G01 X58.9681 Y61.0239
G01 X58.9731 Y61.0065
G01 X58.9939 Y60.9482
G01 X59.0012 Y60.9314
G01 X59.0275 Y60.8764
G01 X59.0338 Y60.8653
G01 X59.0654 Y60.8130
G01 X59.0727 Y60.8027
G01 X59.1091 Y60.7540
G01 X59.1175 Y60.7443
G01 X59.1547 Y60.7034
G01 X61.4790 Y58.3789
G01 X61.4790 Y52.1557
G01 X61.3800 Y52.1557
G01 X61.3677 Y52.1554
G01 X61.3554 Y52.1545
G01 X61.3370 Y52.1520
G01 X61.3249 Y52.1496
G01 X61.3130 Y52.1466
G01 X61.2953 Y52.1410
G01 X61.2838 Y52.1366
G01 X61.2726 Y52.1316
G01 X61.2563 Y52.1231
G01 X61.2406 Y52.1134
G01 X61.2257 Y52.1026
G01 X61.2162 Y52.0948
G01 X61.2027 Y52.0823
G01 X61.1902 Y52.0688
G01 X61.1824 Y52.0593
G01 X61.1716 Y52.0444
G01 X61.1619 Y52.0287
G01 X61.1534 Y52.0124
G01 X61.1484 Y52.0012
G01 X61.1420 Y51.9838
G01 X61.1384 Y51.9720
G01 X61.1354 Y51.9601
G01 X61.1320 Y51.9419
G01 X61.1305 Y51.9296
G01 X61.1296 Y51.9173
G01 X61.1293 Y51.9050
G01 X61.1293 Y51.8060
G01 X59.6750 Y51.8060
G01 X59.6627 Y51.8057
G01 X59.6073 Y51.8029
G01 X59.5892 Y51.8009
G01 X59.5406 Y51.7937
G01 X59.5289 Y51.7916
G01 X59.5165 Y51.7889
G01 X59.4577 Y51.7739
G01 X59.4453 Y51.7698
G01 X59.3875 Y51.7488
G01 X59.3320 Y51.7228
G01 X59.3214 Y51.7175
G01 X59.3103 Y51.7112
G01 X59.2580 Y51.6796
G01 X59.2477 Y51.6723
G01 X59.2036 Y51.6395
G01 X59.1893 Y51.6275
G01 X59.1440 Y51.5860
G01 X53.0289 Y45.4710
G01 X38.4111 Y45.4710
G01 X37.5960 Y46.2861
G01 X37.5960 Y50.3619
G01 X37.6342 Y50.4041
G01 X37.6426 Y50.4138
G01 X37.6966 Y50.4862
G01 X37.7038 Y50.4965
G01 X37.7102 Y50.5066
G01 X37.7538 Y50.5795
G01 X37.7622 Y50.5957
G01 X37.7958 Y50.6666
G01 X37.8007 Y50.6777
G01 X37.8052 Y50.6894
G01 X37.8316 Y50.7633
G01 X37.8373 Y50.7813
G01 X37.8579 Y50.8630
G01 X37.8606 Y50.8754
G01 X37.8627 Y50.8871
G01 X37.8756 Y50.9766
G01 X37.8766 Y50.9893
G01 X37.8804 Y51.0677
G01 X37.8807 Y51.0800
G01 X37.8804 Y51.0923
G01 X37.8766 Y51.1707
G01 X37.8756 Y51.1834
G01 X37.8627 Y51.2729
G01 X37.8594 Y51.2905
G01 X37.8357 Y51.3843
G01 X37.8316 Y51.3967
G01 X37.8052 Y51.4706
G01 X37.8007 Y51.4823
G01 X37.7958 Y51.4934
G01 X37.7569 Y51.5749
G01 X37.7506 Y51.5860
G01 X37.7102 Y51.6534
G01 X37.7038 Y51.6635
G01 X37.6966 Y51.6738
G01 X37.6498 Y51.7369
G01 X37.6426 Y51.7462
G01 X37.6342 Y51.7559
G01 X37.5815 Y51.8141
G01 X37.5730 Y51.8230
G01 X37.5641 Y51.8315
G01 X37.5059 Y51.8842
G01 X37.4962 Y51.8926
G01 X37.4238 Y51.9466
G01 X37.4135 Y51.9538
G01 X37.4034 Y51.9602
G01 X37.3360 Y52.0006
G01 X37.3249 Y52.0069
G01 X37.3143 Y52.0122
G01 X37.2434 Y52.0458
G01 X37.2323 Y52.0507
G01 X37.2206 Y52.0552
G01 X37.1467 Y52.0816
G01 X37.1343 Y52.0857
G01 X37.0470 Y52.1079
G01 X37.0346 Y52.1106
G01 X36.9452 Y52.1242
G01 X36.9334 Y52.1256
G01 X36.9207 Y52.1266
G01 X36.8423 Y52.1304
G01 X36.8300 Y52.1307
G01 X36.8177 Y52.1304
G01 X36.7393 Y52.1266
G01 X36.7266 Y52.1256
G01 X36.6371 Y52.1127
G01 X36.6254 Y52.1106
G01 X36.6130 Y52.1079
G01 X36.5257 Y52.0857
G01 X36.5133 Y52.0816
G01 X36.4394 Y52.0552
G01 X36.4277 Y52.0507
G01 X36.4166 Y52.0458
G01 X36.3351 Y52.0069
G01 X36.3240 Y52.0006
G01 X36.2566 Y51.9602
G01 X36.2465 Y51.9538
G01 X36.2362 Y51.9466
G01 X36.1638 Y51.8926
G01 X36.1541 Y51.8842
G01 X36.0959 Y51.8315
G01 X36.0870 Y51.8230
G01 X36.0785 Y51.8141
G01 X36.0258 Y51.7559
G01 X36.0174 Y51.7462
G01 X35.9634 Y51.6738
G01 X35.9562 Y51.6635
G01 X35.9498 Y51.6534
G01 X35.9094 Y51.5860
G01 X35.9031 Y51.5749
G01 X35.8978 Y51.5643
G01 X35.8642 Y51.4934
G01 X35.8593 Y51.4823
G01 X35.8548 Y51.4706
G01 X35.8284 Y51.3967
G01 X35.8243 Y51.3843
G01 X35.8021 Y51.2970
G01 X35.7994 Y51.2846
G01 X35.7858 Y51.1952
G01 X35.7844 Y51.1834
G01 X35.7834 Y51.1707
G01 X35.7796 Y51.0923
G01 X35.7793 Y51.0800
G01 X35.7796 Y51.0677
G01 X35.7834 Y50.9893
G01 X35.7844 Y50.9766
G01 X35.7858 Y50.9648
G01 X35.7994 Y50.8754
G01 X35.8021 Y50.8630
G01 X35.8212 Y50.7868
G01 X35.8243 Y50.7757
G01 X35.8284 Y50.7633
G01 X35.8548 Y50.6894
G01 X35.8593 Y50.6777
G01 X35.8642 Y50.6666
G01 X35.8978 Y50.5957
G01 X35.9031 Y50.5851
G01 X35.9094 Y50.5740
G01 X35.9498 Y50.5066
G01 X35.9562 Y50.4965
G01 X35.9634 Y50.4862
G01 X36.0102 Y50.4231
G01 X36.0174 Y50.4138
G01 X36.0258 Y50.4041
G01 X36.0785 Y50.3459
G01 X36.0940 Y50.3303
G01 X36.0940 Y47.5561
G01 X35.2789 Y46.7410
G01 X31.6027 Y46.7410
G01 X31.5960 Y46.7505
G01 X31.5245 Y46.8465
G01 X31.5161 Y46.8562
G01 X31.4436 Y46.9362
G01 X31.4351 Y46.9451
G01 X31.4262 Y46.9536
G01 X31.3462 Y47.0261
G01 X31.3365 Y47.0345
G01 X31.2405 Y47.1060
G01 X31.2302 Y47.1132
G01 X31.2200 Y47.1197
G01 X31.1274 Y47.1752
G01 X31.1163 Y47.1815
G01 X31.1057 Y47.1868
G01 X31.0082 Y47.2329
G01 X30.9971 Y47.2379
G01 X30.9854 Y47.2424
G01 X30.8838 Y47.2787
G01 X30.8714 Y47.2828
G01 X30.8602 Y47.2859
G01 X30.7555 Y47.3121
G01 X30.7432 Y47.3149
G01 X30.7314 Y47.3169
G01 X30.6246 Y47.3327
G01 X30.6128 Y47.3342
G01 X30.6001 Y47.3351
G01 X30.4923 Y47.3404
G01 X30.4800 Y47.3407
G01 X30.4677 Y47.3404
G01 X30.3599 Y47.3351
G01 X30.3472 Y47.3342
G01 X30.3354 Y47.3327
G01 X30.2171 Y47.3149
G01 X28.4667 Y49.0652
G01 X28.4257 Y49.1025
G01 X28.4160 Y49.1109
G01 X28.3673 Y49.1473
G01 X28.3570 Y49.1546
G01 X28.3047 Y49.1862
G01 X28.2936 Y49.1925
G01 X28.2386 Y49.2188
G01 X28.2218 Y49.2261
G01 X28.1697 Y49.2448
G01 X28.1573 Y49.2489
G01 X28.0985 Y49.2639
G01 X28.0861 Y49.2666
G01 X28.0744 Y49.2687
G01 X28.0140 Y49.2773
G01 X28.0013 Y49.2783
G01 X27.9462 Y49.2809
G01 X26.5007 Y49.2810
G01 X26.5007 Y49.3862
G01 X26.4995 Y49.4046
G01 X26.4970 Y49.4230
G01 X26.4946 Y49.4351
G01 X26.4916 Y49.4470
G01 X26.4880 Y49.4588
G01 X26.4839 Y49.4704
G01 X26.4791 Y49.4818
G01 X26.4739 Y49.4929
G01 X26.4650 Y49.5090
G01 X26.4584 Y49.5194
G01 X26.4513 Y49.5294
G01 X26.4398 Y49.5438
G01 X26.4316 Y49.5529
G01 X26.4184 Y49.5658
G01 X26.4091 Y49.5738
G01 X26.3994 Y49.5813
G01 X26.3894 Y49.5884
G01 X26.3738 Y49.5981
G01 X26.3574 Y49.6066
G01 X26.3462 Y49.6116
G01 X26.3347 Y49.6160
G01 X26.3230 Y49.6199
G01 X26.3051 Y49.6246
G01 X26.2930 Y49.6270
G01 X26.2808 Y49.6288
G01 X26.2685 Y49.6301
G01 X26.2500 Y49.6307
G01 X24.5500 Y49.6307
G01 X24.5315 Y49.6301
G01 X24.5192 Y49.6288
G01 X24.5070 Y49.6270
G01 X24.4889 Y49.6232
G01 X24.4770 Y49.6199
G01 X24.4596 Y49.6139
G01 X24.4482 Y49.6091
G01 X24.4371 Y49.6039
G01 X24.4210 Y49.5950
G01 X24.4055 Y49.5849
G01 X24.3957 Y49.5776
G01 X24.3862 Y49.5698
G01 X24.3727 Y49.5573
G01 X24.3642 Y49.5484
G01 X24.3524 Y49.5343
G01 X24.3451 Y49.5245
G01 X24.3350 Y49.5090
G01 X24.3261 Y49.4929
G01 X24.3184 Y49.4762
G01 X24.3120 Y49.4588
G01 X24.3084 Y49.4470
G01 X24.3041 Y49.4290
G01 X24.3020 Y49.4169
G01 X24.3005 Y49.4046
G01 X24.2993 Y49.3862
G01 X24.2993 Y47.6738
G01 X24.2999 Y47.6615
G01 X24.3012 Y47.6492
G01 X24.3030 Y47.6370
G01 X24.3054 Y47.6249
G01 X24.3084 Y47.6130
G01 X24.3120 Y47.6012
G01 X24.3161 Y47.5896
G01 X24.3234 Y47.5726
G01 X24.3290 Y47.5616
G01 X24.3350 Y47.5510
G01 X24.3416 Y47.5406
G01 X24.3487 Y47.5306
G01 X24.3562 Y47.5209
G01 X24.3642 Y47.5116
G01 X24.3727 Y47.5027
G01 X24.3862 Y47.4902
G01 X24.4006 Y47.4787
G01 X24.4106 Y47.4716
G01 X24.4210 Y47.4650
G01 X24.4316 Y47.4590
G01 X24.4426 Y47.4534
G01 X24.4596 Y47.4461
G01 X24.4712 Y47.4420
G01 X24.4830 Y47.4384
G01 X24.5010 Y47.4341
G01 X24.5131 Y47.4320
G01 X24.5254 Y47.4305
G01 X24.5438 Y47.4293
G01 X26.2500 Y47.4293
G01 X26.2623 Y47.4296
G01 X26.2746 Y47.4305
G01 X26.2869 Y47.4320
G01 X26.2990 Y47.4341
G01 X26.3170 Y47.4384
G01 X26.3288 Y47.4420
G01 X26.3404 Y47.4461
G01 X26.3518 Y47.4509
G01 X26.3684 Y47.4590
G01 X26.3791 Y47.4650
G01 X26.3894 Y47.4716
G01 X26.4043 Y47.4824
G01 X26.4138 Y47.4902
G01 X26.4229 Y47.4984
G01 X26.4316 Y47.5071
G01 X26.4438 Y47.5209
G01 X26.4549 Y47.5355
G01 X26.4618 Y47.5457
G01 X26.4681 Y47.5563
G01 X26.4739 Y47.5671
G01 X26.4791 Y47.5782
G01 X26.4839 Y47.5896
G01 X26.4880 Y47.6012
G01 X26.4916 Y47.6130
G01 X26.4946 Y47.6249
G01 X26.4970 Y47.6370
G01 X26.4995 Y47.6554
G01 X26.5007 Y47.6738
G01 X26.5007 Y47.7790
G01 X27.6289 Y47.7790
G01 X29.1551 Y46.2529
G01 X29.1373 Y46.1346
G01 X29.1358 Y46.1228
G01 X29.1349 Y46.1101
G01 X29.1296 Y46.0023
G01 X29.1293 Y45.9900
G01 X29.1296 Y45.9777
G01 X29.1349 Y45.8699
G01 X29.1358 Y45.8572
G01 X29.1373 Y45.8454
G01 X29.1531 Y45.7386
G01 X29.1551 Y45.7268
G01 X29.1579 Y45.7145
G01 X29.1841 Y45.6098
G01 X29.1872 Y45.5986
G01 X29.1913 Y45.5862
G01 X29.2276 Y45.4846
G01 X29.2321 Y45.4729
G01 X29.2371 Y45.4618
G01 X29.2832 Y45.3643
G01 X29.2885 Y45.3537
G01 X29.2948 Y45.3426
G01 X29.3503 Y45.2500
G01 X29.3568 Y45.2398
G01 X29.3640 Y45.2295
G01 X29.4355 Y45.1335
G01 X29.4439 Y45.1238
G01 X29.5164 Y45.0438
G01 X29.5249 Y45.0349
G01 X29.5338 Y45.0264
G01 X29.6138 Y44.9539
G01 X29.6235 Y44.9455
G01 X29.7195 Y44.8740
G01 X29.7290 Y44.8673
G01 X29.7290 Y34.0410
G01 X29.5211 Y34.0410
G01 X28.4710 Y35.0910
G01 X28.4257 Y35.1325
G01 X28.4160 Y35.1409
G01 X28.4067 Y35.1481
G01 X28.3673 Y35.1773
G01 X28.3570 Y35.1846
G01 X28.3047 Y35.2162
G01 X28.2936 Y35.2225
G01 X28.2386 Y35.2488
G01 X28.2275 Y35.2538
G01 X28.1697 Y35.2748
G01 X28.1573 Y35.2789
G01 X28.1461 Y35.2819
G01 X28.0985 Y35.2939
G01 X28.0861 Y35.2966
G01 X28.0258 Y35.3059
G01 X28.0077 Y35.3079
G01 X27.9462 Y35.3109
G01 X26.5007 Y35.3110
G01 X26.5007 Y35.4162
G01 X26.4995 Y35.4346
G01 X26.4980 Y35.4469
G01 X26.4959 Y35.4590
G01 X26.4932 Y35.4711
G01 X26.4899 Y35.4830
G01 X26.4860 Y35.4947
G01 X26.4816 Y35.5062
G01 X26.4766 Y35.5174
G01 X26.4710 Y35.5284
G01 X26.4650 Y35.5391
G01 X26.4549 Y35.5545
G01 X26.4476 Y35.5643
G01 X26.4358 Y35.5784
G01 X26.4273 Y35.5873
G01 X26.4138 Y35.5998
G01 X26.4043 Y35.6076
G01 X26.3945 Y35.6149
G01 X26.3843 Y35.6218
G01 X26.3684 Y35.6310
G01 X26.3518 Y35.6391
G01 X26.3405 Y35.6439
G01 X26.3288 Y35.6480
G01 X26.3111 Y35.6532
G01 X26.2990 Y35.6559
G01 X26.2808 Y35.6588
G01 X26.2685 Y35.6601
G01 X26.2562 Y35.6607
G01 X24.5500 Y35.6607
G01 X24.5377 Y35.6604
G01 X24.5192 Y35.6588
G01 X24.5070 Y35.6570
G01 X24.4949 Y35.6546
G01 X24.4770 Y35.6499
G01 X24.4596 Y35.6439
G01 X24.4482 Y35.6391
G01 X24.4371 Y35.6339
G01 X24.4263 Y35.6281
G01 X24.4157 Y35.6218
G01 X24.4055 Y35.6149
G01 X24.3957 Y35.6076
G01 X24.3816 Y35.5958
G01 X24.3727 Y35.5873
G01 X24.3642 Y35.5784
G01 X24.3562 Y35.5691
G01 X24.3487 Y35.5594
G01 X24.3416 Y35.5494
G01 X24.3350 Y35.5390
G01 X24.3290 Y35.5284
G01 X24.3234 Y35.5174
G01 X24.3161 Y35.5004
G01 X24.3120 Y35.4888
G01 X24.3084 Y35.4770
G01 X24.3041 Y35.4590
G01 X24.3020 Y35.4469
G01 X24.3005 Y35.4346
G01 X24.2993 Y35.4162
G01 X24.2993 Y33.7100
G01 X24.2996 Y33.6977
G01 X24.3005 Y33.6854
G01 X24.3020 Y33.6731
G01 X24.3041 Y33.6610
G01 X24.3068 Y33.6489
G01 X24.3101 Y33.6370
G01 X24.3140 Y33.6253
G01 X24.3184 Y33.6138
G01 X24.3261 Y33.5971
G01 X24.3319 Y33.5863
G01 X24.3382 Y33.5757
G01 X24.3487 Y33.5606
G01 X24.3562 Y33.5509
G01 X24.3642 Y33.5416
G01 X24.3727 Y33.5327
G01 X24.3816 Y33.5242
