(G-CODE GENERATED BY FLATCAM v8.994 - www.flatcam.org - Version Date: 2020/11/7)

(Name: MIDIViolina-B_Cu.gbr_edit_iso_combined_cnc)
(Type: G-code from Geometry)
(Units: MM)

(Created on Monday, 05 December 2022 at 14:00)


G01 F120.00

M5
G00 Z15.0000
G00 X0.0000 Y0.0000
T1
M6    
(MSG, Change to Tool Dia = 0.2388)
M0
G00 Z15.0000

M03
G01 F120.00
G00 X2.6218 Y6.0800
G01 F60.00
G01 Z-0.1100
G01 F120.00
G01 X2.6218 Y4.0800
G01 X2.6221 Y4.0677
G01 X2.6230 Y4.0554
G01 X2.6245 Y4.0432
G01 X2.6266 Y4.0311
G01 X2.6293 Y4.0191
G01 X2.6326 Y4.0072
G01 X2.6364 Y3.9955
G01 X2.6408 Y3.9840
G01 X2.6458 Y3.9728
G01 X2.6514 Y3.9618
G01 X2.6574 Y3.9511
G01 X2.6640 Y3.9407
G01 X2.6711 Y3.9306
G01 X2.6787 Y3.9209
G01 X2.6867 Y3.9116
G01 X2.6952 Y3.9027
G01 X2.7041 Y3.8942
G01 X2.7134 Y3.8862
G01 X2.7231 Y3.8786
G01 X2.7384 Y3.8682
G01 X2.7543 Y3.8589
G01 X2.7653 Y3.8533
G01 X2.7765 Y3.8483
G01 X2.7880 Y3.8439
G01 X2.7997 Y3.8401
G01 X2.8116 Y3.8368
G01 X2.8236 Y3.8341
G01 X2.8418 Y3.8311
G01 X2.8541 Y3.8299
G01 X2.8663 Y3.8293
G01 X4.7775 Y3.8293
G01 X4.7898 Y3.8296
G01 X4.8082 Y3.8311
G01 X4.8204 Y3.8330
G01 X4.8324 Y3.8354
G01 X4.8444 Y3.8383
G01 X4.8562 Y3.8419
G01 X4.8677 Y3.8461
G01 X4.8791 Y3.8508
G01 X4.8957 Y3.8589
G01 X4.9064 Y3.8649
G01 X4.9168 Y3.8715
G01 X4.9269 Y3.8786
G01 X4.9366 Y3.8862
G01 X4.9459 Y3.8942
G01 X4.9548 Y3.9027
G01 X4.9633 Y3.9116
G01 X4.9713 Y3.9209
G01 X4.9789 Y3.9306
G01 X4.9893 Y3.9459
G01 X4.9986 Y3.9618
G01 X5.0042 Y3.9728
G01 X5.0092 Y3.9840
G01 X5.0136 Y3.9955
G01 X5.0174 Y4.0072
G01 X5.0207 Y4.0191
G01 X5.0234 Y4.0311
G01 X5.0255 Y4.0432
G01 X5.0270 Y4.0554
G01 X5.0282 Y4.0738
G01 X5.0282 Y6.0800
G01 X5.0276 Y6.0984
G01 X5.0255 Y6.1168
G01 X5.0234 Y6.1289
G01 X5.0192 Y6.1469
G01 X5.0136 Y6.1645
G01 X5.0092 Y6.1760
G01 X5.0015 Y6.1927
G01 X4.9957 Y6.2036
G01 X4.9860 Y6.2193
G01 X4.9789 Y6.2294
G01 X4.9713 Y6.2391
G01 X4.9591 Y6.2529
G01 X4.9504 Y6.2616
G01 X4.9366 Y6.2738
G01 X4.9219 Y6.2850
G01 X4.9116 Y6.2918
G01 X4.8957 Y6.3011
G01 X4.8847 Y6.3067
G01 X4.8677 Y6.3139
G01 X4.8562 Y6.3181
G01 X4.8444 Y6.3217
G01 X4.8324 Y6.3246
G01 X4.8204 Y6.3270
G01 X4.8082 Y6.3289
G01 X4.7959 Y6.3301
G01 X4.7775 Y6.3307
G01 X4.5760 Y6.3307
G01 X4.5760 Y6.8854
G01 X4.6292 Y6.9441
G01 X4.6372 Y6.9534
G01 X4.6448 Y6.9631
G01 X4.6916 Y7.0262
G01 X4.6987 Y7.0362
G01 X4.7052 Y7.0466
G01 X4.7514 Y7.1242
G01 X4.7567 Y7.1346
G01 X4.7908 Y7.2066
G01 X4.7958 Y7.2180
G01 X4.8002 Y7.2294
G01 X4.8266 Y7.3033
G01 X4.8305 Y7.3150
G01 X4.8338 Y7.3268
G01 X4.8529 Y7.4030
G01 X4.8556 Y7.4150
G01 X4.8577 Y7.4271
G01 X4.8692 Y7.5048
G01 X4.8708 Y7.5179
G01 X4.8754 Y7.6077
G01 X4.8757 Y7.6200
G01 X4.8754 Y7.6323
G01 X4.8716 Y7.7107
G01 X4.8707 Y7.7230
G01 X4.8692 Y7.7352
G01 X4.8577 Y7.8129
G01 X4.8556 Y7.8250
G01 X4.8529 Y7.8370
G01 X4.8338 Y7.9132
G01 X4.8305 Y7.9250
G01 X4.8266 Y7.9367
G01 X4.8002 Y8.0106
G01 X4.7958 Y8.0221
G01 X4.7908 Y8.0334
G01 X4.7572 Y8.1043
G01 X4.7517 Y8.1153
G01 X4.7456 Y8.1260
G01 X4.7052 Y8.1934
G01 X4.6983 Y8.2042
G01 X4.6916 Y8.2138
G01 X4.6378 Y8.2859
G01 X4.6292 Y8.2959
G01 X4.5765 Y8.3541
G01 X4.5680 Y8.3630
G01 X4.5591 Y8.3715
G01 X4.5009 Y8.4242
G01 X4.4868 Y8.4361
G01 X4.4188 Y8.4866
G01 X4.4088 Y8.4937
G01 X4.3984 Y8.5002
G01 X4.3208 Y8.5464
G01 X4.3093 Y8.5522
G01 X4.2384 Y8.5858
G01 X4.2270 Y8.5908
G01 X4.2156 Y8.5952
G01 X4.1417 Y8.6216
G01 X4.1300 Y8.6255
G01 X4.1182 Y8.6288
G01 X4.0306 Y8.6504
G01 X4.0191 Y8.6525
G01 X3.9402 Y8.6642
G01 X3.9271 Y8.6658
G01 X3.8373 Y8.6704
G01 X3.8250 Y8.6707
G01 X3.8127 Y8.6704
G01 X3.7343 Y8.6666
G01 X3.7220 Y8.6657
G01 X3.7098 Y8.6642
G01 X3.6321 Y8.6527
G01 X3.6200 Y8.6506
G01 X3.6080 Y8.6479
G01 X3.5318 Y8.6288
G01 X3.5201 Y8.6255
G01 X3.5083 Y8.6216
G01 X3.4344 Y8.5952
G01 X3.4229 Y8.5908
G01 X3.4116 Y8.5858
G01 X3.3407 Y8.5522
G01 X3.3297 Y8.5467
G01 X3.3190 Y8.5406
G01 X3.2516 Y8.5002
G01 X3.2408 Y8.4933
G01 X3.2312 Y8.4866
G01 X3.1591 Y8.4328
G01 X3.1491 Y8.4242
G01 X3.0909 Y8.3715
G01 X3.0820 Y8.3630
G01 X3.0735 Y8.3541
G01 X3.0208 Y8.2959
G01 X3.0089 Y8.2818
G01 X2.9584 Y8.2138
G01 X2.9513 Y8.2038
G01 X2.9448 Y8.1934
G01 X2.8986 Y8.1158
G01 X2.8928 Y8.1043
G01 X2.8592 Y8.0334
G01 X2.8542 Y8.0220
G01 X2.8498 Y8.0106
G01 X2.8234 Y7.9367
G01 X2.8195 Y7.9250
G01 X2.8162 Y7.9132
G01 X2.7971 Y7.8370
G01 X2.7944 Y7.8250
G01 X2.7923 Y7.8129
G01 X2.7808 Y7.7352
G01 X2.7792 Y7.7221
G01 X2.7746 Y7.6323
G01 X2.7743 Y7.6138
G01 X2.7784 Y7.5293
G01 X2.7793 Y7.5170
G01 X2.7808 Y7.5048
G01 X2.7923 Y7.4271
G01 X2.7944 Y7.4150
G01 X2.7971 Y7.4030
G01 X2.8162 Y7.3268
G01 X2.8195 Y7.3150
G01 X2.8234 Y7.3033
G01 X2.8498 Y7.2294
G01 X2.8542 Y7.2179
G01 X2.8592 Y7.2066
G01 X2.8928 Y7.1357
G01 X2.8983 Y7.1247
G01 X2.9044 Y7.1140
G01 X2.9448 Y7.0466
G01 X2.9517 Y7.0358
G01 X2.9584 Y7.0262
G01 X3.0122 Y6.9541
G01 X3.0197 Y6.9454
G01 X3.0740 Y6.8854
G01 X3.0740 Y6.3307
G01 X2.8725 Y6.3307
G01 X2.8602 Y6.3304
G01 X2.8479 Y6.3295
G01 X2.8357 Y6.3280
G01 X2.8236 Y6.3259
G01 X2.8056 Y6.3217
G01 X2.7938 Y6.3181
G01 X2.7823 Y6.3139
G01 X2.7709 Y6.3092
G01 X2.7598 Y6.3040
G01 X2.7489 Y6.2982
G01 X2.7384 Y6.2918
G01 X2.7231 Y6.2814
G01 X2.7134 Y6.2738
G01 X2.6996 Y6.2616
G01 X2.6867 Y6.2484
G01 X2.6748 Y6.2343
G01 X2.6675 Y6.2244
G01 X2.6574 Y6.2089
G01 X2.6514 Y6.1982
G01 X2.6433 Y6.1816
G01 X2.6364 Y6.1645
G01 X2.6308 Y6.1469
G01 X2.6279 Y6.1349
G01 X2.6245 Y6.1168
G01 X2.6224 Y6.0984
G01 X2.6218 Y6.0800
G00 Z2.0000
G00 X2.7531 Y6.0800
G01 F60.00
G01 Z-0.1100
G01 F120.00
G01 X2.7531 Y4.0771
G01 X2.7540 Y4.0654
G01 X2.7560 Y4.0538
G01 X2.7591 Y4.0425
G01 X2.7633 Y4.0316
G01 X2.7686 Y4.0211
G01 X2.7749 Y4.0112
G01 X2.7802 Y4.0043
G01 X2.7881 Y3.9956
G01 X2.7968 Y3.9877
G01 X2.8037 Y3.9824
G01 X2.8136 Y3.9761
G01 X2.8241 Y3.9708
G01 X2.8350 Y3.9666
G01 X2.8463 Y3.9635
G01 X2.8579 Y3.9615
G01 X2.8696 Y3.9606
G01 X4.7775 Y3.9606
G01 X4.7892 Y3.9612
G01 X4.8008 Y3.9629
G01 X4.8122 Y3.9657
G01 X4.8232 Y3.9697
G01 X4.8338 Y3.9747
G01 X4.8438 Y3.9807
G01 X4.8532 Y3.9877
G01 X4.8619 Y3.9956
G01 X4.8679 Y4.0020
G01 X4.8751 Y4.0112
G01 X4.8814 Y4.0211
G01 X4.8867 Y4.0316
G01 X4.8909 Y4.0425
G01 X4.8940 Y4.0538
G01 X4.8960 Y4.0654
G01 X4.8969 Y4.0771
G01 X4.8969 Y6.0800
G01 X4.8963 Y6.0917
G01 X4.8946 Y6.1033
G01 X4.8926 Y6.1118
G01 X4.8899 Y6.1202
G01 X4.8867 Y6.1284
G01 X4.8828 Y6.1363
G01 X4.8784 Y6.1439
G01 X4.8734 Y6.1511
G01 X4.8679 Y6.1580
G01 X4.8619 Y6.1644
G01 X4.8555 Y6.1704
G01 X4.8486 Y6.1759
G01 X4.8364 Y6.1839
G01 X4.8285 Y6.1879
G01 X4.8205 Y6.1914
G01 X4.8122 Y6.1943
G01 X4.8037 Y6.1965
G01 X4.7921 Y6.1985
G01 X4.7775 Y6.1994
G01 X4.4447 Y6.1994
G01 X4.4447 Y6.9421
G01 X4.4709 Y6.9658
G01 X4.4772 Y6.9720
G01 X4.5338 Y7.0345
G01 X4.5393 Y7.0414
G01 X4.5878 Y7.1068
G01 X4.5926 Y7.1142
G01 X4.6357 Y7.1864
G01 X4.6720 Y7.2628
G01 X4.6755 Y7.2710
G01 X4.7030 Y7.3475
G01 X4.7064 Y7.3588
G01 X4.7267 Y7.4406
G01 X4.7393 Y7.5241
G01 X4.7404 Y7.5357
G01 X4.7444 Y7.6200
G01 X4.7404 Y7.7043
G01 X4.7396 Y7.7130
G01 X4.7267 Y7.7994
G01 X4.7064 Y7.8812
G01 X4.7030 Y7.8924
G01 X4.6765 Y7.9664
G01 X4.6720 Y7.9772
G01 X4.6358 Y8.0534
G01 X4.5926 Y8.1258
G01 X4.5861 Y8.1356
G01 X4.5360 Y8.2029
G01 X4.4751 Y8.2701
G01 X4.4083 Y8.3307
G01 X4.3382 Y8.3828
G01 X4.3308 Y8.3876
G01 X4.2586 Y8.4307
G01 X4.1768 Y8.4694
G01 X4.0919 Y8.4998
G01 X4.0046 Y8.5217
G01 X3.9147 Y8.5350
G01 X3.8250 Y8.5394
G01 X3.7349 Y8.5350
G01 X3.6456 Y8.5217
G01 X3.5582 Y8.4998
G01 X3.4732 Y8.4694
G01 X3.3916 Y8.4308
G01 X3.3140 Y8.3843
G01 X3.2421 Y8.3310
G01 X3.1749 Y8.2701
G01 X3.1143 Y8.2033
G01 X3.0622 Y8.1332
G01 X3.0574 Y8.1258
G01 X3.0143 Y8.0536
G01 X2.9780 Y7.9772
G01 X2.9735 Y7.9664
G01 X2.9470 Y7.8925
G01 X2.9436 Y7.8812
G01 X2.9233 Y7.7994
G01 X2.9100 Y7.7097
G01 X2.9056 Y7.6200
G01 X2.9098 Y7.5328
G01 X2.9107 Y7.5241
G01 X2.9233 Y7.4406
G01 X2.9452 Y7.3531
G01 X2.9756 Y7.2682
G01 X3.0128 Y7.1892
G01 X3.0171 Y7.1815
G01 X3.0607 Y7.1090
G01 X3.1123 Y7.0392
G01 X3.1181 Y7.0323
G01 X3.1728 Y6.9720
G01 X3.1791 Y6.9658
G01 X3.2053 Y6.9421
G01 X3.2053 Y6.1994
G01 X2.8725 Y6.1994
G01 X2.8579 Y6.1985
G01 X2.8492 Y6.1971
G01 X2.8407 Y6.1951
G01 X2.8295 Y6.1914
G01 X2.8215 Y6.1879
G01 X2.8136 Y6.1839
G01 X2.8062 Y6.1793
G01 X2.7990 Y6.1741
G01 X2.7923 Y6.1685
G01 X2.7840 Y6.1602
G01 X2.7784 Y6.1535
G01 X2.7732 Y6.1463
G01 X2.7686 Y6.1389
G01 X2.7646 Y6.1310
G01 X2.7601 Y6.1202
G01 X2.7567 Y6.1090
G01 X2.7549 Y6.1004
G01 X2.7534 Y6.0888
G01 X2.7531 Y6.0800
G00 Z2.0000
G00 X4.8829 Y7.0943
G01 F60.00
G01 Z-0.1100
G01 F120.00
G01 X4.8712 Y7.0699
G01 X4.8628 Y7.0542
G01 X4.8179 Y6.9791
G01 X4.8079 Y6.9633
G01 X4.7971 Y6.9479
G01 X4.7446 Y6.8774
G01 X4.7327 Y6.8629
G01 X4.7073 Y6.8347
G01 X4.7073 Y6.4621
G01 X4.7869 Y6.4620
G01 X4.8150 Y6.4602
G01 X4.8336 Y6.4579
G01 X4.8520 Y6.4547
G01 X4.8703 Y6.4506
G01 X4.8904 Y6.4450
G01 X4.8871 Y6.4639
G01 X4.8848 Y6.4825
G01 X4.8834 Y6.5013
G01 X4.8829 Y6.5200
G01 X4.8829 Y7.0943
G00 Z2.0000
G00 X5.1521 Y6.1550
G01 F60.00
G01 Z-0.1100
G01 F120.00
G01 X5.1567 Y6.1268
G01 X5.1585 Y6.1081
G01 X5.1595 Y6.0894
G01 X5.1596 Y5.6976
G01 X5.1803 Y5.7415
G01 X5.1927 Y5.7652
G01 X5.2502 Y5.8611
G01 X5.2661 Y5.8843
G01 X5.3218 Y5.9594
G01 X5.3394 Y5.9813
G01 X5.4084 Y6.0576
G01 X5.4213 Y6.0712
G01 X5.4349 Y6.0841
G01 X5.4827 Y6.1274
G01 X5.4827 Y6.1379
G01 X5.2650 Y6.1379
G01 X5.2463 Y6.1384
G01 X5.2275 Y6.1398
G01 X5.1997 Y6.1435
G01 X5.1722 Y6.1494
G01 X5.1521 Y6.1550
G00 Z2.0000
G00 X5.2496 Y4.2999
G01 F60.00
G01 Z-0.1100
G01 F120.00
G01 X5.1925 Y4.3952
G01 X5.1837 Y4.4117
G01 X5.1596 Y4.4624
G01 X5.1596 Y4.2764
G01 X5.1763 Y4.2822
G01 X5.1941 Y4.2874
G01 X5.2122 Y4.2918
G01 X5.2496 Y4.2999
G00 Z2.0000
G00 X7.6350 Y4.6238
G01 F60.00
G01 Z-0.1100
G01 F120.00
G01 X7.6202 Y4.5826
G01 X7.6330 Y4.5822
G01 X7.6503 Y4.5810
G01 X7.6350 Y4.6238
G00 Z2.0000
G00 X7.6534 Y6.0424
G01 F60.00
G01 Z-0.1100
G01 F120.00
G01 X7.6261 Y6.0325
G01 X7.6140 Y6.0287
G01 X7.5898 Y6.0220
G01 X7.5652 Y6.0164
G01 X7.5528 Y6.0141
G01 X7.5333 Y6.0112
G01 X7.5694 Y5.9625
G01 X7.5832 Y5.9429
G01 X7.5973 Y5.9206
G01 X7.6350 Y5.8578
G01 X7.6793 Y5.9314
G01 X7.6933 Y5.9523
G01 X7.7183 Y5.9863
G01 X7.6534 Y6.0424
G00 Z2.0000
G00 X7.6821 Y6.2056
G01 F60.00
G01 Z-0.1100
G01 F120.00
G01 X7.6614 Y6.1923
G01 X7.6451 Y6.1830
G01 X7.6198 Y6.1707
G01 X7.6025 Y6.1635
G01 X7.5849 Y6.1572
G01 X7.5578 Y6.1494
G01 X7.5395 Y6.1453
G01 X7.5211 Y6.1421
G01 X7.5025 Y6.1398
G01 X7.4744 Y6.1380
G01 X7.2473 Y6.1379
G01 X7.2473 Y6.1274
G01 X7.2951 Y6.0841
G01 X7.3087 Y6.0712
G01 X7.3216 Y6.0576
G01 X7.3919 Y5.9798
G01 X7.4082 Y5.9594
G01 X7.4639 Y5.8843
G01 X7.4795 Y5.8615
G01 X7.5328 Y5.7729
G01 X7.5420 Y5.7566
G01 X7.5504 Y5.7399
G01 X7.5904 Y5.6554
G01 X7.5980 Y5.6382
G01 X7.6047 Y5.6207
G01 X7.6350 Y5.5362
G01 X7.6653 Y5.6207
G01 X7.6719 Y5.6381
G01 X7.6796 Y5.6554
G01 X7.7203 Y5.7415
G01 X7.7327 Y5.7652
G01 X7.7853 Y5.8531
G01 X7.8006 Y5.8767
G01 X7.8675 Y5.9668
G01 X7.8794 Y5.9813
G01 X7.9158 Y6.0217
G01 X7.9025 Y6.0269
G01 X7.8854 Y6.0343
G01 X7.8598 Y6.0475
G01 X7.8352 Y6.0626
G01 X7.8118 Y6.0795
G01 X7.7969 Y6.0917
G01 X7.7433 Y6.1382
G01 X7.7298 Y6.1505
G01 X7.7169 Y6.1634
G01 X7.7046 Y6.1770
G01 X7.6930 Y6.1911
G01 X7.6821 Y6.2056
G00 Z2.0000
G00 X9.5244 Y6.3171
G01 F60.00
G01 Z-0.1100
G01 F120.00
G01 X9.5244 Y6.0012
G01 X9.5850 Y5.9561
G01 X9.6587 Y5.8895
G01 X9.6650 Y5.8834
G01 X9.7298 Y5.8119
G01 X9.7355 Y5.8051
G01 X9.7944 Y5.7258
G01 X9.8104 Y5.6997
G01 X10.1180 Y5.6997
G01 X10.0749 Y5.7924
G01 X9.9510 Y5.9742
G01 X9.7986 Y6.1336
G01 X9.6223 Y6.2661
G01 X9.5244 Y6.3171
G00 Z2.0000
G00 X9.6557 Y6.0767
G01 F60.00
G01 Z-0.1100
G01 F120.00
G01 X9.6557 Y6.0673
G01 X9.6683 Y6.0576
G01 X9.6776 Y6.0496
G01 X9.7469 Y5.9868
G01 X9.7558 Y5.9783
G01 X9.7643 Y5.9694
G01 X9.8320 Y5.8946
G01 X9.8427 Y5.8811
G01 X9.8799 Y5.8310
G01 X9.8896 Y5.8310
G01 X9.8484 Y5.8914
G01 X9.7110 Y6.0353
G01 X9.6557 Y6.0767
G00 Z2.0000
G00 X9.6557 Y4.0838
G01 F60.00
G01 Z-0.1100
G01 F120.00
G01 X9.7329 Y4.1447
G01 X9.8668 Y4.2918
G01 X9.8908 Y4.3290
G01 X9.8799 Y4.3290
G01 X9.8427 Y4.2789
G01 X9.8351 Y4.2692
G01 X9.8271 Y4.2599
G01 X9.7643 Y4.1906
G01 X9.7558 Y4.1817
G01 X9.7469 Y4.1732
G01 X9.6776 Y4.1104
G01 X9.6677 Y4.1018
G01 X9.6557 Y4.0927
G01 X9.6557 Y4.0838
G00 Z2.0000
G00 X9.5244 Y3.8425
G01 F60.00
G01 Z-0.1100
G01 F120.00
G01 X9.6499 Y3.9118
G01 X9.8229 Y4.0485
G01 X9.9713 Y4.2116
G01 X10.0908 Y4.3964
G01 X10.1187 Y4.4603
G01 X9.8104 Y4.4603
G01 X9.7946 Y4.4346
G01 X9.7354 Y4.3548
G01 X9.7298 Y4.3481
G01 X9.6650 Y4.2766
G01 X9.6587 Y4.2705
G01 X9.5868 Y4.2054
G01 X9.5804 Y4.2003
G01 X9.5244 Y4.1588
G01 X9.5244 Y3.8425
G00 Z2.0000
G00 X7.5416 Y9.4730
G01 F60.00
G01 Z-0.1100
G01 F120.00
G01 X7.5055 Y9.4131
G01 X7.4915 Y9.3921
G01 X7.4841 Y9.3819
G01 X7.4268 Y9.3049
G01 X7.4108 Y9.2854
G01 X7.3787 Y9.2497
G01 X7.3787 Y9.2334
G01 X7.4650 Y9.2334
G01 X7.4902 Y9.2328
G01 X7.5153 Y9.2309
G01 X7.5278 Y9.2296
G01 X7.5484 Y9.2266
G01 X7.5454 Y9.2472
G01 X7.5441 Y9.2597
G01 X7.5422 Y9.2848
G01 X7.5417 Y9.2974
G01 X7.5416 Y9.4730
G00 Z2.0000
G00 X7.4804 Y10.6811
G01 F60.00
G01 Z-0.1100
G01 F120.00
G01 X7.4996 Y10.6401
G01 X7.5068 Y10.6228
G01 X7.5412 Y10.5265
G01 X7.5490 Y10.4996
G01 X7.5693 Y10.4187
G01 X7.5751 Y10.3911
G01 X7.5889 Y10.2994
G01 X7.5911 Y10.2808
G01 X7.5925 Y10.2621
G01 X7.5966 Y10.1787
G01 X7.5970 Y10.1506
G01 X7.5925 Y10.0579
G01 X7.5913 Y10.0405
G01 X7.5889 Y10.0206
G01 X7.5766 Y9.9381
G01 X7.5734 Y9.9196
G01 X7.5693 Y9.9013
G01 X7.5490 Y9.8204
G01 X7.5440 Y9.8023
G01 X7.5381 Y9.7845
G01 X7.5100 Y9.7060
G01 X7.5035 Y9.6889
G01 X7.4957 Y9.6714
G01 X7.4600 Y9.5960
G01 X7.4512 Y9.5784
G01 X7.4424 Y9.5629
G01 X7.3995 Y9.4913
G01 X7.3841 Y9.4678
G01 X7.3289 Y9.3932
G01 X7.3174 Y9.3784
G01 X7.3052 Y9.3642
G01 X7.2473 Y9.3004
G01 X7.2473 Y9.1021
G01 X7.4744 Y9.1020
G01 X7.5025 Y9.1002
G01 X7.5211 Y9.0979
G01 X7.5395 Y9.0947
G01 X7.5669 Y9.0882
G01 X7.5937 Y9.0797
G01 X7.6198 Y9.0693
G01 X7.6368 Y9.0613
G01 X7.6533 Y9.0524
G01 X7.6773 Y9.0377
G01 X7.7001 Y9.0212
G01 X7.7195 Y9.0050
G01 X7.7487 Y9.0385
G01 X7.7678 Y9.0581
G01 X7.7596 Y9.0676
G01 X7.7481 Y9.0824
G01 X7.7322 Y9.1056
G01 X7.7226 Y9.1217
G01 X7.7137 Y9.1382
G01 X7.7020 Y9.1638
G01 X7.6953 Y9.1813
G01 X7.6894 Y9.1991
G01 X7.6822 Y9.2263
G01 X7.6785 Y9.2447
G01 X7.6758 Y9.2632
G01 X7.6734 Y9.2913
G01 X7.6729 Y9.3100
G01 X7.6729 Y10.7312
G01 X7.6490 Y10.7189
G01 X7.6229 Y10.7078
G01 X7.6053 Y10.7015
G01 X7.5785 Y10.6938
G01 X7.5603 Y10.6898
G01 X7.5327 Y10.6853
G01 X7.5142 Y10.6835
G01 X7.4804 Y10.6811
G00 Z2.0000
G00 X5.1456 Y8.7200
G01 F60.00
G01 Z-0.1100
G01 F120.00
G01 X5.1456 Y6.5200
G01 X5.1465 Y6.5054
G01 X5.1492 Y6.4910
G01 X5.1516 Y6.4825
G01 X5.1547 Y6.4743
G01 X5.1583 Y6.4663
G01 X5.1626 Y6.4586
G01 X5.1674 Y6.4512
G01 X5.1727 Y6.4443
G01 X5.1785 Y6.4377
G01 X5.1848 Y6.4315
G01 X5.1915 Y6.4259
G01 X5.1987 Y6.4207
G01 X5.2061 Y6.4161
G01 X5.2140 Y6.4121
G01 X5.2220 Y6.4086
G01 X5.2303 Y6.4057
G01 X5.2388 Y6.4035
G01 X5.2475 Y6.4019
G01 X5.2562 Y6.4009
G01 X5.2650 Y6.4006
G01 X5.7453 Y6.4006
G01 X5.7453 Y6.0010
G01 X5.6896 Y5.9597
G01 X5.6832 Y5.9546
G01 X5.6071 Y5.8854
G01 X5.5364 Y5.8075
G01 X5.4737 Y5.7230
G01 X5.4198 Y5.6330
G01 X5.3747 Y5.5376
G01 X5.3393 Y5.4387
G01 X5.3150 Y5.3423
G01 X5.3127 Y5.3308
G01 X5.2990 Y5.2384
G01 X5.2980 Y5.2290
G01 X5.2931 Y5.1304
G01 X5.2932 Y5.0266
G01 X5.2983 Y4.9274
G01 X5.3127 Y4.8292
G01 X5.3150 Y4.8177
G01 X5.3377 Y4.7270
G01 X5.3401 Y4.7186
G01 X5.3747 Y4.6223
G01 X5.4197 Y4.5272
G01 X5.4739 Y4.4368
G01 X5.5362 Y4.3528
G01 X5.6071 Y4.2746
G01 X5.6850 Y4.2039
G01 X5.7695 Y4.1412
G01 X5.8595 Y4.0873
G01 X5.9549 Y4.0422
G01 X6.0538 Y4.0068
G01 X6.1559 Y3.9812
G01 X6.2603 Y3.9657
G01 X6.3650 Y3.9606
G01 X6.4701 Y3.9658
G01 X6.5741 Y3.9812
G01 X6.6705 Y4.0052
G01 X6.6789 Y4.0076
G01 X6.7752 Y4.0422
G01 X6.8651 Y4.0845
G01 X6.8754 Y4.0901
G01 X6.9607 Y4.1414
G01 X7.0447 Y4.2037
G01 X7.1187 Y4.2705
G01 X7.1270 Y4.2788
G01 X7.1936 Y4.3525
G01 X7.2563 Y4.4370
G01 X7.3074 Y4.5221
G01 X7.3127 Y4.5319
G01 X7.3553 Y4.6224
G01 X7.3889 Y4.7158
G01 X7.3923 Y4.7270
G01 X7.4163 Y4.8234
G01 X7.4314 Y4.9247
G01 X7.4322 Y4.9333
G01 X7.4369 Y5.0296
G01 X7.4369 Y5.1275
G01 X7.4322 Y5.2267
G01 X7.4314 Y5.2355
G01 X7.4163 Y5.3366
G01 X7.3923 Y5.4330
G01 X7.3889 Y5.4442
G01 X7.3553 Y5.5377
G01 X7.3130 Y5.6276
G01 X7.3074 Y5.6379
G01 X7.2561 Y5.7232
G01 X7.1938 Y5.8072
G01 X7.1270 Y5.8812
G01 X7.1187 Y5.8895
G01 X7.0450 Y5.9561
G01 X6.9847 Y6.0010
G01 X6.9847 Y6.4006
G01 X7.4650 Y6.4006
G01 X7.4767 Y6.4012
G01 X7.4883 Y6.4029
G01 X7.4968 Y6.4049
G01 X7.5052 Y6.4076
G01 X7.5134 Y6.4108
G01 X7.5239 Y6.4161
G01 X7.5313 Y6.4207
G01 X7.5407 Y6.4277
G01 X7.5494 Y6.4356
G01 X7.5554 Y6.4420
G01 X7.5609 Y6.4489
G01 X7.5674 Y6.4586
G01 X7.5729 Y6.4689
G01 X7.5764 Y6.4770
G01 X7.5793 Y6.4853
G01 X7.5815 Y6.4938
G01 X7.5831 Y6.5025
G01 X7.5843 Y6.5141
G01 X7.5844 Y8.7200
G01 X7.5841 Y8.7288
G01 X7.5831 Y8.7375
G01 X7.5815 Y8.7462
G01 X7.5784 Y8.7575
G01 X7.5753 Y8.7657
G01 X7.5717 Y8.7737
G01 X7.5674 Y8.7814
G01 X7.5626 Y8.7888
G01 X7.5573 Y8.7957
G01 X7.5515 Y8.8023
G01 X7.5452 Y8.8085
G01 X7.5385 Y8.8141
G01 X7.5313 Y8.8193
G01 X7.5213 Y8.8253
G01 X7.5134 Y8.8292
G01 X7.5052 Y8.8324
G01 X7.4940 Y8.8358
G01 X7.4854 Y8.8376
G01 X7.4738 Y8.8391
G01 X7.4650 Y8.8394
G01 X6.9847 Y8.8394
G01 X6.9847 Y9.4147
G01 X7.0505 Y9.4745
G01 X7.1105 Y9.5406
G01 X7.1180 Y9.5496
G01 X7.1677 Y9.6166
G01 X7.1742 Y9.6264
G01 X7.2198 Y9.7028
G01 X7.2582 Y9.7837
G01 X7.2627 Y9.7945
G01 X7.2927 Y9.8786
G01 X7.3158 Y9.9709
G01 X7.3298 Y10.0654
G01 X7.3344 Y10.1600
G01 X7.3297 Y10.2550
G01 X7.3158 Y10.3491
G01 X7.2927 Y10.4414
G01 X7.2627 Y10.5255
G01 X7.2582 Y10.5363
G01 X7.2226 Y10.6117
G01 X7.2170 Y10.6221
G01 X7.1709 Y10.6988
G01 X7.1180 Y10.7704
G01 X7.1111 Y10.7788
G01 X7.0505 Y10.8455
G01 X6.9800 Y10.9094
G01 X6.9036 Y10.9660
G01 X6.8222 Y11.0148
G01 X6.7358 Y11.0557
G01 X6.6464 Y11.0877
G01 X6.5541 Y11.1108
G01 X6.4596 Y11.1248
G01 X6.3650 Y11.1294
G01 X6.2700 Y11.1247
G01 X6.1759 Y11.1108
G01 X6.0837 Y11.0877
G01 X5.9940 Y11.0556
G01 X5.9080 Y11.0149
G01 X5.8262 Y10.9659
G01 X5.7503 Y10.9096
G01 X5.6795 Y10.8455
G01 X5.6156 Y10.7750
G01 X5.5590 Y10.6986
G01 X5.5102 Y10.6172
G01 X5.4693 Y10.5308
G01 X5.4373 Y10.4414
G01 X5.4142 Y10.3491
G01 X5.4002 Y10.2546
G01 X5.3956 Y10.1600
G01 X5.4000 Y10.0679
G01 X5.4010 Y10.0592
G01 X5.4142 Y9.9709
G01 X5.4373 Y9.8786
G01 X5.4694 Y9.7890
G01 X5.5101 Y9.7030
G01 X5.5591 Y9.6212
G01 X5.6154 Y9.5453
G01 X5.6795 Y9.4745
G01 X5.7453 Y9.4147
G01 X5.7453 Y8.8394
G01 X5.2650 Y8.8394
G01 X5.2533 Y8.8388
G01 X5.2417 Y8.8371
G01 X5.2303 Y8.8343
G01 X5.2220 Y8.8314
G01 X5.2113 Y8.8267
G01 X5.2036 Y8.8224
G01 X5.1962 Y8.8176
G01 X5.1870 Y8.8104
G01 X5.1785 Y8.8023
G01 X5.1727 Y8.7957
G01 X5.1657 Y8.7863
G01 X5.1611 Y8.7789
G01 X5.1571 Y8.7710
G01 X5.1526 Y8.7602
G01 X5.1492 Y8.7490
G01 X5.1474 Y8.7404
G01 X5.1459 Y8.7288
G01 X5.1456 Y8.7200
G00 Z2.0000
G00 X5.0143 Y8.7200
G01 F60.00
G01 Z-0.1100
G01 F120.00
G01 X5.0143 Y6.5200
G01 X5.0146 Y6.5077
G01 X5.0161 Y6.4893
G01 X5.0191 Y6.4711
G01 X5.0218 Y6.4591
G01 X5.0269 Y6.4413
G01 X5.0333 Y6.4240
G01 X5.0410 Y6.4073
G01 X5.0468 Y6.3964
G01 X5.0532 Y6.3859
G01 X5.0636 Y6.3706
G01 X5.0712 Y6.3609
G01 X5.0834 Y6.3471
G01 X5.0966 Y6.3342
G01 X5.1059 Y6.3262
G01 X5.1156 Y6.3186
G01 X5.1309 Y6.3082
G01 X5.1468 Y6.2989
G01 X5.1578 Y6.2933
G01 X5.1748 Y6.2861
G01 X5.1863 Y6.2819
G01 X5.2041 Y6.2768
G01 X5.2221 Y6.2730
G01 X5.2404 Y6.2705
G01 X5.2588 Y6.2693
G01 X5.6140 Y6.2693
G01 X5.6140 Y6.0671
G01 X5.6023 Y6.0582
G01 X5.5924 Y6.0496
G01 X5.5231 Y5.9868
G01 X5.5142 Y5.9783
G01 X5.5057 Y5.9694
G01 X5.4429 Y5.9001
G01 X5.4349 Y5.8908
G01 X5.4273 Y5.8811
G01 X5.3716 Y5.8060
G01 X5.3645 Y5.7960
G01 X5.3580 Y5.7856
G01 X5.3041 Y5.6952
G01 X5.2983 Y5.6837
G01 X5.2583 Y5.5992
G01 X5.2533 Y5.5879
G01 X5.2489 Y5.5765
G01 X5.2174 Y5.4885
G01 X5.2136 Y5.4768
G01 X5.2103 Y5.4649
G01 X5.1862 Y5.3683
G01 X5.1828 Y5.3501
G01 X5.1691 Y5.2577
G01 X5.1675 Y5.2446
G01 X5.1621 Y5.1398
G01 X5.1618 Y5.1275
G01 X5.1618 Y5.0263
G01 X5.1670 Y4.9207
G01 X5.1691 Y4.9023
G01 X5.1828 Y4.8099
G01 X5.1849 Y4.7978
G01 X5.1876 Y4.7858
G01 X5.2103 Y4.6951
G01 X5.2136 Y4.6833
G01 X5.2174 Y4.6716
G01 X5.2511 Y4.5778
G01 X5.2583 Y4.5608
G01 X5.2983 Y4.4763
G01 X5.3038 Y4.4653
G01 X5.3099 Y4.4546
G01 X5.3580 Y4.3744
G01 X5.3649 Y4.3635
G01 X5.3716 Y4.3540
G01 X5.4343 Y4.2698
G01 X5.4429 Y4.2599
G01 X5.5057 Y4.1906
G01 X5.5142 Y4.1817
G01 X5.5231 Y4.1732
G01 X5.5924 Y4.1104
G01 X5.6017 Y4.1024
G01 X5.6114 Y4.0948
G01 X5.6865 Y4.0391
G01 X5.6965 Y4.0320
G01 X5.7069 Y4.0255
G01 X5.7973 Y3.9716
G01 X5.8088 Y3.9658
G01 X5.8933 Y3.9258
G01 X5.9046 Y3.9208
G01 X5.9160 Y3.9164
G01 X6.0040 Y3.8849
G01 X6.0157 Y3.8811
G01 X6.0276 Y3.8778
G01 X6.1183 Y3.8551
G01 X6.1303 Y3.8524
G01 X6.1424 Y3.8503
G01 X6.2348 Y3.8366
G01 X6.2479 Y3.8350
G01 X6.3527 Y3.8296
G01 X6.3650 Y3.8293
G01 X6.3773 Y3.8296
G01 X6.4707 Y3.8341
G01 X6.4829 Y3.8351
G01 X6.4952 Y3.8366
G01 X6.5876 Y3.8503
G01 X6.5997 Y3.8524
G01 X6.6117 Y3.8551
G01 X6.7024 Y3.8778
G01 X6.7142 Y3.8811
G01 X6.7259 Y3.8849
G01 X6.8197 Y3.9186
G01 X6.8367 Y3.9258
G01 X6.9212 Y3.9658
G01 X6.9322 Y3.9713
G01 X6.9429 Y3.9774
G01 X7.0231 Y4.0255
G01 X7.0340 Y4.0324
G01 X7.1186 Y4.0948
G01 X7.1277 Y4.1018
G01 X7.1364 Y4.1093
G01 X7.2069 Y4.1732
G01 X7.2158 Y4.1817
G01 X7.2243 Y4.1906
G01 X7.2871 Y4.2599
G01 X7.2951 Y4.2692
G01 X7.3027 Y4.2789
G01 X7.3584 Y4.3540
G01 X7.3655 Y4.3640
G01 X7.3720 Y4.3744
G01 X7.4201 Y4.4546
G01 X7.4259 Y4.4648
G01 X7.4312 Y4.4752
G01 X7.4717 Y4.5608
G01 X7.4767 Y4.5721
G01 X7.4811 Y4.5835
G01 X7.5126 Y4.6715
G01 X7.5164 Y4.6832
G01 X7.5197 Y4.6951
G01 X7.5424 Y4.7858
G01 X7.5451 Y4.7978
G01 X7.5472 Y4.8099
G01 X7.5618 Y4.9089
G01 X7.5634 Y4.9268
G01 X7.5679 Y5.0202
G01 X7.5682 Y5.0325
G01 X7.5682 Y5.1337
G01 X7.5630 Y5.2393
G01 X7.5609 Y5.2577
G01 X7.5472 Y5.3501
G01 X7.5451 Y5.3622
G01 X7.5424 Y5.3742
G01 X7.5197 Y5.4649
G01 X7.5146 Y5.4826
G01 X7.4811 Y5.5765
G01 X7.4766 Y5.5880
G01 X7.4717 Y5.5992
G01 X7.4317 Y5.6837
G01 X7.4262 Y5.6947
G01 X7.4201 Y5.7054
G01 X7.3720 Y5.7856
G01 X7.3651 Y5.7965
G01 X7.3584 Y5.8060
G01 X7.2957 Y5.8902
G01 X7.2871 Y5.9001
G01 X7.2243 Y5.9694
G01 X7.2158 Y5.9783
G01 X7.2069 Y5.9868
G01 X7.1376 Y6.0496
G01 X7.1283 Y6.0576
G01 X7.1160 Y6.0671
G01 X7.1160 Y6.2693
G01 X7.4650 Y6.2693
G01 X7.4773 Y6.2696
G01 X7.4957 Y6.2711
G01 X7.5139 Y6.2741
G01 X7.5319 Y6.2783
G01 X7.5437 Y6.2819
G01 X7.5552 Y6.2861
G01 X7.5722 Y6.2933
G01 X7.5886 Y6.3018
G01 X7.6043 Y6.3115
G01 X7.6193 Y6.3223
G01 X7.6334 Y6.3342
G01 X7.6466 Y6.3471
G01 X7.6588 Y6.3609
G01 X7.6700 Y6.3756
G01 X7.6801 Y6.3911
G01 X7.6890 Y6.4073
G01 X7.6967 Y6.4240
G01 X7.7031 Y6.4413
G01 X7.7082 Y6.4591
G01 X7.7109 Y6.4711
G01 X7.7139 Y6.4893
G01 X7.7154 Y6.5077
G01 X7.7157 Y6.5200
G01 X7.7157 Y8.7200
G01 X7.7151 Y8.7384
G01 X7.7139 Y8.7507
G01 X7.7109 Y8.7689
G01 X7.7082 Y8.7809
G01 X7.7031 Y8.7987
G01 X7.6967 Y8.8160
G01 X7.6890 Y8.8327
G01 X7.6801 Y8.8489
G01 X7.6735 Y8.8593
G01 X7.6627 Y8.8743
G01 X7.6508 Y8.8884
G01 X7.6379 Y8.9016
G01 X7.6288 Y8.9099
G01 X7.6144 Y8.9214
G01 X7.5991 Y8.9318
G01 X7.5832 Y8.9411
G01 X7.5666 Y8.9492
G01 X7.5495 Y8.9561
G01 X7.5319 Y8.9617
G01 X7.5139 Y8.9659
G01 X7.4957 Y8.9689
G01 X7.4834 Y8.9701
G01 X7.4712 Y8.9707
G01 X7.1160 Y8.9707
G01 X7.1160 Y9.3565
G01 X7.1389 Y9.3774
G01 X7.1476 Y9.3861
G01 X7.2119 Y9.4570
G01 X7.2235 Y9.4714
G01 X7.2768 Y9.5434
G01 X7.2868 Y9.5589
G01 X7.3355 Y9.6406
G01 X7.3408 Y9.6511
G01 X7.3796 Y9.7332
G01 X7.3864 Y9.7502
G01 X7.4145 Y9.8288
G01 X7.4183 Y9.8405
G01 X7.4216 Y9.8523
G01 X7.4419 Y9.9332
G01 X7.4446 Y9.9453
G01 X7.4467 Y9.9574
G01 X7.4589 Y10.0399
G01 X7.4605 Y10.0530
G01 X7.4654 Y10.1477
G01 X7.4657 Y10.1600
G01 X7.4654 Y10.1723
G01 X7.4613 Y10.2556
G01 X7.4604 Y10.2679
G01 X7.4589 Y10.2801
G01 X7.4467 Y10.3626
G01 X7.4446 Y10.3747
G01 X7.4419 Y10.3868
G01 X7.4216 Y10.4677
G01 X7.4184 Y10.4795
G01 X7.4145 Y10.4912
G01 X7.3864 Y10.5698
G01 X7.3820 Y10.5812
G01 X7.3770 Y10.5925
G01 X7.3413 Y10.6679
G01 X7.3358 Y10.6789
G01 X7.3297 Y10.6896
G01 X7.2868 Y10.7611
G01 X7.2799 Y10.7720
G01 X7.2731 Y10.7816
G01 X7.2164 Y10.8576
G01 X7.2090 Y10.8663
G01 X7.1518 Y10.9294
G01 X7.1389 Y10.9426
G01 X7.0726 Y11.0028
G01 X7.0633 Y11.0109
G01 X7.0536 Y11.0185
G01 X6.9866 Y11.0681
G01 X6.9765 Y11.0752
G01 X6.9661 Y11.0818
G01 X6.8844 Y11.1305
G01 X6.8729 Y11.1363
G01 X6.7975 Y11.1720
G01 X6.7860 Y11.1771
G01 X6.7748 Y11.1814
G01 X6.6962 Y11.2095
G01 X6.6845 Y11.2133
G01 X6.6727 Y11.2166
G01 X6.5918 Y11.2369
G01 X6.5797 Y11.2396
G01 X6.5676 Y11.2417
G01 X6.4851 Y11.2539
G01 X6.4720 Y11.2555
G01 X6.3773 Y11.2604
G01 X6.3650 Y11.2607
G01 X6.3527 Y11.2604
G01 X6.2694 Y11.2563
G01 X6.2571 Y11.2554
G01 X6.2449 Y11.2539
G01 X6.1624 Y11.2417
G01 X6.1503 Y11.2396
G01 X6.1382 Y11.2369
G01 X6.0573 Y11.2166
G01 X6.0456 Y11.2134
G01 X6.0338 Y11.2095
G01 X5.9552 Y11.1814
G01 X5.9438 Y11.1770
G01 X5.9325 Y11.1720
G01 X5.8571 Y11.1363
G01 X5.8461 Y11.1308
G01 X5.8354 Y11.1247
G01 X5.7639 Y11.0818
G01 X5.7530 Y11.0749
G01 X5.7434 Y11.0681
G01 X5.6674 Y11.0114
G01 X5.6587 Y11.0040
G01 X5.5956 Y10.9468
G01 X5.5824 Y10.9339
G01 X5.5222 Y10.8676
G01 X5.5141 Y10.8583
G01 X5.5065 Y10.8486
G01 X5.4569 Y10.7816
G01 X5.4498 Y10.7715
G01 X5.4432 Y10.7611
G01 X5.3945 Y10.6794
G01 X5.3887 Y10.6679
G01 X5.3530 Y10.5925
G01 X5.3479 Y10.5810
G01 X5.3436 Y10.5698
G01 X5.3155 Y10.4912
G01 X5.3117 Y10.4795
G01 X5.3084 Y10.4677
G01 X5.2881 Y10.3868
G01 X5.2854 Y10.3747
G01 X5.2833 Y10.3626
G01 X5.2711 Y10.2801
G01 X5.2695 Y10.2670
G01 X5.2646 Y10.1723
G01 X5.2643 Y10.1538
G01 X5.2687 Y10.0644
G01 X5.2696 Y10.0521
G01 X5.2711 Y10.0399
G01 X5.2833 Y9.9574
G01 X5.2854 Y9.9453
G01 X5.2881 Y9.9332
G01 X5.3084 Y9.8523
G01 X5.3116 Y9.8405
G01 X5.3155 Y9.8289
G01 X5.3436 Y9.7502
G01 X5.3505 Y9.7331
G01 X5.3887 Y9.6521
G01 X5.3942 Y9.6411
G01 X5.4003 Y9.6304
G01 X5.4432 Y9.5589
G01 X5.4537 Y9.5427
G01 X5.5065 Y9.4714
G01 X5.5172 Y9.4580
G01 X5.5824 Y9.3861
G01 X5.5911 Y9.3774
G01 X5.6140 Y9.3565
G01 X5.6140 Y8.9707
G01 X5.2650 Y8.9707
G01 X5.2527 Y8.9704
G01 X5.2343 Y8.9689
G01 X5.2221 Y8.9670
G01 X5.2101 Y8.9646
G01 X5.1981 Y8.9617
G01 X5.1863 Y8.9581
G01 X5.1690 Y8.9517
G01 X5.1523 Y8.9440
G01 X5.1361 Y8.9351
G01 X5.1206 Y8.9250
G01 X5.1059 Y8.9138
G01 X5.0921 Y8.9016
G01 X5.0792 Y8.8884
G01 X5.0673 Y8.8743
G01 X5.0565 Y8.8593
G01 X5.0468 Y8.8436
G01 X5.0383 Y8.8272
G01 X5.0311 Y8.8102
G01 X5.0251 Y8.7928
G01 X5.0204 Y8.7749
G01 X5.0170 Y8.7568
G01 X5.0149 Y8.7384
G01 X5.0143 Y8.7200
G00 Z2.0000
G00 X4.7750 Y8.3218
G01 F60.00
G01 Z-0.1100
G01 F120.00
G01 X4.8018 Y8.2855
G01 X4.8127 Y8.2692
G01 X4.8179 Y8.2609
G01 X4.8630 Y8.1854
G01 X4.8718 Y8.1689
G01 X4.8829 Y8.1457
G01 X4.8829 Y8.3622
G01 X4.8606 Y8.3507
G01 X4.8350 Y8.3398
G01 X4.8086 Y8.3307
G01 X4.7750 Y8.3218
G00 Z2.0000
G00 X2.9096 Y15.3243
G01 F60.00
G01 Z-0.1100
G01 F120.00
G01 X2.9056 Y15.2400
G01 X2.9100 Y15.1499
G01 X2.9233 Y15.0606
G01 X2.9436 Y14.9788
G01 X2.9470 Y14.9676
G01 X2.9735 Y14.8936
G01 X2.9780 Y14.8828
G01 X3.0142 Y14.8066
G01 X3.0607 Y14.7290
G01 X3.1140 Y14.6571
G01 X3.1708 Y14.5941
G01 X3.1791 Y14.5858
G01 X3.2373 Y14.5331
G01 X3.2464 Y14.5257
G01 X3.3142 Y14.4755
G01 X3.3914 Y14.4293
G01 X3.4733 Y14.3905
G01 X3.5525 Y14.3620
G01 X3.5638 Y14.3586
G01 X3.6399 Y14.3396
G01 X3.6508 Y14.3373
G01 X3.7353 Y14.3250
G01 X3.8250 Y14.3206
G01 X3.9093 Y14.3246
G01 X3.9209 Y14.3257
G01 X4.0044 Y14.3383
G01 X4.0890 Y14.3594
G01 X4.0973 Y14.3620
G01 X4.1714 Y14.3885
G01 X4.1822 Y14.3930
G01 X4.2584 Y14.4292
G01 X4.3335 Y14.4740
G01 X4.3406 Y14.4789
G01 X4.4036 Y14.5257
G01 X4.4100 Y14.5308
G01 X4.4730 Y14.5878
G01 X4.4792 Y14.5941
G01 X4.5029 Y14.6203
G01 X5.4328 Y14.6203
G01 X5.4376 Y14.6133
G01 X5.4994 Y14.5302
G01 X5.5694 Y14.4527
G01 X5.5777 Y14.4444
G01 X5.6549 Y14.3747
G01 X5.7383 Y14.3126
G01 X5.7480 Y14.3061
G01 X5.8371 Y14.2529
G01 X5.9367 Y14.2058
G01 X6.0345 Y14.1706
G01 X6.0457 Y14.1672
G01 X6.1466 Y14.1421
G01 X6.2495 Y14.1267
G01 X6.2611 Y14.1256
G01 X6.3621 Y14.1206
G01 X6.3709 Y14.1207
G01 X6.4747 Y14.1260
G01 X6.5834 Y14.1421
G01 X6.6899 Y14.1688
G01 X6.7934 Y14.2058
G01 X6.8927 Y14.2528
G01 X6.9871 Y14.3094
G01 X7.0748 Y14.3744
G01 X7.1565 Y14.4485
G01 X7.2303 Y14.5299
G01 X7.2957 Y14.6181
G01 X7.3521 Y14.7121
G01 X7.3992 Y14.8118
G01 X7.4362 Y14.9151
G01 X7.4629 Y15.0216
G01 X7.4790 Y15.1307
G01 X7.4844 Y15.2371
G01 X7.4843 Y15.2459
G01 X7.4790 Y15.3497
G01 X7.4629 Y15.4584
G01 X7.4362 Y15.5649
G01 X7.3992 Y15.6684
G01 X7.3522 Y15.7677
G01 X7.2956 Y15.8621
G01 X7.2306 Y15.9498
G01 X7.1565 Y16.0315
G01 X7.0751 Y16.1053
G01 X6.9869 Y16.1707
G01 X6.8929 Y16.2271
G01 X6.7933 Y16.2742
G01 X6.6899 Y16.3112
G01 X6.5834 Y16.3379
G01 X6.4743 Y16.3540
G01 X6.3679 Y16.3594
G01 X6.3591 Y16.3593
G01 X6.2553 Y16.3540
G01 X6.1524 Y16.3389
G01 X6.1409 Y16.3366
G01 X6.0401 Y16.3112
G01 X5.9421 Y16.2763
G01 X5.9313 Y16.2718
G01 X5.8373 Y16.2272
G01 X5.7480 Y16.1739
G01 X5.7383 Y16.1674
G01 X5.6552 Y16.1056
G01 X5.5777 Y16.0356
G01 X5.5694 Y16.0273
G01 X5.4997 Y15.9501
G01 X5.4376 Y15.8667
G01 X5.4328 Y15.8597
G01 X4.5029 Y15.8597
G01 X4.4792 Y15.8859
G01 X4.4730 Y15.8922
G01 X4.4105 Y15.9488
G01 X4.4036 Y15.9543
G01 X4.3406 Y16.0011
G01 X4.3333 Y16.0061
G01 X4.2586 Y16.0507
G01 X4.1822 Y16.0870
G01 X4.1714 Y16.0915
G01 X4.0975 Y16.1180
G01 X4.0891 Y16.1206
G01 X4.0046 Y16.1417
G01 X3.9209 Y16.1543
G01 X3.9093 Y16.1554
G01 X3.8250 Y16.1594
G01 X3.7407 Y16.1554
G01 X3.7291 Y16.1543
G01 X3.6456 Y16.1417
G01 X3.5581 Y16.1198
G01 X3.4732 Y16.0894
G01 X3.3968 Y16.0535
G01 X3.3865 Y16.0479
G01 X3.3140 Y16.0043
G01 X3.2421 Y15.9510
G01 X3.1791 Y15.8942
G01 X3.1708 Y15.8859
G01 X3.1143 Y15.8233
G01 X3.0605 Y15.7508
G01 X3.0171 Y15.6785
G01 X3.0118 Y15.6687
G01 X2.9755 Y15.5917
G01 X2.9452 Y15.5069
G01 X2.9246 Y15.4251
G01 X2.9223 Y15.4136
G01 X2.9107 Y15.3359
G01 X2.9096 Y15.3243
G00 Z2.0000
G00 X2.7784 Y15.3307
G01 F60.00
G01 Z-0.1100
G01 F120.00
G01 X2.7746 Y15.2523
G01 X2.7743 Y15.2400
G01 X2.7746 Y15.2277
G01 X2.7784 Y15.1493
G01 X2.7793 Y15.1370
G01 X2.7808 Y15.1248
G01 X2.7923 Y15.0471
G01 X2.7944 Y15.0350
G01 X2.7971 Y15.0230
G01 X2.8162 Y14.9468
G01 X2.8195 Y14.9350
G01 X2.8234 Y14.9233
G01 X2.8498 Y14.8494
G01 X2.8542 Y14.8379
G01 X2.8592 Y14.8266
G01 X2.8928 Y14.7557
G01 X2.8983 Y14.7447
G01 X2.9044 Y14.7340
G01 X2.9448 Y14.6666
G01 X2.9517 Y14.6558
G01 X2.9584 Y14.6462
G01 X3.0122 Y14.5741
G01 X3.0208 Y14.5641
G01 X3.0735 Y14.5059
G01 X3.0820 Y14.4970
G01 X3.0909 Y14.4885
G01 X3.1491 Y14.4358
G01 X3.1584 Y14.4278
G01 X3.1681 Y14.4202
G01 X3.2312 Y14.3734
G01 X3.2412 Y14.3663
G01 X3.2516 Y14.3598
G01 X3.3293 Y14.3135
G01 X3.3407 Y14.3078
G01 X3.4116 Y14.2742
G01 X3.4232 Y14.2691
G01 X3.5083 Y14.2384
G01 X3.5200 Y14.2345
G01 X3.5318 Y14.2312
G01 X3.6194 Y14.2096
G01 X3.6309 Y14.2075
G01 X3.7098 Y14.1958
G01 X3.7229 Y14.1942
G01 X3.7343 Y14.1934
G01 X3.8127 Y14.1896
G01 X3.8250 Y14.1893
G01 X3.8373 Y14.1896
G01 X3.9157 Y14.1934
G01 X3.9280 Y14.1943
G01 X3.9402 Y14.1958
G01 X4.0179 Y14.2073
G01 X4.0300 Y14.2094
G01 X4.0420 Y14.2121
G01 X4.1182 Y14.2312
G01 X4.1299 Y14.2345
G01 X4.1414 Y14.2383
G01 X4.2156 Y14.2648
G01 X4.2271 Y14.2692
G01 X4.2384 Y14.2742
G01 X4.3093 Y14.3078
G01 X4.3203 Y14.3133
G01 X4.3310 Y14.3194
G01 X4.3984 Y14.3598
G01 X4.4092 Y14.3667
G01 X4.4188 Y14.3734
G01 X4.4909 Y14.4272
G01 X4.4996 Y14.4347
G01 X4.5596 Y14.4890
G01 X5.3663 Y14.4890
G01 X5.3906 Y14.4562
G01 X5.4013 Y14.4428
G01 X5.4763 Y14.3600
G01 X5.4895 Y14.3471
G01 X5.5622 Y14.2812
G01 X5.5763 Y14.2693
G01 X5.6601 Y14.2071
G01 X5.6701 Y14.2000
G01 X5.6805 Y14.1935
G01 X5.7647 Y14.1430
G01 X5.7749 Y14.1372
G01 X5.7854 Y14.1319
G01 X5.8808 Y14.0869
G01 X5.8978 Y14.0800
G01 X5.9902 Y14.0470
G01 X6.0019 Y14.0431
G01 X6.0138 Y14.0398
G01 X6.1090 Y14.0160
G01 X6.1210 Y14.0133
G01 X6.1331 Y14.0112
G01 X6.2302 Y13.9968
G01 X6.2433 Y13.9952
G01 X6.2547 Y13.9944
G01 X6.3527 Y13.9896
G01 X6.3650 Y13.9893
G01 X6.3773 Y13.9896
G01 X6.4753 Y13.9944
G01 X6.4937 Y13.9960
G01 X6.5969 Y14.0112
G01 X6.6090 Y14.0133
G01 X6.6210 Y14.0160
G01 X6.7162 Y14.0398
G01 X6.7279 Y14.0431
G01 X6.7395 Y14.0469
G01 X6.8322 Y14.0800
G01 X6.8436 Y14.0845
G01 X6.8549 Y14.0895
G01 X6.9436 Y14.1314
G01 X6.9546 Y14.1369
G01 X6.9653 Y14.1430
G01 X7.0495 Y14.1935
G01 X7.0604 Y14.2004
G01 X7.1488 Y14.2656
G01 X7.1578 Y14.2726
G01 X7.1665 Y14.2800
G01 X7.2405 Y14.3471
G01 X7.2494 Y14.3556
G01 X7.2579 Y14.3645
G01 X7.3238 Y14.4372
G01 X7.3318 Y14.4465
G01 X7.3394 Y14.4562
G01 X7.3979 Y14.5351
G01 X7.4050 Y14.5451
G01 X7.4115 Y14.5555
G01 X7.4620 Y14.6397
G01 X7.4678 Y14.6499
G01 X7.4731 Y14.6604
G01 X7.5155 Y14.7501
G01 X7.5206 Y14.7616
G01 X7.5250 Y14.7728
G01 X7.5580 Y14.8652
G01 X7.5619 Y14.8769
G01 X7.5652 Y14.8888
G01 X7.5890 Y14.9840
G01 X7.5917 Y14.9960
G01 X7.5938 Y15.0081
G01 X7.6082 Y15.1052
G01 X7.6098 Y15.1183
G01 X7.6154 Y15.2277
G01 X7.6157 Y15.2400
G01 X7.6154 Y15.2523
G01 X7.6106 Y15.3503
G01 X7.6097 Y15.3626
G01 X7.6082 Y15.3748
G01 X7.5938 Y15.4719
G01 X7.5917 Y15.4840
G01 X7.5890 Y15.4960
G01 X7.5652 Y15.5912
G01 X7.5619 Y15.6030
G01 X7.5581 Y15.6147
G01 X7.5250 Y15.7072
G01 X7.5205 Y15.7186
G01 X7.5155 Y15.7299
G01 X7.4736 Y15.8186
G01 X7.4681 Y15.8296
G01 X7.4620 Y15.8403
G01 X7.4115 Y15.9245
G01 X7.4046 Y15.9354
G01 X7.3394 Y16.0238
G01 X7.3324 Y16.0328
G01 X7.3250 Y16.0415
G01 X7.2579 Y16.1155
G01 X7.2494 Y16.1244
G01 X7.2405 Y16.1329
G01 X7.1678 Y16.1988
G01 X7.1585 Y16.2068
G01 X7.1488 Y16.2144
G01 X7.0699 Y16.2729
G01 X7.0599 Y16.2800
G01 X7.0495 Y16.2865
G01 X6.9551 Y16.3428
G01 X6.9446 Y16.3481
G01 X6.8719 Y16.3825
G01 X6.9212 Y16.4058
G01 X6.9376 Y16.4143
G01 X7.0286 Y16.4688
G01 X7.0435 Y16.4791
G01 X7.1232 Y16.5383
G01 X7.1376 Y16.5504
G01 X7.2069 Y16.6132
G01 X7.2158 Y16.6217
G01 X7.2243 Y16.6306
G01 X7.2871 Y16.6999
G01 X7.2990 Y16.7140
G01 X7.3584 Y16.7940
G01 X7.3655 Y16.8040
G01 X7.3720 Y16.8144
G01 X7.4260 Y16.9049
G01 X7.4313 Y16.9155
G01 X7.4717 Y17.0008
G01 X7.4767 Y17.0121
G01 X7.4811 Y17.0235
G01 X7.5126 Y17.1115
G01 X7.5164 Y17.1232
G01 X7.5197 Y17.1351
G01 X7.5424 Y17.2258
G01 X7.5461 Y17.2429
G01 X7.5609 Y17.3423
G01 X7.5631 Y17.3620
G01 X7.5682 Y17.4663
G01 X7.5682 Y17.5675
G01 X7.5679 Y17.5798
G01 X7.5634 Y17.6732
G01 X7.5624 Y17.6854
G01 X7.5609 Y17.6977
G01 X7.5472 Y17.7901
G01 X7.5451 Y17.8022
G01 X7.5424 Y17.8142
G01 X7.5197 Y17.9049
G01 X7.5164 Y17.9167
G01 X7.5126 Y17.9285
G01 X7.4811 Y18.0165
G01 X7.4766 Y18.0280
G01 X7.4717 Y18.0392
G01 X7.4317 Y18.1237
G01 X7.4262 Y18.1347
G01 X7.4201 Y18.1454
G01 X7.3720 Y18.2256
G01 X7.3651 Y18.2365
G01 X7.3584 Y18.2460
G01 X7.2957 Y18.3302
G01 X7.2871 Y18.3401
G01 X7.2243 Y18.4094
G01 X7.2158 Y18.4183
G01 X7.2069 Y18.4268
G01 X7.1376 Y18.4896
G01 X7.1283 Y18.4976
G01 X7.1160 Y18.5071
G01 X7.1160 Y18.9693
G01 X7.4712 Y18.9693
G01 X7.4896 Y18.9705
G01 X7.5079 Y18.9730
G01 X7.5259 Y18.9768
G01 X7.5437 Y18.9819
G01 X7.5610 Y18.9883
G01 X7.5722 Y18.9933
G01 X7.5886 Y19.0018
G01 X7.5991 Y19.0082
G01 X7.6144 Y19.0186
G01 X7.6288 Y19.0301
G01 X7.6379 Y19.0384
G01 X7.6508 Y19.0516
G01 X7.6588 Y19.0609
G01 X7.6700 Y19.0756
G01 X7.6801 Y19.0911
G01 X7.6861 Y19.1018
G01 X7.6942 Y19.1184
G01 X7.6989 Y19.1298
G01 X7.7049 Y19.1472
G01 X7.7082 Y19.1591
G01 X7.7109 Y19.1711
G01 X7.7139 Y19.1893
G01 X7.7154 Y19.2077
G01 X7.7157 Y19.2200
G01 X7.7157 Y21.4200
G01 X7.7151 Y21.4384
G01 X7.7130 Y21.4568
G01 X7.7096 Y21.4749
G01 X7.7067 Y21.4869
G01 X7.7011 Y21.5045
G01 X7.6942 Y21.5216
G01 X7.6861 Y21.5382
G01 X7.6768 Y21.5541
G01 X7.6664 Y21.5694
G01 X7.6549 Y21.5838
G01 X7.6423 Y21.5973
G01 X7.6288 Y21.6099
G01 X7.6144 Y21.6214
G01 X7.5991 Y21.6318
G01 X7.5832 Y21.6411
G01 X7.5666 Y21.6492
G01 X7.5552 Y21.6539
G01 X7.5378 Y21.6599
G01 X7.5199 Y21.6646
G01 X7.5018 Y21.6680
G01 X7.4896 Y21.6695
G01 X7.4773 Y21.6704
G01 X7.4650 Y21.6707
G01 X7.1160 Y21.6707
G01 X7.1160 Y22.0565
G01 X7.1389 Y22.0774
G01 X7.1476 Y22.0861
G01 X7.2119 Y22.1570
G01 X7.2235 Y22.1714
G01 X7.2768 Y22.2434
G01 X7.2868 Y22.2589
G01 X7.3356 Y22.3407
G01 X7.3409 Y22.3513
G01 X7.3770 Y22.4275
G01 X7.3843 Y22.4446
G01 X7.4145 Y22.5288
G01 X7.4183 Y22.5405
G01 X7.4216 Y22.5523
G01 X7.4445 Y22.6447
G01 X7.4465 Y22.6562
G01 X7.4589 Y22.7399
G01 X7.4605 Y22.7530
G01 X7.4613 Y22.7644
G01 X7.4654 Y22.8477
G01 X7.4657 Y22.8600
G01 X7.4654 Y22.8723
G01 X7.4613 Y22.9556
G01 X7.4598 Y22.9740
G01 X7.4467 Y23.0626
G01 X7.4446 Y23.0747
G01 X7.4419 Y23.0868
G01 X7.4216 Y23.1677
G01 X7.4184 Y23.1795
G01 X7.4145 Y23.1911
G01 X7.3864 Y23.2698
G01 X7.3820 Y23.2812
G01 X7.3770 Y23.2925
G01 X7.3413 Y23.3679
G01 X7.3358 Y23.3789
G01 X7.3297 Y23.3896
G01 X7.2868 Y23.4611
G01 X7.2799 Y23.4720
G01 X7.2235 Y23.5486
G01 X7.2164 Y23.5576
G01 X7.2090 Y23.5663
G01 X7.1518 Y23.6294
G01 X7.1433 Y23.6383
G01 X7.1344 Y23.6468
G01 X7.0726 Y23.7028
G01 X7.0633 Y23.7109
G01 X7.0536 Y23.7185
G01 X6.9866 Y23.7681
G01 X6.9765 Y23.7752
G01 X6.9661 Y23.7818
G01 X6.8946 Y23.8247
G01 X6.8844 Y23.8305
G01 X6.8739 Y23.8358
G01 X6.7975 Y23.8720
G01 X6.7860 Y23.8771
G01 X6.7748 Y23.8814
G01 X6.6962 Y23.9095
G01 X6.6845 Y23.9133
G01 X6.6727 Y23.9166
G01 X6.5918 Y23.9369
G01 X6.5797 Y23.9396
G01 X6.5676 Y23.9417
G01 X6.4851 Y23.9539
G01 X6.4720 Y23.9555
G01 X6.4606 Y23.9563
G01 X6.3773 Y23.9604
G01 X6.3650 Y23.9607
G01 X6.3527 Y23.9604
G01 X6.2694 Y23.9563
G01 X6.2571 Y23.9554
G01 X6.2449 Y23.9539
G01 X6.1624 Y23.9417
G01 X6.1503 Y23.9396
G01 X6.1382 Y23.9369
G01 X6.0573 Y23.9166
G01 X6.0455 Y23.9134
G01 X6.0338 Y23.9095
G01 X5.9552 Y23.8814
G01 X5.9438 Y23.8770
G01 X5.9325 Y23.8720
G01 X5.8571 Y23.8363
G01 X5.8461 Y23.8308
G01 X5.8354 Y23.8247
G01 X5.7639 Y23.7818
G01 X5.7477 Y23.7713
G01 X5.6764 Y23.7185
G01 X5.6674 Y23.7114
G01 X5.6574 Y23.7028
G01 X5.5956 Y23.6468
G01 X5.5867 Y23.6383
G01 X5.5782 Y23.6294
G01 X5.5222 Y23.5676
G01 X5.5103 Y23.5535
G01 X5.4569 Y23.4816
G01 X5.4498 Y23.4715
G01 X5.4432 Y23.4611
G01 X5.3944 Y23.3793
G01 X5.3887 Y23.3679
G01 X5.3530 Y23.2925
G01 X5.3480 Y23.2811
G01 X5.3436 Y23.2698
G01 X5.3155 Y23.1912
G01 X5.3117 Y23.1795
G01 X5.3084 Y23.1677
G01 X5.2855 Y23.0753
G01 X5.2835 Y23.0638
G01 X5.2711 Y22.9801
G01 X5.2695 Y22.9670
G01 X5.2646 Y22.8723
G01 X5.2643 Y22.8600
G01 X5.2646 Y22.8477
G01 X5.2687 Y22.7644
G01 X5.2696 Y22.7521
G01 X5.2711 Y22.7399
G01 X5.2833 Y22.6574
G01 X5.2854 Y22.6453
G01 X5.2881 Y22.6332
G01 X5.3084 Y22.5523
G01 X5.3116 Y22.5405
G01 X5.3155 Y22.5288
G01 X5.3436 Y22.4502
G01 X5.3480 Y22.4388
G01 X5.3530 Y22.4275
G01 X5.3887 Y22.3521
G01 X5.3942 Y22.3411
G01 X5.4003 Y22.3304
G01 X5.4432 Y22.2589
G01 X5.4501 Y22.2480
G01 X5.4569 Y22.2384
G01 X5.5100 Y22.1668
G01 X5.5210 Y22.1537
G01 X5.5824 Y22.0861
G01 X5.5911 Y22.0774
G01 X5.6140 Y22.0565
G01 X5.6140 Y21.6707
G01 X5.2588 Y21.6707
G01 X5.2466 Y21.6701
G01 X5.2343 Y21.6689
G01 X5.2161 Y21.6659
G01 X5.1981 Y21.6617
G01 X5.1805 Y21.6561
G01 X5.1690 Y21.6517
G01 X5.1523 Y21.6440
G01 X5.1361 Y21.6351
G01 X5.1206 Y21.6250
G01 X5.1107 Y21.6177
G01 X5.0966 Y21.6058
G01 X5.0834 Y21.5929
G01 X5.0712 Y21.5791
G01 X5.0600 Y21.5644
G01 X5.0499 Y21.5489
G01 X5.0410 Y21.5327
G01 X5.0358 Y21.5216
G01 X5.0289 Y21.5045
G01 X5.0233 Y21.4869
G01 X5.0204 Y21.4749
G01 X5.0170 Y21.4568
G01 X5.0149 Y21.4384
G01 X5.0143 Y21.4200
G01 X5.0143 Y19.2200
G01 X5.0146 Y19.2077
G01 X5.0161 Y19.1893
G01 X5.0180 Y19.1771
G01 X5.0218 Y19.1591
G01 X5.0269 Y19.1413
G01 X5.0311 Y19.1298
G01 X5.0383 Y19.1128
G01 X5.0439 Y19.1018
G01 X5.0532 Y19.0859
G01 X5.0600 Y19.0756
G01 X5.0712 Y19.0609
G01 X5.0792 Y19.0516
G01 X5.0877 Y19.0427
G01 X5.1012 Y19.0301
G01 X5.1156 Y19.0186
G01 X5.1257 Y19.0115
G01 X5.1414 Y19.0018
G01 X5.1523 Y18.9960
G01 X5.1690 Y18.9883
G01 X5.1863 Y18.9819
G01 X5.2041 Y18.9768
G01 X5.2221 Y18.9730
G01 X5.2404 Y18.9705
G01 X5.2588 Y18.9693
G01 X5.6140 Y18.9693
G01 X5.6140 Y18.5071
G01 X5.6023 Y18.4982
G01 X5.5924 Y18.4896
G01 X5.5231 Y18.4268
G01 X5.5142 Y18.4183
G01 X5.5057 Y18.4094
G01 X5.4429 Y18.3401
G01 X5.4349 Y18.3308
G01 X5.4273 Y18.3211
G01 X5.3716 Y18.2460
G01 X5.3645 Y18.2360
G01 X5.3580 Y18.2256
G01 X5.3040 Y18.1351
G01 X5.2983 Y18.1237
G01 X5.2583 Y18.0392
G01 X5.2533 Y18.0279
G01 X5.2489 Y18.0165
G01 X5.2174 Y17.9285
G01 X5.2136 Y17.9168
G01 X5.2103 Y17.9049
G01 X5.1876 Y17.8142
G01 X5.1850 Y17.8028
G01 X5.1830 Y17.7913
G01 X5.1691 Y17.6977
G01 X5.1675 Y17.6846
G01 X5.1621 Y17.5798
G01 X5.1618 Y17.5675
G01 X5.1618 Y17.4663
G01 X5.1670 Y17.3607
G01 X5.1691 Y17.3423
G01 X5.1838 Y17.2438
G01 X5.1876 Y17.2258
G01 X5.2103 Y17.1351
G01 X5.2136 Y17.1233
G01 X5.2174 Y17.1116
G01 X5.2489 Y17.0235
G01 X5.2534 Y17.0120
G01 X5.2583 Y17.0008
G01 X5.2983 Y16.9163
G01 X5.3038 Y16.9053
G01 X5.3099 Y16.8946
G01 X5.3580 Y16.8144
G01 X5.3649 Y16.8035
G01 X5.3716 Y16.7940
G01 X5.4308 Y16.7143
G01 X5.4429 Y16.6999
G01 X5.5057 Y16.6306
G01 X5.5142 Y16.6217
G01 X5.5231 Y16.6132
G01 X5.5924 Y16.5504
G01 X5.6065 Y16.5385
G01 X5.6865 Y16.4791
G01 X5.7017 Y16.4687
G01 X5.7871 Y16.4174
G01 X5.7973 Y16.4116
G01 X5.8077 Y16.4063
G01 X5.8581 Y16.3825
G01 X5.7864 Y16.3486
G01 X5.7754 Y16.3431
G01 X5.7647 Y16.3370
G01 X5.6805 Y16.2865
G01 X5.6696 Y16.2796
G01 X5.6601 Y16.2729
G01 X5.5767 Y16.2109
G01 X5.5622 Y16.1988
G01 X5.4895 Y16.1329
G01 X5.4763 Y16.1200
G01 X5.4021 Y16.0382
G01 X5.3906 Y16.0238
G01 X5.3663 Y15.9910
G01 X4.5596 Y15.9910
G01 X4.5009 Y16.0442
G01 X4.4916 Y16.0522
G01 X4.4819 Y16.0598
G01 X4.4188 Y16.1066
G01 X4.4088 Y16.1137
G01 X4.3984 Y16.1202
G01 X4.3208 Y16.1664
G01 X4.3104 Y16.1717
G01 X4.2384 Y16.2058
G01 X4.2270 Y16.2108
G01 X4.2156 Y16.2152
G01 X4.1417 Y16.2416
G01 X4.1300 Y16.2455
G01 X4.1182 Y16.2488
G01 X4.0361 Y16.2693
G01 X4.7775 Y16.2693
G01 X4.7898 Y16.2696
G01 X4.8021 Y16.2705
G01 X4.8143 Y16.2720
G01 X4.8264 Y16.2741
G01 X4.8384 Y16.2768
G01 X4.8562 Y16.2819
G01 X4.8735 Y16.2883
G01 X4.8902 Y16.2960
G01 X4.9064 Y16.3049
G01 X4.9219 Y16.3150
G01 X4.9366 Y16.3262
G01 X4.9504 Y16.3384
G01 X4.9633 Y16.3516
G01 X4.9752 Y16.3657
G01 X4.9860 Y16.3807
G01 X4.9957 Y16.3964
G01 X5.0042 Y16.4128
G01 X5.0114 Y16.4298
G01 X5.0174 Y16.4472
G01 X5.0221 Y16.4651
G01 X5.0245 Y16.4771
G01 X5.0270 Y16.4954
G01 X5.0279 Y16.5077
G01 X5.0282 Y16.5200
G01 X5.0282 Y18.5200
G01 X5.0279 Y18.5323
G01 X5.0270 Y18.5446
G01 X5.0255 Y18.5568
G01 X5.0234 Y18.5689
G01 X5.0192 Y18.5869
G01 X5.0156 Y18.5987
G01 X5.0114 Y18.6102
G01 X5.0067 Y18.6216
G01 X5.0015 Y18.6327
G01 X4.9926 Y18.6489
G01 X4.9825 Y18.6644
G01 X4.9752 Y18.6743
G01 X4.9674 Y18.6838
G01 X4.9548 Y18.6973
G01 X4.9413 Y18.7099
G01 X4.9318 Y18.7177
G01 X4.9168 Y18.7285
G01 X4.9064 Y18.7351
G01 X4.8902 Y18.7440
G01 X4.8791 Y18.7492
G01 X4.8620 Y18.7561
G01 X4.8503 Y18.7599
G01 X4.8384 Y18.7632
G01 X4.8264 Y18.7659
G01 X4.8143 Y18.7680
G01 X4.7959 Y18.7701
G01 X4.7775 Y18.7707
G01 X4.5760 Y18.7707
G01 X4.5760 Y19.3254
G01 X4.6292 Y19.3841
G01 X4.6372 Y19.3934
G01 X4.6448 Y19.4031
G01 X4.6916 Y19.4662
G01 X4.6987 Y19.4762
G01 X4.7052 Y19.4866
G01 X4.7515 Y19.5643
G01 X4.7568 Y19.5749
G01 X4.7908 Y19.6466
G01 X4.7958 Y19.6580
G01 X4.8002 Y19.6694
G01 X4.8266 Y19.7433
G01 X4.8305 Y19.7550
G01 X4.8338 Y19.7668
G01 X4.8554 Y19.8544
G01 X4.8575 Y19.8659
G01 X4.8692 Y19.9448
G01 X4.8708 Y19.9579
G01 X4.8754 Y20.0477
G01 X4.8757 Y20.0600
G01 X4.8754 Y20.0723
G01 X4.8716 Y20.1507
G01 X4.8707 Y20.1630
G01 X4.8692 Y20.1752
G01 X4.8577 Y20.2529
G01 X4.8556 Y20.2650
G01 X4.8529 Y20.2770
G01 X4.8338 Y20.3532
G01 X4.8305 Y20.3650
G01 X4.8267 Y20.3766
G01 X4.8002 Y20.4506
G01 X4.7958 Y20.4621
G01 X4.7908 Y20.4734
G01 X4.7572 Y20.5443
G01 X4.7517 Y20.5553
G01 X4.7456 Y20.5660
G01 X4.7052 Y20.6334
G01 X4.6983 Y20.6442
G01 X4.6916 Y20.6538
G01 X4.6378 Y20.7259
G01 X4.6292 Y20.7359
G01 X4.5765 Y20.7941
G01 X4.5680 Y20.8030
G01 X4.5591 Y20.8115
G01 X4.5009 Y20.8642
G01 X4.4916 Y20.8722
G01 X4.4819 Y20.8798
G01 X4.4188 Y20.9266
G01 X4.4088 Y20.9337
G01 X4.3984 Y20.9402
G01 X4.3208 Y20.9864
G01 X4.3104 Y20.9917
G01 X4.2384 Y21.0258
G01 X4.2270 Y21.0308
G01 X4.2156 Y21.0352
G01 X4.1417 Y21.0616
G01 X4.1300 Y21.0655
G01 X4.1182 Y21.0688
G01 X4.0306 Y21.0904
G01 X4.0191 Y21.0925
G01 X3.9402 Y21.1042
G01 X3.9271 Y21.1058
G01 X3.9157 Y21.1066
G01 X3.8373 Y21.1104
G01 X3.8250 Y21.1107
G01 X3.8127 Y21.1104
G01 X3.7343 Y21.1066
G01 X3.7220 Y21.1057
G01 X3.7098 Y21.1042
G01 X3.6321 Y21.0927
G01 X3.6200 Y21.0906
G01 X3.6080 Y21.0879
G01 X3.5318 Y21.0688
G01 X3.5142 Y21.0637
G01 X3.4344 Y21.0352
G01 X3.4229 Y21.0308
G01 X3.4116 Y21.0258
G01 X3.3407 Y20.9922
G01 X3.3297 Y20.9867
G01 X3.3190 Y20.9806
G01 X3.2516 Y20.9402
G01 X3.2408 Y20.9333
G01 X3.1681 Y20.8798
G01 X3.1591 Y20.8728
G01 X3.1504 Y20.8653
G01 X3.0909 Y20.8115
G01 X3.0820 Y20.8030
G01 X3.0735 Y20.7941
G01 X3.0208 Y20.7359
G01 X3.0128 Y20.7266
G01 X3.0052 Y20.7169
G01 X2.9584 Y20.6538
G01 X2.9513 Y20.6438
G01 X2.9448 Y20.6334
G01 X2.9044 Y20.5660
G01 X2.8985 Y20.5557
G01 X2.8932 Y20.5451
G01 X2.8592 Y20.4734
G01 X2.8542 Y20.4620
G01 X2.8498 Y20.4506
G01 X2.8234 Y20.3767
G01 X2.8195 Y20.3650
G01 X2.8162 Y20.3532
G01 X2.7946 Y20.2656
G01 X2.7925 Y20.2541
G01 X2.7808 Y20.1752
G01 X2.7792 Y20.1621
G01 X2.7746 Y20.0723
G01 X2.7743 Y20.0600
G01 X2.7746 Y20.0477
G01 X2.7784 Y19.9693
G01 X2.7793 Y19.9570
G01 X2.7808 Y19.9448
G01 X2.7923 Y19.8671
G01 X2.7944 Y19.8550
G01 X2.7971 Y19.8430
G01 X2.8162 Y19.7668
G01 X2.8195 Y19.7550
G01 X2.8234 Y19.7433
G01 X2.8498 Y19.6694
G01 X2.8542 Y19.6579
G01 X2.8592 Y19.6466
G01 X2.8928 Y19.5757
G01 X2.8983 Y19.5647
G01 X2.9044 Y19.5540
G01 X2.9448 Y19.4866
G01 X2.9517 Y19.4758
G01 X3.0052 Y19.4031
G01 X3.0122 Y19.3941
G01 X3.0197 Y19.3854
G01 X3.0740 Y19.3254
G01 X3.0740 Y18.7707
G01 X2.8725 Y18.7707
G01 X2.8541 Y18.7701
G01 X2.8357 Y18.7680
G01 X2.8236 Y18.7659
G01 X2.8116 Y18.7632
G01 X2.7997 Y18.7599
G01 X2.7880 Y18.7561
G01 X2.7709 Y18.7492
G01 X2.7598 Y18.7440
G01 X2.7436 Y18.7351
G01 X2.7332 Y18.7285
G01 X2.7182 Y18.7177
G01 X2.7041 Y18.7058
G01 X2.6952 Y18.6973
G01 X2.6867 Y18.6884
G01 X2.6748 Y18.6743
G01 X2.6640 Y18.6593
G01 X2.6574 Y18.6489
G01 X2.6485 Y18.6327
G01 X2.6433 Y18.6216
G01 X2.6386 Y18.6102
G01 X2.6344 Y18.5987
G01 X2.6293 Y18.5809
G01 X2.6266 Y18.5689
G01 X2.6245 Y18.5568
G01 X2.6230 Y18.5446
G01 X2.6221 Y18.5323
G01 X2.6218 Y18.5200
G01 X2.6218 Y16.5138
G01 X2.6224 Y16.5016
G01 X2.6236 Y16.4893
G01 X2.6266 Y16.4711
G01 X2.6308 Y16.4531
G01 X2.6364 Y16.4355
G01 X2.6433 Y16.4184
G01 X2.6514 Y16.4018
G01 X2.6607 Y16.3859
G01 X2.6675 Y16.3756
G01 X2.6748 Y16.3657
G01 X2.6867 Y16.3516
G01 X2.6952 Y16.3427
G01 X2.7041 Y16.3342
G01 X2.7182 Y16.3223
G01 X2.7281 Y16.3150
G01 X2.7384 Y16.3082
G01 X2.7489 Y16.3018
G01 X2.7598 Y16.2960
G01 X2.7765 Y16.2883
G01 X2.7938 Y16.2819
G01 X2.8116 Y16.2768
G01 X2.8236 Y16.2741
G01 X2.8418 Y16.2711
G01 X2.8541 Y16.2699
G01 X2.8725 Y16.2693
G01 X3.6139 Y16.2693
G01 X3.5318 Y16.2488
G01 X3.5200 Y16.2455
G01 X3.5084 Y16.2417
G01 X3.4344 Y16.2152
G01 X3.4229 Y16.2108
G01 X3.4116 Y16.2058
G01 X3.3407 Y16.1722
G01 X3.3297 Y16.1667
G01 X3.3190 Y16.1606
G01 X3.2516 Y16.1202
G01 X3.2408 Y16.1133
G01 X3.2312 Y16.1066
G01 X3.1591 Y16.0528
G01 X3.1491 Y16.0442
G01 X3.0909 Y15.9915
G01 X3.0820 Y15.9830
G01 X3.0735 Y15.9741
G01 X3.0208 Y15.9159
G01 X3.0128 Y15.9066
G01 X3.0052 Y15.8969
G01 X2.9584 Y15.8338
G01 X2.9513 Y15.8238
G01 X2.9448 Y15.8134
G01 X2.8986 Y15.7358
G01 X2.8928 Y15.7243
G01 X2.8592 Y15.6534
G01 X2.8541 Y15.6418
G01 X2.8234 Y15.5567
G01 X2.8195 Y15.5450
G01 X2.8162 Y15.5332
G01 X2.7971 Y15.4570
G01 X2.7944 Y15.4450
G01 X2.7923 Y15.4329
G01 X2.7808 Y15.3552
G01 X2.7792 Y15.3421
G01 X2.7784 Y15.3307
G00 Z2.0000
G00 X3.0476 Y16.1295
G01 F60.00
G01 Z-0.1100
G01 F120.00
G01 X3.0569 Y16.1379
G01 X3.0447 Y16.1379
G01 X3.0476 Y16.1295
G00 Z2.0000
G00 X2.8214 Y16.4121
G01 F60.00
G01 Z-0.1100
G01 F120.00
G01 X2.8323 Y16.4076
G01 X2.8463 Y16.4035
G01 X2.8579 Y16.4015
G01 X2.8725 Y16.4006
G01 X4.7804 Y16.4006
G01 X4.7892 Y16.4012
G01 X4.8008 Y16.4029
G01 X4.8093 Y16.4049
G01 X4.8177 Y16.4076
G01 X4.8259 Y16.4108
G01 X4.8338 Y16.4147
G01 X4.8414 Y16.4191
G01 X4.8510 Y16.4259
G01 X4.8598 Y16.4335
G01 X4.8660 Y16.4398
G01 X4.8716 Y16.4465
G01 X4.8768 Y16.4537
G01 X4.8828 Y16.4637
G01 X4.8867 Y16.4716
G01 X4.8899 Y16.4798
G01 X4.8926 Y16.4882
G01 X4.8946 Y16.4967
G01 X4.8960 Y16.5054
G01 X4.8969 Y16.5200
G01 X4.8969 Y18.5200
G01 X4.8963 Y18.5317
G01 X4.8946 Y18.5433
G01 X4.8926 Y18.5518
G01 X4.8899 Y18.5602
G01 X4.8867 Y18.5684
G01 X4.8828 Y18.5763
G01 X4.8784 Y18.5839
G01 X4.8734 Y18.5911
G01 X4.8679 Y18.5980
G01 X4.8619 Y18.6044
G01 X4.8555 Y18.6104
G01 X4.8486 Y18.6159
G01 X4.8414 Y18.6209
G01 X4.8338 Y18.6253
G01 X4.8259 Y18.6292
G01 X4.8177 Y18.6324
G01 X4.8037 Y18.6365
G01 X4.7921 Y18.6385
G01 X4.7775 Y18.6394
G01 X4.4447 Y18.6394
G01 X4.4447 Y19.3821
G01 X4.4709 Y19.4058
G01 X4.4772 Y19.4120
G01 X4.5338 Y19.4745
G01 X4.5393 Y19.4814
G01 X4.5861 Y19.5444
G01 X4.5911 Y19.5517
G01 X4.6357 Y19.6264
G01 X4.6720 Y19.7028
G01 X4.6765 Y19.7136
G01 X4.7039 Y19.7903
G01 X4.7064 Y19.7988
G01 X4.7267 Y19.8804
G01 X4.7393 Y19.9641
G01 X4.7404 Y19.9757
G01 X4.7444 Y20.0600
G01 X4.7404 Y20.1443
G01 X4.7393 Y20.1559
G01 X4.7273 Y20.2365
G01 X4.7254 Y20.2451
G01 X4.7064 Y20.3212
G01 X4.7030 Y20.3324
G01 X4.6744 Y20.4118
G01 X4.6358 Y20.4934
G01 X4.5926 Y20.5658
G01 X4.5861 Y20.5756
G01 X4.5360 Y20.6429
G01 X4.4792 Y20.7059
G01 X4.4709 Y20.7142
G01 X4.4083 Y20.7707
G01 X4.3406 Y20.8211
G01 X4.3308 Y20.8276
G01 X4.2586 Y20.8707
G01 X4.1822 Y20.9070
G01 X4.1714 Y20.9115
G01 X4.0975 Y20.9380
G01 X4.0891 Y20.9406
G01 X4.0046 Y20.9617
G01 X3.9147 Y20.9750
G01 X3.8250 Y20.9794
G01 X3.7349 Y20.9750
G01 X3.6456 Y20.9617
G01 X3.5581 Y20.9398
G01 X3.4732 Y20.9094
G01 X3.3916 Y20.8708
G01 X3.3140 Y20.8243
G01 X3.2421 Y20.7710
G01 X3.1749 Y20.7101
G01 X3.1143 Y20.6433
G01 X3.0605 Y20.5708
G01 X3.0143 Y20.4936
G01 X2.9756 Y20.4118
G01 X2.9470 Y20.3325
G01 X2.9444 Y20.3241
G01 X2.9233 Y20.2396
G01 X2.9107 Y20.1559
G01 X2.9096 Y20.1443
G01 X2.9056 Y20.0600
G01 X2.9096 Y19.9757
G01 X2.9107 Y19.9641
G01 X2.9233 Y19.8806
G01 X2.9444 Y19.7959
G01 X2.9470 Y19.7876
G01 X2.9735 Y19.7136
G01 X2.9780 Y19.7028
G01 X3.0142 Y19.6266
G01 X3.0590 Y19.5515
G01 X3.0639 Y19.5444
G01 X3.1107 Y19.4814
G01 X3.1158 Y19.4750
G01 X3.1728 Y19.4120
G01 X3.1791 Y19.4058
G01 X3.2053 Y19.3821
G01 X3.2053 Y18.6394
G01 X2.8725 Y18.6394
G01 X2.8579 Y18.6385
G01 X2.8463 Y18.6365
G01 X2.8378 Y18.6343
G01 X2.8295 Y18.6314
G01 X2.8214 Y18.6279
G01 X2.8136 Y18.6239
G01 X2.8062 Y18.6193
G01 X2.7990 Y18.6141
G01 X2.7923 Y18.6085
G01 X2.7860 Y18.6023
G01 X2.7802 Y18.5957
G01 X2.7749 Y18.5888
G01 X2.7701 Y18.5814
G01 X2.7658 Y18.5737
G01 X2.7622 Y18.5657
G01 X2.7591 Y18.5575
G01 X2.7567 Y18.5490
G01 X2.7549 Y18.5404
G01 X2.7537 Y18.5317
G01 X2.7531 Y18.5200
G01 X2.7531 Y16.5171
G01 X2.7544 Y16.5025
G01 X2.7560 Y16.4938
G01 X2.7582 Y16.4853
G01 X2.7633 Y16.4716
G01 X2.7672 Y16.4637
G01 X2.7716 Y16.4561
G01 X2.7766 Y16.4489
G01 X2.7821 Y16.4420
G01 X2.7923 Y16.4315
G01 X2.7990 Y16.4259
G01 X2.8062 Y16.4207
G01 X2.8136 Y16.4161
G01 X2.8214 Y16.4121
G00 Z2.0000
G00 X4.5931 Y16.1379
G01 F60.00
G01 Z-0.1100
G01 F120.00
G01 X4.6103 Y16.1223
G01 X5.3013 Y16.1223
G01 X5.3748 Y16.2037
G01 X5.3877 Y16.2173
G01 X5.4013 Y16.2302
G01 X5.4740 Y16.2961
G01 X5.4892 Y16.3092
G01 X5.5030 Y16.3199
G01 X5.5920 Y16.3856
G01 X5.5331 Y16.4293
G01 X5.5184 Y16.4409
G01 X5.5042 Y16.4531
G01 X5.4349 Y16.5159
G01 X5.4213 Y16.5288
G01 X5.4084 Y16.5424
G01 X5.3381 Y16.6202
G01 X5.3218 Y16.6406
G01 X5.2661 Y16.7157
G01 X5.2505 Y16.7385
G01 X5.1925 Y16.8352
G01 X5.1837 Y16.8517
G01 X5.1596 Y16.9024
G01 X5.1596 Y16.5200
G01 X5.1591 Y16.5013
G01 X5.1567 Y16.4732
G01 X5.1540 Y16.4547
G01 X5.1481 Y16.4272
G01 X5.1403 Y16.4001
G01 X5.1340 Y16.3825
G01 X5.1268 Y16.3652
G01 X5.1145 Y16.3399
G01 X5.1003 Y16.3156
G01 X5.0844 Y16.2924
G01 X5.0668 Y16.2704
G01 X5.0542 Y16.2565
G01 X5.0410 Y16.2433
G01 X5.0199 Y16.2246
G01 X4.9975 Y16.2076
G01 X4.9819 Y16.1972
G01 X4.9658 Y16.1876
G01 X4.9409 Y16.1746
G01 X4.9150 Y16.1635
G01 X4.8884 Y16.1544
G01 X4.8703 Y16.1494
G01 X4.8428 Y16.1435
G01 X4.8150 Y16.1398
G01 X4.7962 Y16.1384
G01 X4.7775 Y16.1379
G01 X4.5931 Y16.1379
G00 Z2.0000
G00 X5.2164 Y16.2537
G01 F60.00
G01 Z-0.1100
G01 F120.00
G01 X5.2428 Y16.2537
G01 X5.2775 Y16.2919
G01 X5.2949 Y16.3101
G01 X5.3131 Y16.3275
G01 X5.3801 Y16.3883
G01 X5.3467 Y16.4186
G01 X5.3284 Y16.4359
G01 X5.3111 Y16.4542
G01 X5.2892 Y16.4783
G01 X5.2871 Y16.4572
G01 X5.2854 Y16.4447
G01 X5.2811 Y16.4198
G01 X5.2784 Y16.4075
G01 X5.2723 Y16.3831
G01 X5.2650 Y16.3589
G01 X5.2565 Y16.3352
G01 X5.2518 Y16.3235
G01 X5.2416 Y16.3005
G01 X5.2303 Y16.2780
G01 X5.2164 Y16.2537
G00 Z2.0000
G00 X5.2558 Y18.7067
G01 F60.00
G01 Z-0.1100
G01 F120.00
G01 X5.2609 Y18.6930
G01 X5.2688 Y18.6690
G01 X5.2723 Y18.6569
G01 X5.2784 Y18.6325
G01 X5.2834 Y18.6078
G01 X5.2854 Y18.5953
G01 X5.2871 Y18.5828
G01 X5.2892 Y18.5617
G01 X5.3196 Y18.5950
G01 X5.3375 Y18.6129
G01 X5.3513 Y18.6256
G01 X5.3513 Y18.7066
G01 X5.2558 Y18.7067
G00 Z2.0000
G00 X5.2140 Y19.1121
G01 F60.00
G01 Z-0.1100
G01 F120.00
G01 X5.2248 Y19.1076
G01 X5.2360 Y19.1042
G01 X5.2504 Y19.1015
G01 X5.2621 Y19.1006
G01 X5.7453 Y19.1006
G01 X5.7453 Y18.4410
G01 X5.6853 Y18.3963
G01 X5.6113 Y18.3295
G01 X5.6030 Y18.3212
G01 X5.5402 Y18.2519
G01 X5.5328 Y18.2429
G01 X5.4737 Y18.1630
G01 X5.4226 Y18.0779
G01 X5.4172 Y18.0679
G01 X5.3747 Y17.9776
G01 X5.3393 Y17.8787
G01 X5.3138 Y17.7769
G01 X5.2986 Y17.6753
G01 X5.2978 Y17.6667
G01 X5.2931 Y17.5704
G01 X5.2932 Y17.4666
G01 X5.2983 Y17.3674
G01 X5.3127 Y17.2692
G01 X5.3143 Y17.2605
G01 X5.3392 Y17.1614
G01 X5.3747 Y17.0623
G01 X5.4197 Y16.9672
G01 X5.4706 Y16.8819
G01 X5.4756 Y16.8742
G01 X5.5362 Y16.7928
G01 X5.6071 Y16.7146
G01 X5.6850 Y16.6439
G01 X5.7695 Y16.5812
G01 X5.8595 Y16.5273
G01 X5.9549 Y16.4822
G01 X6.0538 Y16.4468
G01 X6.1559 Y16.4212
G01 X6.2603 Y16.4057
G01 X6.3650 Y16.4006
G01 X6.4701 Y16.4058
G01 X6.5741 Y16.4212
G01 X6.6761 Y16.4467
G01 X6.7752 Y16.4822
G01 X6.8703 Y16.5272
G01 X6.9556 Y16.5781
G01 X6.9633 Y16.5831
G01 X7.0447 Y16.6437
G01 X7.1187 Y16.7105
G01 X7.1270 Y16.7188
G01 X7.1936 Y16.7925
G01 X7.2529 Y16.8722
G01 X7.2594 Y16.8819
G01 X7.3074 Y16.9621
G01 X7.3128 Y16.9721
G01 X7.3553 Y17.0624
G01 X7.3907 Y17.1613
G01 X7.4162 Y17.2631
G01 X7.4314 Y17.3647
G01 X7.4322 Y17.3733
G01 X7.4369 Y17.4696
G01 X7.4369 Y17.5675
G01 X7.4322 Y17.6667
G01 X7.4314 Y17.6755
G01 X7.4163 Y17.7766
G01 X7.3923 Y17.8730
G01 X7.3889 Y17.8842
G01 X7.3553 Y17.9777
G01 X7.3130 Y18.0676
G01 X7.3074 Y18.0779
G01 X7.2561 Y18.1632
G01 X7.1938 Y18.2472
G01 X7.1270 Y18.3212
G01 X7.1187 Y18.3295
G01 X7.0450 Y18.3961
G01 X6.9847 Y18.4410
G01 X6.9847 Y19.1006
G01 X7.4650 Y19.1006
G01 X7.4738 Y19.1009
G01 X7.4825 Y19.1019
G01 X7.4912 Y19.1035
G01 X7.4997 Y19.1057
G01 X7.5080 Y19.1086
G01 X7.5161 Y19.1121
G01 X7.5239 Y19.1161
G01 X7.5313 Y19.1207
G01 X7.5385 Y19.1259
G01 X7.5452 Y19.1315
G01 X7.5515 Y19.1377
G01 X7.5573 Y19.1443
G01 X7.5626 Y19.1512
G01 X7.5674 Y19.1586
G01 X7.5717 Y19.1663
G01 X7.5753 Y19.1743
G01 X7.5784 Y19.1825
G01 X7.5808 Y19.1910
G01 X7.5835 Y19.2054
G01 X7.5844 Y19.2200
G01 X7.5843 Y21.4259
G01 X7.5835 Y21.4346
G01 X7.5815 Y21.4462
G01 X7.5793 Y21.4547
G01 X7.5764 Y21.4630
G01 X7.5729 Y21.4711
G01 X7.5674 Y21.4814
G01 X7.5609 Y21.4911
G01 X7.5554 Y21.4980
G01 X7.5494 Y21.5044
G01 X7.5407 Y21.5123
G01 X7.5338 Y21.5176
G01 X7.5239 Y21.5239
G01 X7.5134 Y21.5292
G01 X7.5052 Y21.5324
G01 X7.4968 Y21.5351
G01 X7.4883 Y21.5371
G01 X7.4767 Y21.5388
G01 X7.4650 Y21.5394
G01 X6.9847 Y21.5394
G01 X6.9847 Y22.1147
G01 X7.0505 Y22.1745
G01 X7.1105 Y22.2406
G01 X7.1180 Y22.2496
G01 X7.1710 Y22.3214
G01 X7.2170 Y22.3979
G01 X7.2224 Y22.4079
G01 X7.2606 Y22.4891
G01 X7.2908 Y22.5730
G01 X7.2942 Y22.5842
G01 X7.3157 Y22.6706
G01 X7.3290 Y22.7592
G01 X7.3302 Y22.7708
G01 X7.3344 Y22.8600
G01 X7.3302 Y22.9492
G01 X7.3290 Y22.9608
G01 X7.3168 Y23.0433
G01 X7.3145 Y23.0548
G01 X7.2927 Y23.1414
G01 X7.2627 Y23.2255
G01 X7.2582 Y23.2363
G01 X7.2199 Y23.3170
G01 X7.1742 Y23.3936
G01 X7.1677 Y23.4034
G01 X7.1180 Y23.4704
G01 X7.1105 Y23.4794
G01 X7.0505 Y23.5455
G01 X6.9844 Y23.6055
G01 X6.9754 Y23.6130
G01 X6.9036 Y23.6660
G01 X6.8222 Y23.7148
G01 X6.7413 Y23.7532
G01 X6.7305 Y23.7577
G01 X6.6464 Y23.7877
G01 X6.5541 Y23.8108
G01 X6.4596 Y23.8248
G01 X6.3650 Y23.8294
G01 X6.2700 Y23.8247
G01 X6.1759 Y23.8108
G01 X6.0836 Y23.7877
G01 X5.9940 Y23.7556
G01 X5.9080 Y23.7149
G01 X5.8262 Y23.6659
G01 X5.7503 Y23.6096
G01 X5.6795 Y23.5455
G01 X5.6156 Y23.4750
G01 X5.5590 Y23.3986
G01 X5.5102 Y23.3172
G01 X5.4694 Y23.2309
G01 X5.4373 Y23.1414
G01 X5.4143 Y23.0494
G01 X5.4010 Y22.9608
G01 X5.3998 Y22.9492
G01 X5.3956 Y22.8600
G01 X5.3998 Y22.7708
G01 X5.4010 Y22.7592
G01 X5.4142 Y22.6709
G01 X5.4373 Y22.5786
G01 X5.4673 Y22.4945
G01 X5.4718 Y22.4837
G01 X5.5074 Y22.4083
G01 X5.5130 Y22.3979
G01 X5.5591 Y22.3212
G01 X5.6154 Y22.2453
G01 X5.6795 Y22.1745
G01 X5.7453 Y22.1147
G01 X5.7453 Y21.5394
G01 X5.2650 Y21.5394
G01 X5.2562 Y21.5391
G01 X5.2475 Y21.5381
G01 X5.2388 Y21.5365
G01 X5.2303 Y21.5343
G01 X5.2220 Y21.5314
G01 X5.2139 Y21.5279
G01 X5.2061 Y21.5239
G01 X5.1987 Y21.5193
G01 X5.1915 Y21.5141
G01 X5.1848 Y21.5085
G01 X5.1765 Y21.5002
G01 X5.1709 Y21.4935
G01 X5.1657 Y21.4863
G01 X5.1611 Y21.4789
G01 X5.1571 Y21.4711
G01 X5.1536 Y21.4630
G01 X5.1507 Y21.4547
G01 X5.1485 Y21.4462
G01 X5.1462 Y21.4317
G01 X5.1456 Y21.4200
G01 X5.1456 Y19.2171
G01 X5.1462 Y19.2083
G01 X5.1474 Y19.1996
G01 X5.1492 Y19.1910
G01 X5.1516 Y19.1825
G01 X5.1547 Y19.1743
G01 X5.1583 Y19.1663
G01 X5.1657 Y19.1537
G01 X5.1746 Y19.1420
G01 X5.1806 Y19.1356
G01 X5.1870 Y19.1296
G01 X5.1987 Y19.1207
G01 X5.2061 Y19.1161
G01 X5.2140 Y19.1121
G00 Z2.0000
G00 X4.8829 Y19.5343
G01 F60.00
G01 Z-0.1100
G01 F120.00
G01 X4.8714 Y19.5102
G01 X4.8628 Y19.4943
G01 X4.8179 Y19.4191
G01 X4.8079 Y19.4033
G01 X4.7971 Y19.3879
G01 X4.7446 Y19.3174
G01 X4.7327 Y19.3029
G01 X4.7073 Y19.2747
G01 X4.7073 Y18.9021
G01 X4.7869 Y18.9020
G01 X4.8150 Y18.9002
G01 X4.8336 Y18.8979
G01 X4.8612 Y18.8928
G01 X4.8884 Y18.8856
G01 X4.9150 Y18.8765
G01 X4.9409 Y18.8654
G01 X4.9658 Y18.8524
G01 X4.9898 Y18.8377
G01 X5.0126 Y18.8212
G01 X5.0341 Y18.8031
G01 X5.0542 Y18.7835
G01 X5.0729 Y18.7624
G01 X5.0899 Y18.7400
G01 X5.1052 Y18.7164
G01 X5.1188 Y18.6918
G01 X5.1268 Y18.6748
G01 X5.1340 Y18.6575
G01 X5.1403 Y18.6399
G01 X5.1457 Y18.6219
G01 X5.1503 Y18.6037
G01 X5.1554 Y18.5761
G01 X5.1577 Y18.5575
G01 X5.1591 Y18.5387
G01 X5.1596 Y18.5200
G01 X5.1596 Y18.1376
G01 X5.1801 Y18.1811
G01 X5.1927 Y18.2051
G01 X5.2502 Y18.3011
G01 X5.2661 Y18.3243
G01 X5.3218 Y18.3994
G01 X5.3394 Y18.4213
G01 X5.4148 Y18.5045
G01 X5.4349 Y18.5241
G01 X5.4827 Y18.5674
G01 X5.4827 Y18.8379
G01 X5.2650 Y18.8379
G01 X5.2463 Y18.8384
G01 X5.2275 Y18.8398
G01 X5.2089 Y18.8421
G01 X5.1905 Y18.8453
G01 X5.1722 Y18.8494
G01 X5.1541 Y18.8544
G01 X5.1363 Y18.8603
G01 X5.1102 Y18.8707
G01 X5.0849 Y18.8830
G01 X5.0606 Y18.8972
G01 X5.0374 Y18.9131
G01 X5.0154 Y18.9307
G01 X4.9948 Y18.9498
G01 X4.9757 Y18.9704
G01 X4.9581 Y18.9924
G01 X4.9422 Y19.0156
G01 X4.9280 Y19.0399
G01 X4.9196 Y19.0566
G01 X4.9120 Y19.0738
G01 X4.9022 Y19.1001
G01 X4.8944 Y19.1272
G01 X4.8885 Y19.1547
G01 X4.8848 Y19.1825
G01 X4.8830 Y19.2106
G01 X4.8829 Y19.5343
G00 Z2.0000
G00 X4.7731 Y20.7644
G01 F60.00
G01 Z-0.1100
G01 F120.00
G01 X4.8018 Y20.7255
G01 X4.8127 Y20.7092
G01 X4.8179 Y20.7009
G01 X4.8630 Y20.6254
G01 X4.8718 Y20.6089
G01 X4.8829 Y20.5857
G01 X4.8829 Y20.8063
G01 X4.8574 Y20.7930
G01 X4.8317 Y20.7820
G01 X4.8053 Y20.7730
G01 X4.7731 Y20.7644
G00 Z2.0000
G00 X7.5416 Y22.1730
G01 F60.00
G01 Z-0.1100
G01 F120.00
G01 X7.5055 Y22.1131
G01 X7.4915 Y22.0921
G01 X7.4841 Y22.0819
G01 X7.4268 Y22.0049
G01 X7.4108 Y21.9854
G01 X7.3787 Y21.9497
G01 X7.3787 Y21.9334
G01 X7.4650 Y21.9334
G01 X7.4902 Y21.9328
G01 X7.5153 Y21.9309
G01 X7.5278 Y21.9296
G01 X7.5484 Y21.9266
G01 X7.5454 Y21.9472
G01 X7.5441 Y21.9597
G01 X7.5430 Y21.9722
G01 X7.5417 Y21.9974
G01 X7.5416 Y22.1730
G00 Z2.0000
G00 X7.4804 Y23.3811
G01 F60.00
G01 Z-0.1100
G01 F120.00
G01 X7.4996 Y23.3401
G01 X7.5068 Y23.3228
G01 X7.5412 Y23.2265
G01 X7.5490 Y23.1996
G01 X7.5693 Y23.1187
G01 X7.5751 Y23.0911
G01 X7.5889 Y22.9994
G01 X7.5911 Y22.9808
G01 X7.5925 Y22.9621
G01 X7.5966 Y22.8787
G01 X7.5970 Y22.8506
G01 X7.5925 Y22.7579
G01 X7.5913 Y22.7405
G01 X7.5889 Y22.7206
G01 X7.5763 Y22.6363
G01 X7.5732 Y22.6187
G01 X7.5693 Y22.6013
G01 X7.5490 Y22.5204
G01 X7.5440 Y22.5023
G01 X7.5381 Y22.4845
G01 X7.5100 Y22.4060
G01 X7.5034 Y22.3887
G01 X7.4957 Y22.3714
G01 X7.4600 Y22.2960
G01 X7.4513 Y22.2786
G01 X7.4424 Y22.2629
G01 X7.3995 Y22.1913
G01 X7.3841 Y22.1678
G01 X7.3289 Y22.0932
G01 X7.3174 Y22.0784
G01 X7.3052 Y22.0642
G01 X7.2473 Y22.0004
G01 X7.2473 Y21.8021
G01 X7.4744 Y21.8020
G01 X7.5025 Y21.8002
G01 X7.5211 Y21.7979
G01 X7.5395 Y21.7947
G01 X7.5669 Y21.7882
G01 X7.5849 Y21.7828
G01 X7.6112 Y21.7730
G01 X7.6368 Y21.7613
G01 X7.6533 Y21.7524
G01 X7.6773 Y21.7377
G01 X7.7001 Y21.7212
G01 X7.7195 Y21.7050
G01 X7.7487 Y21.7385
G01 X7.7678 Y21.7581
G01 X7.7596 Y21.7676
G01 X7.7481 Y21.7824
G01 X7.7322 Y21.8056
G01 X7.7180 Y21.8299
G01 X7.7096 Y21.8466
G01 X7.7020 Y21.8638
G01 X7.6922 Y21.8901
G01 X7.6868 Y21.9081
G01 X7.6822 Y21.9263
G01 X7.6771 Y21.9539
G01 X7.6748 Y21.9725
G01 X7.6734 Y21.9913
G01 X7.6729 Y22.0100
G01 X7.6729 Y23.4312
G01 X7.6490 Y23.4189
G01 X7.6229 Y23.4078
G01 X7.6053 Y23.4015
G01 X7.5785 Y23.3938
G01 X7.5603 Y23.3898
G01 X7.5327 Y23.3853
G01 X7.5142 Y23.3835
G01 X7.4804 Y23.3811
G00 Z2.0000
G00 X7.4922 Y18.8389
G01 F60.00
G01 Z-0.1100
G01 F120.00
G01 X7.4650 Y18.8379
G01 X7.2473 Y18.8379
G01 X7.2473 Y18.5674
G01 X7.2951 Y18.5241
G01 X7.3087 Y18.5112
G01 X7.3216 Y18.4976
G01 X7.3862 Y18.4264
G01 X7.3975 Y18.4131
G01 X7.4082 Y18.3994
G01 X7.4639 Y18.3243
G01 X7.4742 Y18.3097
G01 X7.4847 Y18.2931
G01 X7.5328 Y18.2129
G01 X7.5420 Y18.1966
G01 X7.5504 Y18.1799
G01 X7.5904 Y18.0954
G01 X7.5980 Y18.0782
G01 X7.6047 Y18.0607
G01 X7.6350 Y17.9762
G01 X7.6653 Y18.0607
G01 X7.6719 Y18.0781
G01 X7.6796 Y18.0954
G01 X7.7196 Y18.1799
G01 X7.7283 Y18.1972
G01 X7.7372 Y18.2129
G01 X7.7853 Y18.2931
G01 X7.7953 Y18.3090
G01 X7.8061 Y18.3243
G01 X7.8542 Y18.3890
G01 X7.8377 Y18.3931
G01 X7.8200 Y18.3983
G01 X7.8026 Y18.4044
G01 X7.7855 Y18.4113
G01 X7.7687 Y18.4190
G01 X7.7519 Y18.4278
G01 X7.7351 Y18.4377
G01 X7.7189 Y18.4484
G01 X7.6956 Y18.4659
G01 X7.6737 Y18.4852
G01 X7.6099 Y18.5491
G01 X7.5907 Y18.5710
G01 X7.5732 Y18.5942
G01 X7.5575 Y18.6187
G01 X7.5439 Y18.6439
G01 X7.5362 Y18.6607
G01 X7.5292 Y18.6779
G01 X7.5232 Y18.6954
G01 X7.5156 Y18.7222
G01 X7.4966 Y18.8099
G01 X7.4935 Y18.8286
G01 X7.4922 Y18.8389
G00 Z2.0000
G00 X7.3845 Y18.7066
G01 F60.00
G01 Z-0.1100
G01 F120.00
G01 X7.3787 Y18.7066
G01 X7.3787 Y18.6256
G01 X7.4016 Y18.6041
G01 X7.4104 Y18.5950
G01 X7.4358 Y18.5672
G01 X7.4260 Y18.5860
G01 X7.4207 Y18.5973
G01 X7.4108 Y18.6201
G01 X7.4063 Y18.6317
G01 X7.3981 Y18.6553
G01 X7.3944 Y18.6672
G01 X7.3880 Y18.6912
G01 X7.3845 Y18.7066
G00 Z2.0000
G00 X7.5661 Y18.4070
G01 F60.00
G01 Z-0.1100
G01 F120.00
G01 X7.5757 Y18.3938
G01 X7.5904 Y18.3719
G01 X7.6350 Y18.2978
G01 X7.6558 Y18.3325
G01 X7.6333 Y18.3481
G01 X7.6126 Y18.3641
G01 X7.5928 Y18.3811
G01 X7.5832 Y18.3900
G01 X7.5661 Y18.4070
G00 Z2.0000
G00 X7.6350 Y17.0638
G01 F60.00
G01 Z-0.1100
G01 F120.00
G01 X7.6202 Y17.0226
G01 X7.6330 Y17.0222
G01 X7.6503 Y17.0210
G01 X7.6350 Y17.0638
G00 Z2.0000
G00 X9.6178 Y16.6735
G01 F60.00
G01 Z-0.1100
G01 F120.00
G01 X9.8117 Y16.4796
G01 X9.8229 Y16.4885
G01 X9.9713 Y16.6516
G01 X10.0908 Y16.8364
G01 X10.1188 Y16.9006
G01 X9.8106 Y16.9006
G01 X9.7946 Y16.8746
G01 X9.7372 Y16.7971
G01 X9.7317 Y16.7903
G01 X9.6650 Y16.7166
G01 X9.6587 Y16.7105
G01 X9.6178 Y16.6735
G00 Z2.0000
G00 X9.8034 Y16.6737
G01 F60.00
G01 Z-0.1100
G01 F120.00
G01 X9.8089 Y16.6682
G01 X9.8668 Y16.7318
G01 X9.8910 Y16.7693
G01 X9.8801 Y16.7693
G01 X9.8427 Y16.7189
G01 X9.8351 Y16.7092
G01 X9.8034 Y16.6737
G00 Z2.0000
G00 X9.6557 Y18.5167
G01 F60.00
G01 Z-0.1100
G01 F120.00
G01 X9.6557 Y18.5073
G01 X9.6683 Y18.4976
G01 X9.6776 Y18.4896
G01 X9.7469 Y18.4268
G01 X9.7558 Y18.4183
G01 X9.7643 Y18.4094
G01 X9.8320 Y18.3346
G01 X9.8427 Y18.3211
G01 X9.8801 Y18.2707
G01 X9.8898 Y18.2707
G01 X9.8484 Y18.3314
G01 X9.7110 Y18.4753
G01 X9.6557 Y18.5167
G00 Z2.0000
G00 X9.5244 Y18.7571
G01 F60.00
G01 Z-0.1100
G01 F120.00
G01 X9.5244 Y18.4412
G01 X9.5850 Y18.3961
G01 X9.6587 Y18.3295
G01 X9.6650 Y18.3234
G01 X9.7298 Y18.2519
G01 X9.7355 Y18.2451
G01 X9.7944 Y18.1658
G01 X9.8106 Y18.1394
G01 X10.1182 Y18.1394
G01 X10.0749 Y18.2324
G01 X9.9510 Y18.4142
G01 X9.7986 Y18.5736
G01 X9.6223 Y18.7061
G01 X9.5244 Y18.7571
G00 Z2.0000
G00 X12.9835 Y22.5693
G01 F60.00
G01 Z-0.1100
G01 F120.00
G01 X13.0805 Y22.4723
G01 X13.1027 Y22.4723
G01 X13.1027 Y22.6205
G01 X13.0915 Y22.6135
G01 X13.0748 Y22.6040
G01 X13.0488 Y22.5913
G01 X13.0310 Y22.5840
G01 X13.0131 Y22.5777
G01 X12.9952 Y22.5723
G01 X12.9835 Y22.5693
G00 Z2.0000
G00 X9.6767 Y29.5003
G01 F60.00
G01 Z-0.1100
G01 F120.00
G01 X9.7329 Y29.5447
G01 X9.8668 Y29.6918
G01 X9.8910 Y29.7293
G01 X9.8801 Y29.7293
G01 X9.8427 Y29.6789
G01 X9.8351 Y29.6692
G01 X9.8271 Y29.6599
G01 X9.7601 Y29.5861
G01 X9.7469 Y29.5732
G01 X9.6718 Y29.5053
G01 X9.6767 Y29.5003
G00 Z2.0000
G00 X9.5247 Y29.5590
G01 F60.00
G01 Z-0.1100
G01 F120.00
G01 X9.5247 Y29.4667
G01 X9.6665 Y29.3249
G01 X9.8229 Y29.4485
G01 X9.9710 Y29.6112
G01 X10.0908 Y29.7964
G01 X10.1188 Y29.8606
G01 X9.8106 Y29.8606
G01 X9.7946 Y29.8346
G01 X9.7354 Y29.7548
G01 X9.7298 Y29.7481
G01 X9.6650 Y29.6766
G01 X9.6587 Y29.6705
G01 X9.5868 Y29.6054
G01 X9.5804 Y29.6003
G01 X9.5247 Y29.5590
G00 Z2.0000
G00 X9.6557 Y31.4767
G01 F60.00
G01 Z-0.1100
G01 F120.00
G01 X9.6557 Y31.4673
G01 X9.6683 Y31.4576
G01 X9.6776 Y31.4496
G01 X9.7469 Y31.3868
G01 X9.7558 Y31.3783
G01 X9.7643 Y31.3694
G01 X9.8320 Y31.2946
G01 X9.8427 Y31.2811
G01 X9.8801 Y31.2307
G01 X9.8898 Y31.2307
G01 X9.8484 Y31.2914
G01 X9.7110 Y31.4353
G01 X9.6557 Y31.4767
G00 Z2.0000
G00 X9.5244 Y31.7171
G01 F60.00
G01 Z-0.1100
G01 F120.00
G01 X9.5244 Y31.4012
G01 X9.5850 Y31.3561
G01 X9.6587 Y31.2895
G01 X9.6650 Y31.2834
G01 X9.7298 Y31.2119
G01 X9.7355 Y31.2051
G01 X9.7944 Y31.1258
G01 X9.8106 Y31.0994
G01 X10.1182 Y31.0994
G01 X10.0749 Y31.1924
G01 X9.9510 Y31.3742
G01 X9.7986 Y31.5336
G01 X9.6223 Y31.6661
G01 X9.5244 Y31.7171
G00 Z2.0000
G00 X7.6821 Y31.6056
G01 F60.00
G01 Z-0.1100
G01 F120.00
G01 X7.6614 Y31.5923
G01 X7.6451 Y31.5830
G01 X7.6198 Y31.5707
G01 X7.6025 Y31.5635
G01 X7.5759 Y31.5544
G01 X7.5578 Y31.5494
G01 X7.5395 Y31.5453
G01 X7.5211 Y31.5421
G01 X7.5025 Y31.5398
G01 X7.4744 Y31.5380
G01 X7.2473 Y31.5379
G01 X7.2473 Y31.5274
G01 X7.2951 Y31.4841
G01 X7.3087 Y31.4712
G01 X7.3216 Y31.4576
G01 X7.3919 Y31.3798
G01 X7.4082 Y31.3594
G01 X7.4639 Y31.2843
G01 X7.4795 Y31.2615
G01 X7.5328 Y31.1729
G01 X7.5420 Y31.1566
G01 X7.5504 Y31.1399
G01 X7.5904 Y31.0554
G01 X7.5980 Y31.0382
G01 X7.6047 Y31.0207
G01 X7.6350 Y30.9362
G01 X7.6653 Y31.0207
G01 X7.6719 Y31.0381
G01 X7.6796 Y31.0554
G01 X7.7201 Y31.1411
G01 X7.7327 Y31.1651
G01 X7.7853 Y31.2531
G01 X7.8006 Y31.2767
G01 X7.8675 Y31.3668
G01 X7.8794 Y31.3813
G01 X7.9158 Y31.4217
G01 X7.9025 Y31.4269
G01 X7.8854 Y31.4343
G01 X7.8598 Y31.4475
G01 X7.8352 Y31.4626
G01 X7.8118 Y31.4795
G01 X7.7969 Y31.4917
G01 X7.7433 Y31.5382
G01 X7.7298 Y31.5505
G01 X7.7169 Y31.5634
G01 X7.7046 Y31.5770
G01 X7.6930 Y31.5911
G01 X7.6821 Y31.6056
G00 Z2.0000
G00 X7.6534 Y31.4424
G01 F60.00
G01 Z-0.1100
G01 F120.00
G01 X7.6261 Y31.4325
G01 X7.6019 Y31.4252
G01 X7.5898 Y31.4220
G01 X7.5652 Y31.4164
G01 X7.5528 Y31.4141
G01 X7.5333 Y31.4112
G01 X7.5694 Y31.3625
G01 X7.5832 Y31.3429
G01 X7.5973 Y31.3206
G01 X7.6350 Y31.2578
G01 X7.6793 Y31.3314
G01 X7.6933 Y31.3523
G01 X7.7183 Y31.3863
G01 X7.6534 Y31.4424
G00 Z2.0000
G00 X7.6350 Y30.0238
G01 F60.00
G01 Z-0.1100
G01 F120.00
G01 X7.6202 Y29.9826
G01 X7.6330 Y29.9822
G01 X7.6503 Y29.9810
G01 X7.6350 Y30.0238
G00 Z2.0000
G00 X5.1521 Y31.5550
G01 F60.00
G01 Z-0.1100
G01 F120.00
G01 X5.1567 Y31.5268
G01 X5.1585 Y31.5081
G01 X5.1595 Y31.4894
G01 X5.1596 Y31.0976
G01 X5.1801 Y31.1411
G01 X5.1927 Y31.1651
G01 X5.2502 Y31.2611
G01 X5.2661 Y31.2843
G01 X5.3218 Y31.3594
G01 X5.3394 Y31.3813
G01 X5.4084 Y31.4576
G01 X5.4213 Y31.4712
G01 X5.4349 Y31.4841
G01 X5.4827 Y31.5274
G01 X5.4827 Y31.5379
G01 X5.2650 Y31.5379
G01 X5.2463 Y31.5384
G01 X5.2275 Y31.5398
G01 X5.1997 Y31.5435
G01 X5.1722 Y31.5494
G01 X5.1521 Y31.5550
G00 Z2.0000
G00 X4.8829 Y32.4943
G01 F60.00
G01 Z-0.1100
G01 F120.00
G01 X4.8712 Y32.4699
G01 X4.8628 Y32.4542
G01 X4.8179 Y32.3791
G01 X4.8079 Y32.3633
G01 X4.7971 Y32.3479
G01 X4.7446 Y32.2774
G01 X4.7327 Y32.2629
G01 X4.7073 Y32.2347
G01 X4.7073 Y31.8621
G01 X4.7869 Y31.8620
G01 X4.8150 Y31.8602
G01 X4.8336 Y31.8579
G01 X4.8520 Y31.8547
G01 X4.8703 Y31.8506
G01 X4.8904 Y31.8450
G01 X4.8871 Y31.8639
G01 X4.8848 Y31.8825
G01 X4.8834 Y31.9013
G01 X4.8829 Y31.9200
G01 X4.8829 Y32.4943
G00 Z2.0000
G00 X4.7750 Y33.7218
G01 F60.00
G01 Z-0.1100
G01 F120.00
G01 X4.8018 Y33.6855
G01 X4.8074 Y33.6775
G01 X4.8179 Y33.6609
G01 X4.8630 Y33.5854
G01 X4.8718 Y33.5689
G01 X4.8829 Y33.5457
G01 X4.8829 Y33.7622
G01 X4.8606 Y33.7507
G01 X4.8350 Y33.7398
G01 X4.8086 Y33.7307
G01 X4.7750 Y33.7218
G00 Z2.0000
G00 X5.0143 Y34.1200
G01 F60.00
G01 Z-0.1100
G01 F120.00
G01 X5.0143 Y31.9200
G01 X5.0146 Y31.9077
G01 X5.0161 Y31.8893
G01 X5.0180 Y31.8771
G01 X5.0218 Y31.8591
G01 X5.0251 Y31.8472
G01 X5.0311 Y31.8298
G01 X5.0358 Y31.8184
G01 X5.0439 Y31.8018
G01 X5.0532 Y31.7859
G01 X5.0600 Y31.7756
G01 X5.0673 Y31.7657
G01 X5.0792 Y31.7516
G01 X5.0877 Y31.7427
G01 X5.1012 Y31.7301
G01 X5.1156 Y31.7186
G01 X5.1309 Y31.7082
G01 X5.1468 Y31.6989
G01 X5.1578 Y31.6933
G01 X5.1748 Y31.6861
G01 X5.1863 Y31.6819
G01 X5.2041 Y31.6768
G01 X5.2221 Y31.6730
G01 X5.2404 Y31.6705
G01 X5.2588 Y31.6693
G01 X5.6140 Y31.6693
G01 X5.6140 Y31.4671
G01 X5.6023 Y31.4582
G01 X5.5924 Y31.4496
G01 X5.5231 Y31.3868
G01 X5.5142 Y31.3783
G01 X5.5057 Y31.3694
G01 X5.4429 Y31.3001
G01 X5.4349 Y31.2908
G01 X5.4273 Y31.2811
G01 X5.3716 Y31.2060
G01 X5.3645 Y31.1960
G01 X5.3580 Y31.1856
G01 X5.3040 Y31.0951
G01 X5.2983 Y31.0837
G01 X5.2583 Y30.9992
G01 X5.2533 Y30.9879
G01 X5.2489 Y30.9765
G01 X5.2174 Y30.8885
G01 X5.2136 Y30.8768
G01 X5.2103 Y30.8649
G01 X5.1862 Y30.7686
G01 X5.1830 Y30.7513
G01 X5.1691 Y30.6577
G01 X5.1675 Y30.6446
G01 X5.1621 Y30.5398
G01 X5.1618 Y30.5275
G01 X5.1618 Y30.4263
G01 X5.1670 Y30.3207
G01 X5.1691 Y30.3023
G01 X5.1828 Y30.2099
G01 X5.1849 Y30.1978
G01 X5.1876 Y30.1858
G01 X5.2103 Y30.0951
G01 X5.2136 Y30.0833
G01 X5.2174 Y30.0716
G01 X5.2511 Y29.9778
G01 X5.2583 Y29.9608
G01 X5.2983 Y29.8763
G01 X5.3038 Y29.8653
G01 X5.3099 Y29.8546
G01 X5.3580 Y29.7744
G01 X5.3649 Y29.7635
G01 X5.3716 Y29.7540
G01 X5.4343 Y29.6698
G01 X5.4429 Y29.6599
G01 X5.5057 Y29.5906
G01 X5.5142 Y29.5817
G01 X5.5231 Y29.5732
G01 X5.5924 Y29.5104
G01 X5.6017 Y29.5024
G01 X5.6114 Y29.4948
G01 X5.6865 Y29.4391
G01 X5.6965 Y29.4320
G01 X5.7069 Y29.4255
G01 X5.7973 Y29.3716
G01 X5.8088 Y29.3658
G01 X5.8933 Y29.3258
G01 X5.9046 Y29.3208
G01 X5.9160 Y29.3164
G01 X6.0040 Y29.2849
G01 X6.0157 Y29.2811
G01 X6.0276 Y29.2778
G01 X6.1183 Y29.2551
G01 X6.1303 Y29.2524
G01 X6.1424 Y29.2503
G01 X6.2348 Y29.2366
G01 X6.2479 Y29.2350
G01 X6.3527 Y29.2296
G01 X6.3650 Y29.2293
G01 X6.3773 Y29.2296
G01 X6.4707 Y29.2341
G01 X6.4829 Y29.2351
G01 X6.4952 Y29.2366
G01 X6.5876 Y29.2503
G01 X6.5997 Y29.2524
G01 X6.6117 Y29.2551
G01 X6.7024 Y29.2778
G01 X6.7142 Y29.2811
G01 X6.7259 Y29.2849
G01 X6.8197 Y29.3186
G01 X6.8367 Y29.3258
G01 X6.9212 Y29.3658
G01 X6.9322 Y29.3713
G01 X6.9429 Y29.3774
G01 X7.0231 Y29.4255
G01 X7.0340 Y29.4324
G01 X7.1186 Y29.4948
G01 X7.1277 Y29.5018
G01 X7.1364 Y29.5093
G01 X7.2069 Y29.5732
G01 X7.2158 Y29.5817
G01 X7.2243 Y29.5906
G01 X7.2871 Y29.6599
G01 X7.2951 Y29.6692
G01 X7.3027 Y29.6789
G01 X7.3584 Y29.7540
G01 X7.3655 Y29.7640
G01 X7.3720 Y29.7744
G01 X7.4201 Y29.8546
G01 X7.4260 Y29.8649
G01 X7.4313 Y29.8755
G01 X7.4717 Y29.9608
G01 X7.4767 Y29.9721
G01 X7.4811 Y29.9835
G01 X7.5126 Y30.0715
G01 X7.5164 Y30.0832
G01 X7.5197 Y30.0951
G01 X7.5450 Y30.1972
G01 X7.5472 Y30.2099
G01 X7.5618 Y30.3089
G01 X7.5634 Y30.3268
G01 X7.5679 Y30.4202
G01 X7.5682 Y30.4325
G01 X7.5682 Y30.5337
G01 X7.5630 Y30.6393
G01 X7.5609 Y30.6577
G01 X7.5472 Y30.7501
G01 X7.5451 Y30.7622
G01 X7.5424 Y30.7742
G01 X7.5197 Y30.8649
G01 X7.5146 Y30.8826
G01 X7.4811 Y30.9765
G01 X7.4766 Y30.9880
G01 X7.4717 Y30.9992
G01 X7.4317 Y31.0837
G01 X7.4262 Y31.0947
G01 X7.4201 Y31.1054
G01 X7.3720 Y31.1856
G01 X7.3651 Y31.1965
G01 X7.3584 Y31.2060
G01 X7.2957 Y31.2902
G01 X7.2871 Y31.3001
G01 X7.2243 Y31.3694
G01 X7.2158 Y31.3783
G01 X7.2069 Y31.3868
G01 X7.1376 Y31.4496
G01 X7.1283 Y31.4576
G01 X7.1160 Y31.4671
G01 X7.1160 Y31.6693
G01 X7.4650 Y31.6693
G01 X7.4773 Y31.6696
G01 X7.4957 Y31.6711
G01 X7.5079 Y31.6730
G01 X7.5199 Y31.6754
G01 X7.5378 Y31.6801
G01 X7.5552 Y31.6861
G01 X7.5722 Y31.6933
G01 X7.5886 Y31.7018
G01 X7.6043 Y31.7115
G01 X7.6193 Y31.7223
G01 X7.6334 Y31.7342
G01 X7.6466 Y31.7471
G01 X7.6588 Y31.7609
G01 X7.6700 Y31.7756
G01 X7.6801 Y31.7911
G01 X7.6890 Y31.8073
G01 X7.6967 Y31.8240
G01 X7.7031 Y31.8413
G01 X7.7082 Y31.8591
G01 X7.7120 Y31.8771
G01 X7.7145 Y31.8954
G01 X7.7154 Y31.9077
G01 X7.7157 Y31.9200
G01 X7.7157 Y34.1200
G01 X7.7151 Y34.1384
G01 X7.7139 Y34.1507
G01 X7.7120 Y34.1629
G01 X7.7082 Y34.1809
G01 X7.7031 Y34.1987
G01 X7.6967 Y34.2160
G01 X7.6890 Y34.2327
G01 X7.6801 Y34.2489
G01 X7.6700 Y34.2644
G01 X7.6627 Y34.2743
G01 X7.6508 Y34.2884
G01 X7.6423 Y34.2973
G01 X7.6288 Y34.3099
G01 X7.6144 Y34.3214
G01 X7.5991 Y34.3318
G01 X7.5832 Y34.3411
G01 X7.5666 Y34.3492
G01 X7.5495 Y34.3561
G01 X7.5319 Y34.3617
G01 X7.5199 Y34.3646
G01 X7.5079 Y34.3670
G01 X7.4896 Y34.3695
G01 X7.4712 Y34.3707
G01 X7.1160 Y34.3707
G01 X7.1160 Y34.7565
G01 X7.1389 Y34.7774
G01 X7.1476 Y34.7861
G01 X7.2119 Y34.8570
G01 X7.2235 Y34.8714
G01 X7.2768 Y34.9434
G01 X7.2868 Y34.9589
G01 X7.3355 Y35.0406
G01 X7.3408 Y35.0511
G01 X7.3796 Y35.1332
G01 X7.3864 Y35.1502
G01 X7.4145 Y35.2288
G01 X7.4183 Y35.2405
G01 X7.4216 Y35.2523
G01 X7.4445 Y35.3447
G01 X7.4465 Y35.3562
G01 X7.4589 Y35.4399
G01 X7.4605 Y35.4530
G01 X7.4654 Y35.5477
G01 X7.4657 Y35.5600
G01 X7.4654 Y35.5723
G01 X7.4613 Y35.6556
G01 X7.4604 Y35.6679
G01 X7.4589 Y35.6801
G01 X7.4467 Y35.7626
G01 X7.4446 Y35.7747
G01 X7.4419 Y35.7868
G01 X7.4216 Y35.8677
G01 X7.4184 Y35.8795
G01 X7.4145 Y35.8912
G01 X7.3864 Y35.9698
G01 X7.3820 Y35.9812
G01 X7.3770 Y35.9925
G01 X7.3413 Y36.0679
G01 X7.3358 Y36.0789
G01 X7.3297 Y36.0896
G01 X7.2868 Y36.1611
G01 X7.2799 Y36.1720
G01 X7.2731 Y36.1816
G01 X7.2164 Y36.2576
G01 X7.2090 Y36.2663
G01 X7.1518 Y36.3294
G01 X7.1389 Y36.3426
G01 X7.0726 Y36.4028
G01 X7.0633 Y36.4109
G01 X7.0536 Y36.4185
G01 X6.9866 Y36.4681
G01 X6.9765 Y36.4752
G01 X6.9661 Y36.4818
G01 X6.8844 Y36.5305
G01 X6.8729 Y36.5363
G01 X6.7975 Y36.5720
G01 X6.7861 Y36.5770
G01 X6.7748 Y36.5814
G01 X6.6962 Y36.6095
G01 X6.6845 Y36.6133
G01 X6.6727 Y36.6166
G01 X6.5918 Y36.6369
G01 X6.5797 Y36.6396
G01 X6.5676 Y36.6417
G01 X6.4851 Y36.6539
G01 X6.4720 Y36.6555
G01 X6.3773 Y36.6604
G01 X6.3650 Y36.6607
G01 X6.3527 Y36.6604
G01 X6.2694 Y36.6563
G01 X6.2571 Y36.6554
G01 X6.2449 Y36.6539
G01 X6.1624 Y36.6417
G01 X6.1503 Y36.6396
G01 X6.1382 Y36.6369
G01 X6.0573 Y36.6166
G01 X6.0455 Y36.6134
G01 X6.0338 Y36.6095
G01 X5.9552 Y36.5814
G01 X5.9438 Y36.5770
G01 X5.9325 Y36.5720
G01 X5.8571 Y36.5363
G01 X5.8461 Y36.5308
G01 X5.8354 Y36.5247
G01 X5.7639 Y36.4818
G01 X5.7530 Y36.4749
G01 X5.7434 Y36.4681
G01 X5.6674 Y36.4114
G01 X5.6587 Y36.4040
G01 X5.5956 Y36.3468
G01 X5.5824 Y36.3339
G01 X5.5222 Y36.2676
G01 X5.5141 Y36.2583
G01 X5.5065 Y36.2486
G01 X5.4569 Y36.1816
G01 X5.4498 Y36.1715
G01 X5.4432 Y36.1611
G01 X5.3945 Y36.0794
G01 X5.3887 Y36.0679
G01 X5.3530 Y35.9925
G01 X5.3479 Y35.9810
G01 X5.3436 Y35.9698
G01 X5.3155 Y35.8912
G01 X5.3117 Y35.8795
G01 X5.3084 Y35.8677
G01 X5.2855 Y35.7753
G01 X5.2835 Y35.7638
G01 X5.2711 Y35.6801
G01 X5.2695 Y35.6670
G01 X5.2646 Y35.5723
G01 X5.2643 Y35.5538
G01 X5.2687 Y35.4644
G01 X5.2696 Y35.4521
G01 X5.2711 Y35.4399
G01 X5.2833 Y35.3574
G01 X5.2854 Y35.3453
G01 X5.2881 Y35.3332
G01 X5.3084 Y35.2523
G01 X5.3116 Y35.2406
G01 X5.3154 Y35.2291
G01 X5.3436 Y35.1502
G01 X5.3505 Y35.1331
G01 X5.3887 Y35.0521
G01 X5.3942 Y35.0411
G01 X5.4003 Y35.0304
G01 X5.4432 Y34.9589
G01 X5.4537 Y34.9427
G01 X5.5065 Y34.8714
G01 X5.5172 Y34.8580
G01 X5.5824 Y34.7861
G01 X5.5911 Y34.7774
G01 X5.6140 Y34.7565
G01 X5.6140 Y34.3707
G01 X5.2650 Y34.3707
G01 X5.2527 Y34.3704
G01 X5.2343 Y34.3689
G01 X5.2221 Y34.3670
G01 X5.2101 Y34.3646
G01 X5.1981 Y34.3617
G01 X5.1863 Y34.3581
G01 X5.1690 Y34.3517
G01 X5.1523 Y34.3440
G01 X5.1361 Y34.3351
G01 X5.1206 Y34.3250
G01 X5.1059 Y34.3138
G01 X5.0921 Y34.3016
G01 X5.0792 Y34.2884
G01 X5.0673 Y34.2743
G01 X5.0565 Y34.2593
G01 X5.0468 Y34.2436
G01 X5.0383 Y34.2272
G01 X5.0311 Y34.2102
G01 X5.0251 Y34.1928
G01 X5.0204 Y34.1749
G01 X5.0170 Y34.1568
G01 X5.0149 Y34.1384
G01 X5.0143 Y34.1200
G00 Z2.0000
G00 X5.1456 Y34.1200
G01 F60.00
G01 Z-0.1100
G01 F120.00
G01 X5.1456 Y31.9200
G01 X5.1465 Y31.9054
G01 X5.1492 Y31.8910
G01 X5.1516 Y31.8825
G01 X5.1547 Y31.8743
G01 X5.1583 Y31.8663
G01 X5.1626 Y31.8586
G01 X5.1674 Y31.8512
G01 X5.1727 Y31.8443
G01 X5.1785 Y31.8377
G01 X5.1848 Y31.8315
G01 X5.1915 Y31.8259
G01 X5.1987 Y31.8207
G01 X5.2061 Y31.8161
G01 X5.2139 Y31.8121
G01 X5.2220 Y31.8086
G01 X5.2303 Y31.8057
G01 X5.2388 Y31.8035
G01 X5.2475 Y31.8019
G01 X5.2562 Y31.8009
G01 X5.2650 Y31.8006
G01 X5.7453 Y31.8006
G01 X5.7453 Y31.4010
G01 X5.6896 Y31.3597
G01 X5.6832 Y31.3546
G01 X5.6071 Y31.2854
G01 X5.5364 Y31.2075
G01 X5.4737 Y31.1230
G01 X5.4198 Y31.0330
G01 X5.3747 Y30.9376
G01 X5.3393 Y30.8387
G01 X5.3150 Y30.7423
G01 X5.3127 Y30.7308
G01 X5.2990 Y30.6384
G01 X5.2980 Y30.6290
G01 X5.2931 Y30.5304
G01 X5.2932 Y30.4266
G01 X5.2983 Y30.3274
G01 X5.3127 Y30.2292
G01 X5.3150 Y30.2177
G01 X5.3377 Y30.1270
G01 X5.3401 Y30.1186
G01 X5.3747 Y30.0223
G01 X5.4197 Y29.9272
G01 X5.4739 Y29.8368
G01 X5.5362 Y29.7528
G01 X5.6071 Y29.6746
G01 X5.6850 Y29.6039
G01 X5.7695 Y29.5412
G01 X5.8595 Y29.4873
G01 X5.9549 Y29.4422
G01 X6.0538 Y29.4068
G01 X6.1559 Y29.3812
G01 X6.2603 Y29.3657
G01 X6.3650 Y29.3606
G01 X6.4701 Y29.3658
G01 X6.5741 Y29.3812
G01 X6.6705 Y29.4052
G01 X6.6789 Y29.4076
G01 X6.7752 Y29.4422
G01 X6.8651 Y29.4845
G01 X6.8754 Y29.4901
G01 X6.9607 Y29.5414
G01 X7.0447 Y29.6037
G01 X7.1187 Y29.6705
G01 X7.1270 Y29.6788
G01 X7.1936 Y29.7525
G01 X7.2563 Y29.8370
G01 X7.3074 Y29.9221
G01 X7.3128 Y29.9321
G01 X7.3553 Y30.0224
G01 X7.3889 Y30.1158
G01 X7.3923 Y30.1270
G01 X7.4162 Y30.2231
G01 X7.4314 Y30.3247
G01 X7.4322 Y30.3333
G01 X7.4369 Y30.4296
G01 X7.4369 Y30.5275
G01 X7.4322 Y30.6267
G01 X7.4314 Y30.6355
G01 X7.4163 Y30.7366
G01 X7.3923 Y30.8330
G01 X7.3889 Y30.8442
G01 X7.3553 Y30.9377
G01 X7.3130 Y31.0276
G01 X7.3074 Y31.0379
G01 X7.2561 Y31.1232
G01 X7.1938 Y31.2072
G01 X7.1270 Y31.2812
G01 X7.1187 Y31.2895
G01 X7.0450 Y31.3561
G01 X6.9847 Y31.4010
G01 X6.9847 Y31.8006
G01 X7.4650 Y31.8006
G01 X7.4767 Y31.8012
G01 X7.4883 Y31.8029
G01 X7.4968 Y31.8049
G01 X7.5052 Y31.8076
G01 X7.5134 Y31.8108
G01 X7.5239 Y31.8161
G01 X7.5338 Y31.8224
G01 X7.5407 Y31.8277
G01 X7.5494 Y31.8356
G01 X7.5554 Y31.8420
G01 X7.5609 Y31.8489
G01 X7.5674 Y31.8586
G01 X7.5729 Y31.8689
G01 X7.5764 Y31.8770
G01 X7.5793 Y31.8853
G01 X7.5815 Y31.8938
G01 X7.5835 Y31.9054
G01 X7.5843 Y31.9141
G01 X7.5844 Y34.1200
G01 X7.5841 Y34.1288
G01 X7.5831 Y34.1375
G01 X7.5808 Y34.1490
G01 X7.5784 Y34.1575
G01 X7.5753 Y34.1657
G01 X7.5717 Y34.1737
G01 X7.5674 Y34.1814
G01 X7.5626 Y34.1888
G01 X7.5573 Y34.1957
G01 X7.5515 Y34.2023
G01 X7.5452 Y34.2085
G01 X7.5385 Y34.2141
G01 X7.5313 Y34.2193
G01 X7.5213 Y34.2253
G01 X7.5134 Y34.2292
G01 X7.5052 Y34.2324
G01 X7.4968 Y34.2351
G01 X7.4854 Y34.2376
G01 X7.4738 Y34.2391
G01 X7.4650 Y34.2394
G01 X6.9847 Y34.2394
G01 X6.9847 Y34.8147
G01 X7.0505 Y34.8745
G01 X7.1105 Y34.9406
G01 X7.1180 Y34.9496
G01 X7.1677 Y35.0166
G01 X7.1742 Y35.0264
G01 X7.2198 Y35.1028
G01 X7.2582 Y35.1837
G01 X7.2627 Y35.1945
G01 X7.2927 Y35.2786
G01 X7.3157 Y35.3706
G01 X7.3298 Y35.4654
G01 X7.3344 Y35.5600
G01 X7.3297 Y35.6550
G01 X7.3158 Y35.7491
G01 X7.2927 Y35.8414
G01 X7.2627 Y35.9255
G01 X7.2582 Y35.9363
G01 X7.2226 Y36.0117
G01 X7.2170 Y36.0221
G01 X7.1709 Y36.0988
G01 X7.1180 Y36.1704
G01 X7.1111 Y36.1788
G01 X7.0505 Y36.2455
G01 X6.9800 Y36.3094
G01 X6.9036 Y36.3660
G01 X6.8222 Y36.4148
G01 X6.7359 Y36.4556
G01 X6.6464 Y36.4877
G01 X6.5541 Y36.5108
G01 X6.4596 Y36.5248
G01 X6.3650 Y36.5294
G01 X6.2700 Y36.5247
G01 X6.1759 Y36.5108
G01 X6.0836 Y36.4877
G01 X5.9940 Y36.4556
G01 X5.9080 Y36.4149
G01 X5.8262 Y36.3659
G01 X5.7503 Y36.3096
G01 X5.6795 Y36.2455
G01 X5.6156 Y36.1750
G01 X5.5590 Y36.0986
G01 X5.5102 Y36.0172
G01 X5.4693 Y35.9308
G01 X5.4373 Y35.8414
G01 X5.4143 Y35.7494
G01 X5.4002 Y35.6546
G01 X5.3956 Y35.5600
G01 X5.4000 Y35.4679
G01 X5.4010 Y35.4592
G01 X5.4142 Y35.3709
G01 X5.4373 Y35.2787
G01 X5.4694 Y35.1890
G01 X5.5101 Y35.1030
G01 X5.5591 Y35.0212
G01 X5.6154 Y34.9453
G01 X5.6795 Y34.8745
G01 X5.7453 Y34.8147
G01 X5.7453 Y34.2394
G01 X5.2650 Y34.2394
G01 X5.2533 Y34.2388
G01 X5.2417 Y34.2371
G01 X5.2303 Y34.2343
G01 X5.2220 Y34.2314
G01 X5.2113 Y34.2267
G01 X5.2036 Y34.2224
G01 X5.1939 Y34.2159
G01 X5.1870 Y34.2104
G01 X5.1806 Y34.2044
G01 X5.1727 Y34.1957
G01 X5.1657 Y34.1863
G01 X5.1611 Y34.1789
G01 X5.1571 Y34.1711
G01 X5.1526 Y34.1602
G01 X5.1492 Y34.1490
G01 X5.1474 Y34.1404
G01 X5.1459 Y34.1288
G01 X5.1456 Y34.1200
G00 Z2.0000
G00 X7.5416 Y34.8730
G01 F60.00
G01 Z-0.1100
G01 F120.00
G01 X7.5055 Y34.8131
G01 X7.4915 Y34.7921
G01 X7.4841 Y34.7819
G01 X7.4268 Y34.7049
G01 X7.4108 Y34.6854
G01 X7.3787 Y34.6497
G01 X7.3787 Y34.6334
G01 X7.4650 Y34.6334
G01 X7.4902 Y34.6328
G01 X7.5153 Y34.6309
G01 X7.5278 Y34.6296
G01 X7.5484 Y34.6266
G01 X7.5454 Y34.6472
G01 X7.5441 Y34.6597
G01 X7.5430 Y34.6722
G01 X7.5417 Y34.6974
G01 X7.5416 Y34.8730
G00 Z2.0000
G00 X7.4804 Y36.0811
G01 F60.00
G01 Z-0.1100
G01 F120.00
G01 X7.4996 Y36.0401
G01 X7.5068 Y36.0228
G01 X7.5412 Y35.9265
G01 X7.5490 Y35.8996
G01 X7.5693 Y35.8187
G01 X7.5751 Y35.7911
G01 X7.5889 Y35.6994
G01 X7.5911 Y35.6808
G01 X7.5925 Y35.6621
G01 X7.5966 Y35.5787
G01 X7.5970 Y35.5506
G01 X7.5925 Y35.4579
G01 X7.5913 Y35.4405
G01 X7.5889 Y35.4206
G01 X7.5763 Y35.3363
G01 X7.5732 Y35.3187
G01 X7.5693 Y35.3013
G01 X7.5490 Y35.2204
G01 X7.5440 Y35.2023
G01 X7.5381 Y35.1845
G01 X7.5100 Y35.1060
G01 X7.5035 Y35.0889
G01 X7.4957 Y35.0714
G01 X7.4600 Y34.9960
G01 X7.4512 Y34.9784
G01 X7.4424 Y34.9629
G01 X7.3995 Y34.8913
G01 X7.3841 Y34.8678
G01 X7.3289 Y34.7932
G01 X7.3174 Y34.7784
G01 X7.3052 Y34.7642
G01 X7.2473 Y34.7004
G01 X7.2473 Y34.5021
G01 X7.4744 Y34.5020
G01 X7.5025 Y34.5002
G01 X7.5211 Y34.4979
G01 X7.5395 Y34.4947
G01 X7.5669 Y34.4882
G01 X7.5937 Y34.4797
G01 X7.6198 Y34.4693
G01 X7.6368 Y34.4613
G01 X7.6533 Y34.4524
G01 X7.6773 Y34.4377
G01 X7.7001 Y34.4212
G01 X7.7195 Y34.4050
G01 X7.7487 Y34.4385
G01 X7.7678 Y34.4581
G01 X7.7596 Y34.4676
G01 X7.7481 Y34.4824
G01 X7.7322 Y34.5056
G01 X7.7180 Y34.5299
G01 X7.7096 Y34.5466
G01 X7.7020 Y34.5638
G01 X7.6922 Y34.5901
G01 X7.6868 Y34.6081
G01 X7.6822 Y34.6263
G01 X7.6785 Y34.6447
G01 X7.6758 Y34.6632
G01 X7.6734 Y34.6913
G01 X7.6729 Y34.7100
G01 X7.6729 Y36.1312
G01 X7.6490 Y36.1189
G01 X7.6229 Y36.1078
G01 X7.5964 Y36.0987
G01 X7.5785 Y36.0938
G01 X7.5511 Y36.0881
G01 X7.5327 Y36.0853
G01 X7.5142 Y36.0835
G01 X7.4804 Y36.0811
G00 Z2.0000
G00 X7.8043 Y36.4100
G01 F60.00
G01 Z-0.1100
G01 F120.00
G01 X7.8043 Y34.7100
G01 X7.8046 Y34.6977
G01 X7.8055 Y34.6854
G01 X7.8070 Y34.6732
G01 X7.8104 Y34.6551
G01 X7.8133 Y34.6431
G01 X7.8169 Y34.6313
G01 X7.8211 Y34.6198
G01 X7.8258 Y34.6084
G01 X7.8310 Y34.5973
G01 X7.8368 Y34.5864
G01 X7.8432 Y34.5759
G01 X7.8500 Y34.5656
G01 X7.8573 Y34.5557
G01 X7.8651 Y34.5462
G01 X7.8734 Y34.5371
G01 X7.8821 Y34.5284
G01 X7.8959 Y34.5162
G01 X7.9106 Y34.5050
G01 X7.9261 Y34.4949
G01 X7.9423 Y34.4860
G01 X7.9534 Y34.4808
G01 X7.9648 Y34.4761
G01 X7.9822 Y34.4701
G01 X7.9941 Y34.4668
G01 X8.0061 Y34.4641
G01 X8.0182 Y34.4620
G01 X8.0304 Y34.4605
G01 X8.0488 Y34.4593
G01 X9.7550 Y34.4593
G01 X9.7673 Y34.4596
G01 X9.7796 Y34.4605
G01 X9.7918 Y34.4620
G01 X9.8099 Y34.4654
G01 X9.8219 Y34.4683
G01 X9.8395 Y34.4739
G01 X9.8566 Y34.4808
G01 X9.8677 Y34.4860
G01 X9.8786 Y34.4918
G01 X9.8891 Y34.4982
G01 X9.9044 Y34.5086
G01 X9.9141 Y34.5162
G01 X9.9234 Y34.5242
G01 X9.9323 Y34.5327
G01 X9.9408 Y34.5416
G01 X9.9488 Y34.5509
G01 X9.9564 Y34.5606
G01 X9.9668 Y34.5759
G01 X9.9732 Y34.5864
G01 X9.9790 Y34.5973
G01 X9.9842 Y34.6084
G01 X9.9889 Y34.6198
G01 X9.9931 Y34.6313
G01 X9.9967 Y34.6431
G01 X9.9996 Y34.6551
G01 X10.0020 Y34.6671
G01 X10.0045 Y34.6854
G01 X10.0057 Y34.7038
G01 X10.0057 Y34.8090
G01 X11.1339 Y34.8090
G01 X12.6601 Y33.2828
G01 X12.6581 Y33.2714
G01 X12.6423 Y33.1646
G01 X12.6407 Y33.1515
G01 X12.6346 Y33.0323
G01 X12.6343 Y33.0200
G01 X12.6346 Y33.0077
G01 X12.6399 Y32.8999
G01 X12.6408 Y32.8876
G01 X12.6423 Y32.8754
G01 X12.6581 Y32.7686
G01 X12.6602 Y32.7565
G01 X12.6629 Y32.7445
G01 X12.6891 Y32.6398
G01 X12.6924 Y32.6280
G01 X12.6962 Y32.6163
G01 X12.7326 Y32.5146
G01 X12.7371 Y32.5031
G01 X12.7421 Y32.4918
G01 X12.7882 Y32.3943
G01 X12.7938 Y32.3833
G01 X12.7998 Y32.3726
G01 X12.8553 Y32.2800
G01 X12.8622 Y32.2691
G01 X12.8690 Y32.2595
G01 X12.9403 Y32.1638
G01 X12.9489 Y32.1538
G01 X13.0214 Y32.0738
G01 X13.0299 Y32.0649
G01 X13.0388 Y32.0564
G01 X13.1188 Y31.9839
G01 X13.1281 Y31.9759
G01 X13.1378 Y31.9683
G01 X13.2245 Y31.9040
G01 X13.2340 Y31.8973
G01 X13.2340 Y22.3410
G01 X13.0261 Y22.3410
G01 X11.9760 Y23.3910
G01 X11.9307 Y23.4325
G01 X11.9214 Y23.4405
G01 X11.9117 Y23.4481
G01 X11.8622 Y23.4844
G01 X11.8518 Y23.4910
G01 X11.7995 Y23.5220
G01 X11.7880 Y23.5278
G01 X11.7436 Y23.5488
G01 X11.7321 Y23.5539
G01 X11.6747 Y23.5748
G01 X11.6630 Y23.5787
G01 X11.6511 Y23.5819
G01 X11.5915 Y23.5966
G01 X11.5308 Y23.6059
G01 X11.5112 Y23.6080
G01 X11.4512 Y23.6109
G01 X10.0057 Y23.6110
G01 X10.0057 Y23.7162
G01 X10.0045 Y23.7346
G01 X10.0030 Y23.7468
G01 X10.0009 Y23.7589
G01 X9.9982 Y23.7709
G01 X9.9949 Y23.7828
G01 X9.9911 Y23.7945
G01 X9.9867 Y23.8060
G01 X9.9817 Y23.8172
G01 X9.9761 Y23.8282
G01 X9.9701 Y23.8389
G01 X9.9600 Y23.8544
G01 X9.9488 Y23.8691
G01 X9.9408 Y23.8784
G01 X9.9323 Y23.8873
G01 X9.9188 Y23.8999
G01 X9.9093 Y23.9077
G01 X9.8994 Y23.9150
G01 X9.8839 Y23.9251
G01 X9.8732 Y23.9311
G01 X9.8566 Y23.9392
G01 X9.8452 Y23.9439
G01 X9.8337 Y23.9481
G01 X9.8159 Y23.9532
G01 X9.8039 Y23.9559
G01 X9.7857 Y23.9589
G01 X9.7734 Y23.9601
G01 X9.7612 Y23.9607
G01 X8.0550 Y23.9607
G01 X8.0427 Y23.9604
G01 X8.0243 Y23.9589
G01 X8.0121 Y23.9570
G01 X8.0001 Y23.9546
G01 X7.9881 Y23.9517
G01 X7.9763 Y23.9481
G01 X7.9648 Y23.9439
G01 X7.9534 Y23.9392
G01 X7.9368 Y23.9311
G01 X7.9261 Y23.9251
G01 X7.9157 Y23.9185
G01 X7.9007 Y23.9077
G01 X7.8912 Y23.8999
G01 X7.8821 Y23.8916
G01 X7.8692 Y23.8784
G01 X7.8612 Y23.8691
G01 X7.8536 Y23.8594
G01 X7.8432 Y23.8441
G01 X7.8368 Y23.8336
G01 X7.8310 Y23.8227
G01 X7.8258 Y23.8116
G01 X7.8211 Y23.8002
G01 X7.8169 Y23.7887
G01 X7.8133 Y23.7769
G01 X7.8104 Y23.7649
G01 X7.8080 Y23.7529
G01 X7.8061 Y23.7407
G01 X7.8049 Y23.7284
G01 X7.8043 Y23.7100
G01 X7.8043 Y22.0100
G01 X7.8046 Y21.9977
G01 X7.8061 Y21.9793
G01 X7.8080 Y21.9671
G01 X7.8104 Y21.9551
G01 X7.8133 Y21.9431
G01 X7.8169 Y21.9313
G01 X7.8211 Y21.9198
G01 X7.8258 Y21.9084
G01 X7.8310 Y21.8973
G01 X7.8368 Y21.8864
G01 X7.8465 Y21.8707
G01 X7.8536 Y21.8606
G01 X7.8612 Y21.8509
G01 X7.8692 Y21.8416
G01 X7.8777 Y21.8327
G01 X7.8866 Y21.8242
G01 X7.8959 Y21.8162
G01 X7.9106 Y21.8050
G01 X7.9261 Y21.7949
G01 X7.9423 Y21.7860
G01 X7.9534 Y21.7808
G01 X7.9648 Y21.7761
G01 X7.9763 Y21.7719
G01 X7.9881 Y21.7683
G01 X8.0061 Y21.7641
G01 X8.0243 Y21.7611
G01 X8.0366 Y21.7599
G01 X8.0488 Y21.7593
G01 X9.7550 Y21.7593
G01 X9.7673 Y21.7596
G01 X9.7796 Y21.7605
G01 X9.7918 Y21.7620
G01 X9.8039 Y21.7641
G01 X9.8219 Y21.7683
G01 X9.8337 Y21.7719
G01 X9.8452 Y21.7761
G01 X9.8566 Y21.7808
G01 X9.8677 Y21.7860
G01 X9.8839 Y21.7949
G01 X9.8994 Y21.8050
G01 X9.9093 Y21.8123
G01 X9.9188 Y21.8201
G01 X9.9323 Y21.8327
G01 X9.9408 Y21.8416
G01 X9.9488 Y21.8509
G01 X9.9600 Y21.8656
G01 X9.9668 Y21.8759
G01 X9.9732 Y21.8864
G01 X9.9790 Y21.8973
G01 X9.9842 Y21.9084
G01 X9.9889 Y21.9198
G01 X9.9931 Y21.9313
G01 X9.9967 Y21.9431
G01 X9.9996 Y21.9551
G01 X10.0020 Y21.9671
G01 X10.0045 Y21.9854
G01 X10.0057 Y22.0038
G01 X10.0057 Y22.1090
G01 X11.1339 Y22.1090
G01 X12.6601 Y20.5828
G01 X12.6581 Y20.5714
G01 X12.6423 Y20.4646
G01 X12.6407 Y20.4515
G01 X12.6346 Y20.3323
G01 X12.6343 Y20.3200
G01 X12.6346 Y20.3077
G01 X12.6399 Y20.1999
G01 X12.6408 Y20.1876
G01 X12.6423 Y20.1754
G01 X12.6581 Y20.0686
G01 X12.6602 Y20.0565
G01 X12.6629 Y20.0445
G01 X12.6891 Y19.9398
G01 X12.6924 Y19.9280
G01 X12.6962 Y19.9165
G01 X12.7326 Y19.8146
G01 X12.7371 Y19.8031
G01 X12.7421 Y19.7918
G01 X12.7882 Y19.6943
G01 X12.7938 Y19.6833
G01 X12.7998 Y19.6726
G01 X12.8553 Y19.5800
G01 X12.8622 Y19.5691
G01 X12.8690 Y19.5595
G01 X12.9403 Y19.4638
G01 X12.9489 Y19.4538
G01 X13.0214 Y19.3738
G01 X13.0299 Y19.3649
G01 X13.0388 Y19.3564
G01 X13.1188 Y19.2839
G01 X13.1281 Y19.2759
G01 X13.1378 Y19.2683
G01 X13.2245 Y19.2040
G01 X13.2340 Y19.1973
G01 X13.2340 Y9.6410
G01 X13.0261 Y9.6410
G01 X11.9760 Y10.6910
G01 X11.9671 Y10.6995
G01 X11.9214 Y10.7405
G01 X11.8723 Y10.7773
G01 X11.8571 Y10.7878
G01 X11.8097 Y10.8162
G01 X11.7995 Y10.8220
G01 X11.7891 Y10.8274
G01 X11.7436 Y10.8488
G01 X11.7321 Y10.8539
G01 X11.6747 Y10.8748
G01 X11.6630 Y10.8787
G01 X11.6035 Y10.8939
G01 X11.5915 Y10.8966
G01 X11.5794 Y10.8987
G01 X11.5308 Y10.9059
G01 X11.5178 Y10.9075
G01 X11.4512 Y10.9109
G01 X10.0057 Y10.9110
G01 X10.0057 Y11.0162
G01 X10.0045 Y11.0346
G01 X10.0020 Y11.0529
G01 X9.9996 Y11.0649
G01 X9.9967 Y11.0769
G01 X9.9931 Y11.0887
G01 X9.9889 Y11.1002
G01 X9.9842 Y11.1116
G01 X9.9790 Y11.1227
G01 X9.9732 Y11.1336
G01 X9.9668 Y11.1441
G01 X9.9600 Y11.1544
G01 X9.9488 Y11.1691
G01 X9.9408 Y11.1784
G01 X9.9323 Y11.1873
G01 X9.9234 Y11.1958
G01 X9.9141 Y11.2038
G01 X9.8994 Y11.2150
G01 X9.8891 Y11.2218
G01 X9.8786 Y11.2282
G01 X9.8677 Y11.2340
G01 X9.8566 Y11.2392
G01 X9.8395 Y11.2461
G01 X9.8278 Y11.2499
G01 X9.8099 Y11.2546
G01 X9.7918 Y11.2580
G01 X9.7796 Y11.2595
G01 X9.7673 Y11.2604
G01 X9.7550 Y11.2607
G01 X8.0550 Y11.2607
G01 X8.0366 Y11.2601
G01 X8.0182 Y11.2580
G01 X8.0061 Y11.2559
G01 X7.9941 Y11.2532
G01 X7.9822 Y11.2499
G01 X7.9705 Y11.2461
G01 X7.9534 Y11.2392
G01 X7.9368 Y11.2311
G01 X7.9261 Y11.2251
G01 X7.9157 Y11.2185
G01 X7.9056 Y11.2114
G01 X7.8959 Y11.2038
G01 X7.8821 Y11.1916
G01 X7.8692 Y11.1784
G01 X7.8612 Y11.1691
G01 X7.8536 Y11.1594
G01 X7.8432 Y11.1441
G01 X7.8368 Y11.1336
G01 X7.8310 Y11.1227
G01 X7.8258 Y11.1116
G01 X7.8211 Y11.1002
G01 X7.8151 Y11.0828
G01 X7.8118 Y11.0709
G01 X7.8091 Y11.0589
G01 X7.8061 Y11.0407
G01 X7.8049 Y11.0284
G01 X7.8043 Y11.0100
G01 X7.8043 Y9.3100
G01 X7.8049 Y9.2916
G01 X7.8061 Y9.2793
G01 X7.8091 Y9.2611
G01 X7.8118 Y9.2491
G01 X7.8169 Y9.2313
G01 X7.8233 Y9.2140
G01 X7.8310 Y9.1973
G01 X7.8399 Y9.1811
G01 X7.8500 Y9.1656
G01 X7.8573 Y9.1557
G01 X7.8651 Y9.1462
G01 X7.8777 Y9.1327
G01 X7.8912 Y9.1201
G01 X7.9056 Y9.1086
G01 X7.9157 Y9.1015
G01 X7.9261 Y9.0949
G01 X7.9423 Y9.0860
G01 X7.9590 Y9.0783
G01 X7.9763 Y9.0719
G01 X7.9941 Y9.0668
G01 X8.0121 Y9.0630
G01 X8.0304 Y9.0605
G01 X8.0427 Y9.0596
G01 X8.0550 Y9.0593
G01 X9.7550 Y9.0593
G01 X9.7673 Y9.0596
G01 X9.7796 Y9.0605
G01 X9.7979 Y9.0630
G01 X9.8159 Y9.0668
G01 X9.8278 Y9.0701
G01 X9.8395 Y9.0739
G01 X9.8566 Y9.0808
G01 X9.8677 Y9.0860
G01 X9.8786 Y9.0918
G01 X9.8891 Y9.0982
G01 X9.9044 Y9.1086
G01 X9.9188 Y9.1201
G01 X9.9279 Y9.1284
G01 X9.9366 Y9.1371
G01 X9.9449 Y9.1462
G01 X9.9527 Y9.1557
G01 X9.9635 Y9.1707
G01 X9.9701 Y9.1811
G01 X9.9761 Y9.1918
G01 X9.9817 Y9.2028
G01 X9.9867 Y9.2140
G01 X9.9911 Y9.2255
G01 X9.9967 Y9.2431
G01 X9.9996 Y9.2551
G01 X10.0020 Y9.2671
G01 X10.0045 Y9.2854
G01 X10.0057 Y9.3038
G01 X10.0057 Y9.4090
G01 X11.1339 Y9.4090
G01 X12.6601 Y7.8828
G01 X12.6581 Y7.8714
G01 X12.6423 Y7.7646
G01 X12.6407 Y7.7515
G01 X12.6346 Y7.6323
G01 X12.6343 Y7.6200
G01 X12.6346 Y7.6077
G01 X12.6399 Y7.4999
G01 X12.6408 Y7.4876
G01 X12.6423 Y7.4754
G01 X12.6581 Y7.3686
G01 X12.6602 Y7.3565
G01 X12.6629 Y7.3445
G01 X12.6891 Y7.2398
G01 X12.6924 Y7.2280
G01 X12.6962 Y7.2165
G01 X12.7326 Y7.1146
G01 X12.7371 Y7.1031
G01 X12.7421 Y7.0918
G01 X12.7882 Y6.9943
G01 X12.7938 Y6.9833
G01 X12.7998 Y6.9726
G01 X12.8553 Y6.8800
G01 X12.8622 Y6.8691
G01 X12.8690 Y6.8595
G01 X12.9403 Y6.7638
G01 X12.9489 Y6.7538
G01 X13.0214 Y6.6738
G01 X13.0299 Y6.6649
G01 X13.0388 Y6.6564
G01 X13.1188 Y6.5839
G01 X13.1281 Y6.5759
G01 X13.1378 Y6.5683
G01 X13.2245 Y6.5040
G01 X13.2340 Y6.4973
G01 X13.2340 Y5.0800
G01 X13.2343 Y5.0677
G01 X13.2371 Y5.0125
G01 X13.2391 Y4.9942
G01 X13.2484 Y4.9335
G01 X13.2631 Y4.8739
G01 X13.2663 Y4.8621
G01 X13.2701 Y4.8506
G01 X13.2912 Y4.7926
G01 X13.3172 Y4.7370
G01 X13.3227 Y4.7260
G01 X13.3288 Y4.7153
G01 X13.3540 Y4.6732
G01 X13.3609 Y4.6623
G01 X13.3677 Y4.6527
G01 X13.4039 Y4.6042
G01 X13.4125 Y4.5943
G01 X13.4540 Y4.5490
G01 X15.9940 Y2.0090
G01 X16.0393 Y1.9675
G01 X16.0486 Y1.9595
G01 X16.0583 Y1.9519
G01 X16.1078 Y1.9156
G01 X16.1603 Y1.8838
G01 X16.1706 Y1.8779
G01 X16.1812 Y1.8725
G01 X16.2377 Y1.8461
G01 X16.2953 Y1.8252
G01 X16.3070 Y1.8213
G01 X16.3189 Y1.8181
G01 X16.3779 Y1.8036
G01 X16.3894 Y1.8015
G01 X16.4392 Y1.7941
G01 X16.4588 Y1.7920
G01 X16.5127 Y1.7893
G01 X16.5250 Y1.7890
G01 X66.0550 Y1.7890
G01 X66.1163 Y1.7917
G01 X66.1286 Y1.7926
G01 X66.1408 Y1.7941
G01 X66.2015 Y1.8034
G01 X66.2135 Y1.8061
G01 X66.2729 Y1.8213
G01 X66.3309 Y1.8417
G01 X66.3424 Y1.8462
G01 X66.3536 Y1.8512
G01 X66.4090 Y1.8777
G01 X66.4618 Y1.9090
G01 X66.4780 Y1.9196
G01 X66.5308 Y1.9589
G01 X66.5407 Y1.9675
G01 X66.5860 Y2.0090
G01 X67.8603 Y3.2834
G01 X67.8975 Y3.3243
G01 X67.9055 Y3.3336
G01 X67.9423 Y3.3827
G01 X67.9494 Y3.3928
G01 X67.9560 Y3.4032
G01 X67.9870 Y3.4555
G01 X67.9924 Y3.4659
G01 X68.0138 Y3.5114
G01 X68.0213 Y3.5287
G01 X68.0398 Y3.5803
G01 X68.0437 Y3.5920
G01 X68.0469 Y3.6039
G01 X68.0614 Y3.6629
G01 X68.0635 Y3.6744
G01 X68.0709 Y3.7242
G01 X68.0725 Y3.7372
G01 X68.0759 Y3.8038
G01 X68.0760 Y6.4973
G01 X68.1722 Y6.5683
G01 X68.1812 Y6.5753
G01 X68.1899 Y6.5827
G01 X68.2712 Y6.6564
G01 X68.2801 Y6.6649
G01 X68.2886 Y6.6738
G01 X68.3611 Y6.7538
G01 X68.3691 Y6.7631
G01 X68.3767 Y6.7728
G01 X68.4410 Y6.8595
G01 X68.4481 Y6.8696
G01 X68.4547 Y6.8800
G01 X68.5160 Y6.9828
G01 X68.5218 Y6.9943
G01 X68.5679 Y7.0918
G01 X68.5730 Y7.1034
G01 X68.5774 Y7.1146
G01 X68.6137 Y7.2162
G01 X68.6176 Y7.2279
G01 X68.6209 Y7.2398
G01 X68.6471 Y7.3445
G01 X68.6498 Y7.3565
G01 X68.6519 Y7.3686
G01 X68.6677 Y7.4754
G01 X68.6693 Y7.4885
G01 X68.6701 Y7.4999
G01 X68.6757 Y7.6138
G01 X68.6754 Y7.6323
G01 X68.6701 Y7.7401
G01 X68.6692 Y7.7524
G01 X68.6677 Y7.7646
G01 X68.6519 Y7.8714
G01 X68.6498 Y7.8835
G01 X68.6471 Y7.8955
G01 X68.6209 Y8.0002
G01 X68.6176 Y8.0120
G01 X68.6138 Y8.0235
G01 X68.5774 Y8.1254
G01 X68.5729 Y8.1369
G01 X68.5679 Y8.1482
G01 X68.5218 Y8.2457
G01 X68.5162 Y8.2567
G01 X68.5102 Y8.2674
G01 X68.4547 Y8.3600
G01 X68.4478 Y8.3709
G01 X68.3767 Y8.4672
G01 X68.3697 Y8.4762
G01 X68.3611 Y8.4862
G01 X68.2886 Y8.5662
G01 X68.2801 Y8.5751
G01 X68.2712 Y8.5836
G01 X68.1912 Y8.6561
G01 X68.1819 Y8.6641
G01 X68.1722 Y8.6717
G01 X68.0855 Y8.7360
G01 X68.0760 Y8.7427
G01 X68.0760 Y19.1973
G01 X68.1722 Y19.2683
G01 X68.1812 Y19.2753
G01 X68.1899 Y19.2827
G01 X68.2712 Y19.3564
G01 X68.2801 Y19.3649
G01 X68.2886 Y19.3738
G01 X68.3611 Y19.4538
G01 X68.3691 Y19.4631
G01 X68.3767 Y19.4728
G01 X68.4410 Y19.5595
G01 X68.4481 Y19.5696
G01 X68.4547 Y19.5800
G01 X68.5102 Y19.6726
G01 X68.5160 Y19.6829
G01 X68.5218 Y19.6943
G01 X68.5679 Y19.7918
G01 X68.5730 Y19.8034
G01 X68.5774 Y19.8146
G01 X68.6137 Y19.9162
G01 X68.6176 Y19.9279
G01 X68.6209 Y19.9398
G01 X68.6497 Y20.0559
G01 X68.6517 Y20.0674
G01 X68.6677 Y20.1754
G01 X68.6693 Y20.1885
G01 X68.6701 Y20.1999
G01 X68.6754 Y20.3077
G01 X68.6757 Y20.3200
G01 X68.6754 Y20.3323
G01 X68.6701 Y20.4401
G01 X68.6692 Y20.4524
G01 X68.6677 Y20.4646
G01 X68.6519 Y20.5714
G01 X68.6498 Y20.5835
G01 X68.6471 Y20.5955
G01 X68.6209 Y20.7002
G01 X68.6176 Y20.7120
G01 X68.6138 Y20.7235
G01 X68.5774 Y20.8254
G01 X68.5729 Y20.8369
G01 X68.5679 Y20.8482
G01 X68.5218 Y20.9457
G01 X68.5162 Y20.9567
G01 X68.5102 Y20.9674
G01 X68.4547 Y21.0600
G01 X68.4478 Y21.0709
G01 X68.3767 Y21.1672
G01 X68.3697 Y21.1762
G01 X68.3611 Y21.1862
G01 X68.2886 Y21.2662
G01 X68.2801 Y21.2751
G01 X68.2712 Y21.2836
G01 X68.1912 Y21.3561
G01 X68.1819 Y21.3641
G01 X68.1722 Y21.3717
G01 X68.0855 Y21.4360
G01 X68.0760 Y21.4427
G01 X68.0760 Y31.8973
G01 X68.1722 Y31.9683
G01 X68.1812 Y31.9753
G01 X68.1899 Y31.9827
G01 X68.2712 Y32.0564
G01 X68.2801 Y32.0649
G01 X68.2886 Y32.0738
G01 X68.3611 Y32.1538
G01 X68.3691 Y32.1631
G01 X68.3767 Y32.1728
G01 X68.4410 Y32.2595
G01 X68.4481 Y32.2696
G01 X68.4547 Y32.2800
G01 X68.5160 Y32.3828
G01 X68.5218 Y32.3943
G01 X68.5679 Y32.4918
G01 X68.5730 Y32.5034
G01 X68.5774 Y32.5146
G01 X68.6137 Y32.6162
G01 X68.6176 Y32.6279
G01 X68.6209 Y32.6398
G01 X68.6497 Y32.7559
G01 X68.6517 Y32.7674
G01 X68.6677 Y32.8754
G01 X68.6693 Y32.8885
G01 X68.6701 Y32.8999
G01 X68.6754 Y33.0077
G01 X68.6757 Y33.0200
G01 X68.6754 Y33.0323
G01 X68.6701 Y33.1401
G01 X68.6692 Y33.1524
G01 X68.6677 Y33.1646
G01 X68.6519 Y33.2714
G01 X68.6498 Y33.2835
G01 X68.6471 Y33.2955
G01 X68.6209 Y33.4002
G01 X68.6176 Y33.4120
G01 X68.6138 Y33.4235
G01 X68.5774 Y33.5254
G01 X68.5729 Y33.5369
G01 X68.5679 Y33.5482
G01 X68.5218 Y33.6457
G01 X68.5162 Y33.6567
G01 X68.5102 Y33.6674
G01 X68.4547 Y33.7600
G01 X68.4478 Y33.7709
G01 X68.3767 Y33.8672
G01 X68.3697 Y33.8762
G01 X68.3611 Y33.8862
G01 X68.2886 Y33.9662
G01 X68.2801 Y33.9751
G01 X68.2712 Y33.9836
G01 X68.1912 Y34.0561
G01 X68.1819 Y34.0641
G01 X68.1722 Y34.0717
G01 X68.0855 Y34.1360
G01 X68.0760 Y34.1427
G01 X68.0760 Y44.5973
G01 X68.1722 Y44.6683
G01 X68.1812 Y44.6753
G01 X68.1899 Y44.6827
G01 X68.2712 Y44.7564
G01 X68.2801 Y44.7649
G01 X68.2886 Y44.7738
G01 X68.3611 Y44.8538
G01 X68.3691 Y44.8631
G01 X68.3767 Y44.8728
G01 X68.4410 Y44.9595
G01 X68.4481 Y44.9696
G01 X68.4547 Y44.9800
G01 X68.5160 Y45.0828
G01 X68.5218 Y45.0943
G01 X68.5679 Y45.1918
G01 X68.5730 Y45.2034
G01 X68.5774 Y45.2146
G01 X68.6137 Y45.3162
G01 X68.6176 Y45.3279
G01 X68.6209 Y45.3398
G01 X68.6497 Y45.4559
G01 X68.6517 Y45.4674
G01 X68.6677 Y45.5754
G01 X68.6693 Y45.5885
G01 X68.6701 Y45.5999
G01 X68.6754 Y45.7077
G01 X68.6757 Y45.7200
G01 X68.6754 Y45.7323
G01 X68.6701 Y45.8401
G01 X68.6692 Y45.8524
G01 X68.6677 Y45.8646
G01 X68.6519 Y45.9714
G01 X68.6498 Y45.9835
G01 X68.6471 Y45.9955
G01 X68.6209 Y46.1002
G01 X68.6176 Y46.1120
G01 X68.6138 Y46.1235
G01 X68.5774 Y46.2254
G01 X68.5729 Y46.2369
G01 X68.5679 Y46.2482
G01 X68.5218 Y46.3457
G01 X68.5162 Y46.3567
G01 X68.5102 Y46.3674
G01 X68.4547 Y46.4600
G01 X68.4478 Y46.4709
G01 X68.3767 Y46.5672
G01 X68.3697 Y46.5762
G01 X68.3611 Y46.5862
G01 X68.2886 Y46.6662
G01 X68.2801 Y46.6751
G01 X68.2712 Y46.6836
G01 X68.1912 Y46.7561
G01 X68.1819 Y46.7641
G01 X68.1722 Y46.7717
G01 X68.0855 Y46.8360
G01 X68.0760 Y46.8427
G01 X68.0760 Y57.2973
G01 X68.1722 Y57.3683
G01 X68.1812 Y57.3753
G01 X68.1899 Y57.3827
G01 X68.2712 Y57.4564
G01 X68.2801 Y57.4649
G01 X68.2886 Y57.4738
G01 X68.3611 Y57.5538
G01 X68.3691 Y57.5631
G01 X68.3767 Y57.5728
G01 X68.4410 Y57.6595
G01 X68.4481 Y57.6696
G01 X68.4547 Y57.6800
G01 X68.5160 Y57.7828
G01 X68.5218 Y57.7943
G01 X68.5679 Y57.8918
G01 X68.5730 Y57.9034
G01 X68.5774 Y57.9146
G01 X68.6137 Y58.0162
G01 X68.6176 Y58.0279
G01 X68.6209 Y58.0398
G01 X68.6497 Y58.1559
G01 X68.6517 Y58.1674
G01 X68.6677 Y58.2754
G01 X68.6693 Y58.2885
G01 X68.6701 Y58.2999
G01 X68.6754 Y58.4077
G01 X68.6757 Y58.4200
G01 X68.6754 Y58.4323
G01 X68.6701 Y58.5401
G01 X68.6692 Y58.5524
G01 X68.6677 Y58.5646
G01 X68.6519 Y58.6714
G01 X68.6498 Y58.6835
G01 X68.6471 Y58.6955
G01 X68.6209 Y58.8002
G01 X68.6176 Y58.8120
G01 X68.6138 Y58.8235
G01 X68.5774 Y58.9254
G01 X68.5729 Y58.9369
G01 X68.5679 Y58.9482
G01 X68.5218 Y59.0457
G01 X68.5162 Y59.0567
G01 X68.5102 Y59.0674
G01 X68.4547 Y59.1600
G01 X68.4478 Y59.1709
G01 X68.3767 Y59.2672
G01 X68.3697 Y59.2762
G01 X68.3611 Y59.2862
G01 X68.2886 Y59.3662
G01 X68.2801 Y59.3751
G01 X68.2712 Y59.3836
G01 X68.1912 Y59.4561
G01 X68.1819 Y59.4641
G01 X68.1722 Y59.4717
G01 X68.0855 Y59.5360
G01 X68.0760 Y59.5427
G01 X68.0760 Y69.9973
G01 X68.0855 Y70.0040
G01 X68.1812 Y70.0753
G01 X68.1912 Y70.0839
G01 X68.2712 Y70.1564
G01 X68.2801 Y70.1649
G01 X68.2886 Y70.1738
G01 X68.3611 Y70.2538
G01 X68.3691 Y70.2631
G01 X68.3767 Y70.2728
