(G-CODE GENERATED BY FLATCAM v8.994 - www.flatcam.org - Version Date: 2020/11/7)

(Name: MIDIViolina-PTH.drl_edit_cnc)
(Type: G-code from Geometry)
(Units: MM)

(Created on Monday, 05 December 2022 at 14:19)

(This preprocessor is the default preprocessor used by FlatCAM.)
(It is made to work with MACH3 compatible motion controllers.)


(TOOLS DIAMETER: )
(Tool: 1 -> Dia: 1.1)
(Tool: 2 -> Dia: 1.0)
(Tool: 3 -> Dia: 0.8)

(FEEDRATE Z: )
(Tool: 1 -> Feedrate: 300)
(Tool: 2 -> Feedrate: 300)
(Tool: 3 -> Feedrate: 300)

(FEEDRATE RAPIDS: )
(Tool: 1 -> Feedrate Rapids: 1500)
(Tool: 2 -> Feedrate Rapids: 1500)
(Tool: 3 -> Feedrate Rapids: 1500)

(Z_CUT: )
(Tool: 1 -> Z_Cut: -2.0)
(Tool: 2 -> Z_Cut: -2.0)
(Tool: 3 -> Z_Cut: -2.0)

(Tools Offset: )
(Tool: 1 -> Offset Z: 0.0)
(Tool: 2 -> Offset Z: 0.0)
(Tool: 3 -> Offset Z: 0.0)

(Z_MOVE: )
(Tool: 1 -> Z_Move: 1.0)
(Tool: 2 -> Z_Move: 1.0)
(Tool: 3 -> Z_Move: 1.0)

(Z Toolchange: 15 mm)
(X,Y Toolchange: 0.0000, 0.0000 mm)
(Z Start: None mm)
(Z End: 0.5 mm)
(X,Y End: None mm)
(Steps per circle: 64)
(Preprocessor Excellon: default)

(X range:    3.2750 ...   69.7300  mm)
(Y range:    4.5400 ...   97.0450  mm)

(Spindle Speed: 0 RPM)
G21
G90
G94

G01 F300.00

M5
G00 Z15.0000
T1
G00 X0.0000 Y0.0000                
M6
(MSG, Change to Tool Dia = 1.1000 ||| Total drills for tool T1 = 379)
M0
G00 Z15.0000

G01 F300.00
M03
G00 X3.8250 Y5.0900
G01 Z-2.0000
G01 Z0
G00 Z1.0000
G00 X3.8250 Y7.6300
G01 Z-2.0000
G01 Z0
G00 Z1.0000
G00 X6.3650 Y7.6300
G01 Z-2.0000
G01 Z0
G00 Z1.0000
G00 X6.3650 Y10.1700
G01 Z-2.0000
G01 Z0
G00 Z1.0000
G00 X8.9050 Y10.1700
G01 Z-2.0000
G01 Z0
G00 Z1.0000
G00 X10.1750 Y15.2500
G01 Z-2.0000
G01 Z0
G00 Z1.0000
G00 X8.9050 Y17.5300
G01 Z-2.0000
G01 Z0
G00 Z1.0000
G00 X6.3650 Y17.5300
G01 Z-2.0000
G01 Z0
G00 Z1.0000
G00 X6.3650 Y15.2500
G01 Z-2.0000
G01 Z0
G00 Z1.0000
G00 X3.8250 Y15.2500
G01 Z-2.0000
G01 Z0
G00 Z1.0000
G00 X3.8250 Y17.5300
G01 Z-2.0000
G01 Z0
G00 Z1.0000
G00 X3.8250 Y20.0700
G01 Z-2.0000
G01 Z0
G00 Z1.0000
G00 X6.3650 Y20.3300
G01 Z-2.0000
G01 Z0
G00 Z1.0000
G00 X6.3650 Y22.8700
G01 Z-2.0000
G01 Z0
G00 Z1.0000
G00 X8.9050 Y22.8700
G01 Z-2.0000
G01 Z0
G00 Z1.0000
G00 X13.9850 Y20.3300
G01 Z-2.0000
G01 Z0
G00 Z1.0000
G00 X16.5250 Y25.4100
G01 Z-2.0000
G01 Z0
G00 Z1.0000
G00 X21.6050 Y27.9500
G01 Z-2.0000
G01 Z0
G00 Z1.0000
G00 X24.1450 Y27.9500
G01 Z-2.0000
G01 Z0
G00 Z1.0000
G00 X24.1450 Y30.4900
G01 Z-2.0000
G01 Z0
G00 Z1.0000
G00 X26.6850 Y30.4900
G01 Z-2.0000
G01 Z0
G00 Z1.0000
G00 X27.9550 Y27.9500
G01 Z-2.0000
G01 Z0
G00 Z1.0000
G00 X31.7650 Y33.0300
G01 Z-2.0000
G01 Z0
G00 Z1.0000
G00 X26.6850 Y35.5700
G01 Z-2.0000
G01 Z0
G00 Z1.0000
G00 X24.1450 Y35.5700
G01 Z-2.0000
G01 Z0
G00 Z1.0000
G00 X24.1450 Y33.0300
G01 Z-2.0000
G01 Z0
G00 Z1.0000
G00 X21.6050 Y33.0300
G01 Z-2.0000
G01 Z0
G00 Z1.0000
G00 X21.6050 Y30.4900
G01 Z-2.0000
G01 Z0
G00 Z1.0000
G00 X16.5250 Y27.9500
G01 Z-2.0000
G01 Z0
G00 Z1.0000
G00 X10.1750 Y27.9500
G01 Z-2.0000
G01 Z0
G00 Z1.0000
G00 X8.9050 Y30.4900
G01 Z-2.0000
G01 Z0
G00 Z1.0000
G00 X6.3650 Y30.4900
G01 Z-2.0000
G01 Z0
G00 Z1.0000
G00 X6.3650 Y27.9500
G01 Z-2.0000
G01 Z0
G00 Z1.0000
G00 X3.8250 Y27.6900
G01 Z-2.0000
G01 Z0
G00 Z1.0000
G00 X3.8250 Y30.4900
G01 Z-2.0000
G01 Z0
G00 Z1.0000
G00 X3.8250 Y33.0300
G01 Z-2.0000
G01 Z0
G00 Z1.0000
G00 X6.3650 Y33.0300
G01 Z-2.0000
G01 Z0
G00 Z1.0000
G00 X6.3650 Y35.5700
G01 Z-2.0000
G01 Z0
G00 Z1.0000
G00 X8.9050 Y35.5700
G01 Z-2.0000
G01 Z0
G00 Z1.0000
G00 X13.9850 Y33.0300
G01 Z-2.0000
G01 Z0
G00 Z1.0000
G00 X16.5250 Y38.1100
G01 Z-2.0000
G01 Z0
G00 Z1.0000
G00 X21.6050 Y40.6500
G01 Z-2.0000
G01 Z0
G00 Z1.0000
G00 X24.1450 Y40.6500
G01 Z-2.0000
G01 Z0
G00 Z1.0000
G00 X24.1450 Y43.1900
G01 Z-2.0000
G01 Z0
G00 Z1.0000
G00 X26.6850 Y43.1900
G01 Z-2.0000
G01 Z0
G00 Z1.0000
G00 X27.9550 Y40.6500
G01 Z-2.0000
G01 Z0
G00 Z1.0000
G00 X31.7650 Y45.7300
G01 Z-2.0000
G01 Z0
G00 Z1.0000
G00 X26.6850 Y48.2700
G01 Z-2.0000
G01 Z0
G00 Z1.0000
G00 X24.1450 Y48.2700
G01 Z-2.0000
G01 Z0
G00 Z1.0000
G00 X24.1450 Y45.7300
G01 Z-2.0000
G01 Z0
G00 Z1.0000
G00 X21.6050 Y45.7300
G01 Z-2.0000
G01 Z0
G00 Z1.0000
G00 X21.6050 Y43.1900
G01 Z-2.0000
G01 Z0
G00 Z1.0000
G00 X16.5250 Y40.6500
G01 Z-2.0000
G01 Z0
G00 Z1.0000
G00 X10.1750 Y40.6500
G01 Z-2.0000
G01 Z0
G00 Z1.0000
G00 X8.9050 Y43.1900
G01 Z-2.0000
G01 Z0
G00 Z1.0000
G00 X6.3650 Y43.1900
G01 Z-2.0000
G01 Z0
G00 Z1.0000
G00 X6.3650 Y40.6500
G01 Z-2.0000
G01 Z0
G00 Z1.0000
G00 X3.8250 Y40.6500
G01 Z-2.0000
G01 Z0
G00 Z1.0000
G00 X3.8250 Y43.1900
G01 Z-2.0000
G01 Z0
G00 Z1.0000
G00 X3.8250 Y45.7300
G01 Z-2.0000
G01 Z0
G00 Z1.0000
G00 X6.3650 Y45.7300
G01 Z-2.0000
G01 Z0
G00 Z1.0000
G00 X6.3650 Y48.2700
G01 Z-2.0000
G01 Z0
G00 Z1.0000
G00 X8.9050 Y48.2700
G01 Z-2.0000
G01 Z0
G00 Z1.0000
G00 X13.9850 Y45.7300
G01 Z-2.0000
G01 Z0
G00 Z1.0000
G00 X16.5250 Y50.8100
G01 Z-2.0000
G01 Z0
G00 Z1.0000
G00 X21.6050 Y53.3500
G01 Z-2.0000
G01 Z0
G00 Z1.0000
G00 X24.1450 Y53.3500
G01 Z-2.0000
G01 Z0
G00 Z1.0000
G00 X24.1450 Y55.8900
G01 Z-2.0000
G01 Z0
G00 Z1.0000
G00 X26.6850 Y55.8900
G01 Z-2.0000
G01 Z0
G00 Z1.0000
G00 X27.9550 Y53.3500
G01 Z-2.0000
G01 Z0
G00 Z1.0000
G00 X31.7650 Y58.4300
G01 Z-2.0000
G01 Z0
G00 Z1.0000
G00 X26.6850 Y60.9700
G01 Z-2.0000
G01 Z0
G00 Z1.0000
G00 X24.1450 Y60.9700
G01 Z-2.0000
G01 Z0
G00 Z1.0000
G00 X24.1450 Y58.4300
G01 Z-2.0000
G01 Z0
G00 Z1.0000
G00 X21.6050 Y58.4300
G01 Z-2.0000
G01 Z0
G00 Z1.0000
G00 X21.6050 Y55.8900
G01 Z-2.0000
G01 Z0
G00 Z1.0000
G00 X16.5250 Y53.3500
G01 Z-2.0000
G01 Z0
G00 Z1.0000
G00 X10.1750 Y53.3500
G01 Z-2.0000
G01 Z0
G00 Z1.0000
G00 X8.9050 Y55.8900
G01 Z-2.0000
G01 Z0
G00 Z1.0000
G00 X6.3650 Y55.8900
G01 Z-2.0000
G01 Z0
G00 Z1.0000
G00 X6.3650 Y53.3500
G01 Z-2.0000
G01 Z0
G00 Z1.0000
G00 X3.8250 Y53.3500
G01 Z-2.0000
G01 Z0
G00 Z1.0000
G00 X3.8250 Y55.8900
G01 Z-2.0000
G01 Z0
G00 Z1.0000
G00 X3.8250 Y58.4300
G01 Z-2.0000
G01 Z0
G00 Z1.0000
G00 X6.3650 Y58.4300
G01 Z-2.0000
G01 Z0
G00 Z1.0000
G00 X6.3650 Y60.9700
G01 Z-2.0000
G01 Z0
G00 Z1.0000
G00 X8.9050 Y60.9700
G01 Z-2.0000
G01 Z0
G00 Z1.0000
G00 X13.9850 Y58.4300
G01 Z-2.0000
G01 Z0
G00 Z1.0000
G00 X16.5250 Y63.5100
G01 Z-2.0000
G01 Z0
G00 Z1.0000
G00 X16.5250 Y66.0500
G01 Z-2.0000
G01 Z0
G00 Z1.0000
G00 X21.6050 Y68.5900
G01 Z-2.0000
G01 Z0
G00 Z1.0000
G00 X21.6050 Y66.0500
G01 Z-2.0000
G01 Z0
G00 Z1.0000
G00 X24.1450 Y66.0500
G01 Z-2.0000
G01 Z0
G00 Z1.0000
G00 X24.1450 Y68.5900
G01 Z-2.0000
G01 Z0
G00 Z1.0000
G00 X26.6850 Y68.5900
G01 Z-2.0000
G01 Z0
G00 Z1.0000
G00 X27.9550 Y66.0500
G01 Z-2.0000
G01 Z0
G00 Z1.0000
G00 X31.7650 Y71.1300
G01 Z-2.0000
G01 Z0
G00 Z1.0000
G00 X26.6850 Y73.6700
G01 Z-2.0000
G01 Z0
G00 Z1.0000
G00 X24.1450 Y73.6700
G01 Z-2.0000
G01 Z0
G00 Z1.0000
G00 X24.1450 Y71.1300
G01 Z-2.0000
G01 Z0
G00 Z1.0000
G00 X21.6050 Y71.1300
G01 Z-2.0000
G01 Z0
G00 Z1.0000
G00 X13.9850 Y71.1300
G01 Z-2.0000
G01 Z0
G00 Z1.0000
G00 X10.1750 Y66.0500
G01 Z-2.0000
G01 Z0
G00 Z1.0000
G00 X8.9050 Y68.5900
G01 Z-2.0000
G01 Z0
G00 Z1.0000
G00 X6.3650 Y68.5900
G01 Z-2.0000
G01 Z0
G00 Z1.0000
G00 X6.3650 Y66.0500
G01 Z-2.0000
G01 Z0
G00 Z1.0000
G00 X3.8250 Y66.0500
G01 Z-2.0000
G01 Z0
G00 Z1.0000
G00 X3.8250 Y68.5900
G01 Z-2.0000
G01 Z0
G00 Z1.0000
G00 X3.8250 Y71.1300
G01 Z-2.0000
G01 Z0
G00 Z1.0000
G00 X6.3650 Y71.1300
G01 Z-2.0000
G01 Z0
G00 Z1.0000
G00 X6.3650 Y73.6700
G01 Z-2.0000
G01 Z0
G00 Z1.0000
G00 X8.9050 Y73.6700
G01 Z-2.0000
G01 Z0
G00 Z1.0000
G00 X6.3650 Y78.7500
G01 Z-2.0000
G01 Z0
G00 Z1.0000
G00 X3.8250 Y78.7500
G01 Z-2.0000
G01 Z0
G00 Z1.0000
G00 X6.3500 Y83.8300
G01 Z-2.0000
G01 Z0
G00 Z1.0000
G00 X8.8900 Y83.8300
G01 Z-2.0000
G01 Z0
G00 Z1.0000
G00 X11.4300 Y83.8300
G01 Z-2.0000
G01 Z0
G00 Z1.0000
G00 X13.9700 Y83.8300
G01 Z-2.0000
G01 Z0
G00 Z1.0000
G00 X16.5100 Y83.8300
G01 Z-2.0000
G01 Z0
G00 Z1.0000
G00 X19.0500 Y83.8300
G01 Z-2.0000
G01 Z0
G00 Z1.0000
G00 X21.6050 Y78.7500
G01 Z-2.0000
G01 Z0
G00 Z1.0000
G00 X24.1450 Y78.7500
G01 Z-2.0000
G01 Z0
G00 Z1.0000
G00 X21.5750 Y83.8300
G01 Z-2.0000
G01 Z0
G00 Z1.0000
G00 X21.5900 Y86.3550
G01 Z-2.0000
G01 Z0
G00 Z1.0000
G00 X19.0500 Y86.3550
G01 Z-2.0000
G01 Z0
G00 Z1.0000
G00 X16.5100 Y86.3550
G01 Z-2.0000
G01 Z0
G00 Z1.0000
G00 X13.9700 Y86.3550
G01 Z-2.0000
G01 Z0
G00 Z1.0000
G00 X11.4300 Y86.3550
G01 Z-2.0000
G01 Z0
G00 Z1.0000
G00 X8.8900 Y86.3550
G01 Z-2.0000
G01 Z0
G00 Z1.0000
G00 X6.3500 Y86.3550
G01 Z-2.0000
G01 Z0
G00 Z1.0000
G00 X3.8100 Y86.3550
G01 Z-2.0000
G01 Z0
G00 Z1.0000
G00 X3.8100 Y93.9750
G01 Z-2.0000
G01 Z0
G00 Z1.0000
G00 X3.8250 Y96.5300
G01 Z-2.0000
G01 Z0
G00 Z1.0000
G00 X6.3650 Y96.5300
G01 Z-2.0000
G01 Z0
G00 Z1.0000
G00 X6.3500 Y93.9750
G01 Z-2.0000
G01 Z0
G00 Z1.0000
G00 X8.8900 Y93.9750
G01 Z-2.0000
G01 Z0
G00 Z1.0000
G00 X8.9200 Y96.5300
G01 Z-2.0000
G01 Z0
G00 Z1.0000
G00 X11.4450 Y96.5300
G01 Z-2.0000
G01 Z0
G00 Z1.0000
G00 X11.4300 Y93.9750
G01 Z-2.0000
G01 Z0
G00 Z1.0000
G00 X13.9700 Y93.9750
G01 Z-2.0000
G01 Z0
G00 Z1.0000
G00 X13.9550 Y96.5300
G01 Z-2.0000
G01 Z0
G00 Z1.0000
G00 X16.5250 Y96.5300
G01 Z-2.0000
G01 Z0
G00 Z1.0000
G00 X16.5100 Y93.9750
G01 Z-2.0000
G01 Z0
G00 Z1.0000
G00 X19.0500 Y93.9750
G01 Z-2.0000
G01 Z0
G00 Z1.0000
G00 X19.0650 Y96.5300
G01 Z-2.0000
G01 Z0
G00 Z1.0000
G00 X21.5900 Y93.9750
G01 Z-2.0000
G01 Z0
G00 Z1.0000
G00 X26.6700 Y93.9750
G01 Z-2.0000
G01 Z0
G00 Z1.0000
G00 X26.7000 Y96.5450
G01 Z-2.0000
G01 Z0
G00 Z1.0000
G00 X29.2400 Y96.5450
G01 Z-2.0000
G01 Z0
G00 Z1.0000
G00 X31.7800 Y96.5450
G01 Z-2.0000
G01 Z0
G00 Z1.0000
G00 X34.3200 Y96.5450
G01 Z-2.0000
G01 Z0
G00 Z1.0000
G00 X39.3850 Y96.5450
G01 Z-2.0000
G01 Z0
G00 Z1.0000
G00 X41.9100 Y96.5300
G01 Z-2.0000
G01 Z0
G00 Z1.0000
G00 X44.4500 Y93.9750
G01 Z-2.0000
G01 Z0
G00 Z1.0000
G00 X41.9100 Y93.9750
G01 Z-2.0000
G01 Z0
G00 Z1.0000
G00 X39.3700 Y93.9750
G01 Z-2.0000
G01 Z0
G00 Z1.0000
G00 X36.8300 Y93.9750
G01 Z-2.0000
G01 Z0
G00 Z1.0000
G00 X34.2900 Y93.9750
G01 Z-2.0000
G01 Z0
G00 Z1.0000
G00 X31.7500 Y93.9750
G01 Z-2.0000
G01 Z0
G00 Z1.0000
G00 X29.2100 Y93.9750
G01 Z-2.0000
G01 Z0
G00 Z1.0000
G00 X29.2100 Y86.3550
G01 Z-2.0000
G01 Z0
G00 Z1.0000
G00 X26.6700 Y86.3550
G01 Z-2.0000
G01 Z0
G00 Z1.0000
G00 X29.2250 Y83.8300
G01 Z-2.0000
G01 Z0
G00 Z1.0000
G00 X31.7650 Y83.8300
G01 Z-2.0000
G01 Z0
G00 Z1.0000
G00 X34.3050 Y83.8300
G01 Z-2.0000
G01 Z0
G00 Z1.0000
G00 X31.7500 Y86.3550
G01 Z-2.0000
G01 Z0
G00 Z1.0000
G00 X34.2900 Y86.3550
G01 Z-2.0000
G01 Z0
G00 Z1.0000
G00 X36.8300 Y86.3550
G01 Z-2.0000
G01 Z0
G00 Z1.0000
G00 X39.3700 Y86.3550
G01 Z-2.0000
G01 Z0
G00 Z1.0000
G00 X41.9100 Y86.3550
G01 Z-2.0000
G01 Z0
G00 Z1.0000
G00 X44.4500 Y86.3550
G01 Z-2.0000
G01 Z0
G00 Z1.0000
G00 X49.5300 Y93.9750
G01 Z-2.0000
G01 Z0
G00 Z1.0000
G00 X52.1000 Y96.5450
G01 Z-2.0000
G01 Z0
G00 Z1.0000
G00 X54.6400 Y96.5450
G01 Z-2.0000
G01 Z0
G00 Z1.0000
G00 X57.1800 Y96.5450
G01 Z-2.0000
G01 Z0
G00 Z1.0000
G00 X62.2450 Y96.5450
G01 Z-2.0000
G01 Z0
G00 Z1.0000
G00 X64.7850 Y96.5450
G01 Z-2.0000
G01 Z0
G00 Z1.0000
G00 X67.3100 Y93.9750
G01 Z-2.0000
G01 Z0
G00 Z1.0000
G00 X64.7700 Y93.9750
G01 Z-2.0000
G01 Z0
G00 Z1.0000
G00 X62.2300 Y93.9750
G01 Z-2.0000
G01 Z0
G00 Z1.0000
G00 X59.6900 Y93.9750
G01 Z-2.0000
G01 Z0
G00 Z1.0000
G00 X57.1500 Y93.9750
G01 Z-2.0000
G01 Z0
G00 Z1.0000
G00 X54.6100 Y93.9750
G01 Z-2.0000
G01 Z0
G00 Z1.0000
G00 X52.0700 Y93.9750
G01 Z-2.0000
G01 Z0
G00 Z1.0000
G00 X52.0700 Y86.3550
G01 Z-2.0000
G01 Z0
G00 Z1.0000
G00 X54.6100 Y86.3550
G01 Z-2.0000
G01 Z0
G00 Z1.0000
G00 X57.1500 Y86.3550
G01 Z-2.0000
G01 Z0
G00 Z1.0000
G00 X59.6900 Y86.3550
G01 Z-2.0000
G01 Z0
G00 Z1.0000
G00 X62.2300 Y86.3550
G01 Z-2.0000
G01 Z0
G00 Z1.0000
G00 X62.2300 Y83.8300
G01 Z-2.0000
G01 Z0
G00 Z1.0000
G00 X64.7700 Y83.8300
G01 Z-2.0000
G01 Z0
G00 Z1.0000
G00 X64.7700 Y86.3550
G01 Z-2.0000
G01 Z0
G00 Z1.0000
G00 X67.3100 Y86.3550
G01 Z-2.0000
G01 Z0
G00 Z1.0000
G00 X67.2950 Y83.8300
G01 Z-2.0000
G01 Z0
G00 Z1.0000
G00 X69.2300 Y81.2900
G01 Z-2.0000
G01 Z0
G00 Z1.0000
G00 X69.2300 Y78.7500
G01 Z-2.0000
G01 Z0
G00 Z1.0000
G00 X69.2300 Y76.2100
G01 Z-2.0000
G01 Z0
G00 Z1.0000
G00 X69.2300 Y73.6700
G01 Z-2.0000
G01 Z0
G00 Z1.0000
G00 X67.3250 Y71.1300
G01 Z-2.0000
G01 Z0
G00 Z1.0000
G00 X63.5150 Y66.0500
G01 Z-2.0000
G01 Z0
G00 Z1.0000
G00 X62.2450 Y68.5900
G01 Z-2.0000
G01 Z0
G00 Z1.0000
G00 X59.7050 Y68.5900
G01 Z-2.0000
G01 Z0
G00 Z1.0000
G00 X59.7050 Y66.0500
G01 Z-2.0000
G01 Z0
G00 Z1.0000
G00 X57.1650 Y66.0500
G01 Z-2.0000
G01 Z0
G00 Z1.0000
G00 X57.1650 Y68.5900
G01 Z-2.0000
G01 Z0
G00 Z1.0000
G00 X57.1650 Y71.1300
G01 Z-2.0000
G01 Z0
G00 Z1.0000
G00 X59.7050 Y71.1300
G01 Z-2.0000
G01 Z0
G00 Z1.0000
G00 X62.2450 Y73.6700
G01 Z-2.0000
G01 Z0
G00 Z1.0000
G00 X59.7050 Y73.6700
G01 Z-2.0000
G01 Z0
G00 Z1.0000
G00 X57.1650 Y78.7500
G01 Z-2.0000
G01 Z0
G00 Z1.0000
G00 X59.7050 Y78.7500
G01 Z-2.0000
G01 Z0
G00 Z1.0000
G00 X59.6900 Y83.8300
G01 Z-2.0000
G01 Z0
G00 Z1.0000
G00 X57.1500 Y83.8300
G01 Z-2.0000
G01 Z0
G00 Z1.0000
G00 X54.6100 Y83.8300
G01 Z-2.0000
G01 Z0
G00 Z1.0000
G00 X52.0700 Y83.8300
G01 Z-2.0000
G01 Z0
G00 Z1.0000
G00 X49.5300 Y86.3550
G01 Z-2.0000
G01 Z0
G00 Z1.0000
G00 X44.4500 Y83.8300
G01 Z-2.0000
G01 Z0
G00 Z1.0000
G00 X41.9250 Y83.8300
G01 Z-2.0000
G01 Z0
G00 Z1.0000
G00 X39.3850 Y83.8300
G01 Z-2.0000
G01 Z0
G00 Z1.0000
G00 X36.8450 Y83.8300
G01 Z-2.0000
G01 Z0
G00 Z1.0000
G00 X39.3850 Y78.7500
G01 Z-2.0000
G01 Z0
G00 Z1.0000
G00 X41.9250 Y78.7500
G01 Z-2.0000
G01 Z0
G00 Z1.0000
G00 X44.4650 Y73.6700
G01 Z-2.0000
G01 Z0
G00 Z1.0000
G00 X41.9250 Y73.6700
G01 Z-2.0000
G01 Z0
G00 Z1.0000
G00 X41.9250 Y71.1300
G01 Z-2.0000
G01 Z0
G00 Z1.0000
G00 X39.3850 Y71.1300
G01 Z-2.0000
G01 Z0
G00 Z1.0000
G00 X39.3850 Y68.5900
G01 Z-2.0000
G01 Z0
G00 Z1.0000
G00 X39.3850 Y66.0500
G01 Z-2.0000
G01 Z0
G00 Z1.0000
G00 X41.9250 Y66.0500
G01 Z-2.0000
G01 Z0
G00 Z1.0000
G00 X41.9250 Y68.5900
G01 Z-2.0000
G01 Z0
G00 Z1.0000
G00 X44.4650 Y68.5900
G01 Z-2.0000
G01 Z0
G00 Z1.0000
G00 X49.5450 Y71.1300
G01 Z-2.0000
G01 Z0
G00 Z1.0000
G00 X52.0850 Y66.0500
G01 Z-2.0000
G01 Z0
G00 Z1.0000
G00 X52.0850 Y63.5100
G01 Z-2.0000
G01 Z0
G00 Z1.0000
G00 X45.7350 Y66.0500
G01 Z-2.0000
G01 Z0
G00 Z1.0000
G00 X44.4650 Y60.9700
G01 Z-2.0000
G01 Z0
G00 Z1.0000
G00 X41.9250 Y60.9700
G01 Z-2.0000
G01 Z0
G00 Z1.0000
G00 X41.9250 Y58.4300
G01 Z-2.0000
G01 Z0
G00 Z1.0000
G00 X39.3850 Y58.4300
G01 Z-2.0000
G01 Z0
G00 Z1.0000
G00 X39.3850 Y55.8900
G01 Z-2.0000
G01 Z0
G00 Z1.0000
G00 X39.3850 Y53.3500
G01 Z-2.0000
G01 Z0
G00 Z1.0000
G00 X41.9250 Y53.3500
G01 Z-2.0000
G01 Z0
G00 Z1.0000
G00 X41.9250 Y55.8900
G01 Z-2.0000
G01 Z0
G00 Z1.0000
G00 X44.4650 Y55.8900
G01 Z-2.0000
G01 Z0
G00 Z1.0000
G00 X45.7350 Y53.3500
G01 Z-2.0000
G01 Z0
G00 Z1.0000
G00 X49.5450 Y58.4300
G01 Z-2.0000
G01 Z0
G00 Z1.0000
G00 X57.1650 Y58.4300
G01 Z-2.0000
G01 Z0
G00 Z1.0000
G00 X59.7050 Y58.4300
G01 Z-2.0000
G01 Z0
G00 Z1.0000
G00 X59.7050 Y60.9700
G01 Z-2.0000
G01 Z0
G00 Z1.0000
G00 X62.2450 Y60.9700
G01 Z-2.0000
G01 Z0
G00 Z1.0000
G00 X67.3250 Y58.4300
G01 Z-2.0000
G01 Z0
G00 Z1.0000
G00 X63.5150 Y53.3500
G01 Z-2.0000
G01 Z0
G00 Z1.0000
G00 X62.2450 Y55.8900
G01 Z-2.0000
G01 Z0
G00 Z1.0000
G00 X59.7050 Y55.8900
G01 Z-2.0000
G01 Z0
G00 Z1.0000
G00 X59.7050 Y53.3500
G01 Z-2.0000
G01 Z0
G00 Z1.0000
G00 X57.1650 Y53.3500
G01 Z-2.0000
G01 Z0
G00 Z1.0000
G00 X57.1650 Y55.8900
G01 Z-2.0000
G01 Z0
G00 Z1.0000
G00 X52.0850 Y53.3500
G01 Z-2.0000
G01 Z0
G00 Z1.0000
G00 X52.0850 Y50.8100
G01 Z-2.0000
G01 Z0
G00 Z1.0000
G00 X49.5450 Y45.7300
G01 Z-2.0000
G01 Z0
G00 Z1.0000
G00 X44.4650 Y48.2700
G01 Z-2.0000
G01 Z0
G00 Z1.0000
G00 X41.9250 Y48.2700
G01 Z-2.0000
G01 Z0
G00 Z1.0000
G00 X41.9250 Y45.7300
G01 Z-2.0000
G01 Z0
G00 Z1.0000
G00 X39.3850 Y45.7300
G01 Z-2.0000
G01 Z0
G00 Z1.0000
G00 X39.3850 Y43.1900
G01 Z-2.0000
G01 Z0
G00 Z1.0000
G00 X39.3850 Y40.6500
G01 Z-2.0000
G01 Z0
G00 Z1.0000
G00 X41.9250 Y40.6500
G01 Z-2.0000
G01 Z0
G00 Z1.0000
G00 X41.9250 Y43.1900
G01 Z-2.0000
G01 Z0
G00 Z1.0000
G00 X44.4650 Y43.1900
G01 Z-2.0000
G01 Z0
G00 Z1.0000
G00 X45.7350 Y40.6500
G01 Z-2.0000
G01 Z0
G00 Z1.0000
G00 X52.0850 Y40.6500
G01 Z-2.0000
G01 Z0
G00 Z1.0000
G00 X57.1650 Y43.1900
G01 Z-2.0000
G01 Z0
G00 Z1.0000
G00 X57.1650 Y45.7300
G01 Z-2.0000
G01 Z0
G00 Z1.0000
G00 X59.7050 Y45.7300
G01 Z-2.0000
G01 Z0
G00 Z1.0000
G00 X59.7050 Y48.2700
G01 Z-2.0000
G01 Z0
G00 Z1.0000
G00 X62.2450 Y48.2700
G01 Z-2.0000
G01 Z0
G00 Z1.0000
G00 X67.3250 Y45.7300
G01 Z-2.0000
G01 Z0
G00 Z1.0000
G00 X63.5150 Y40.6500
G01 Z-2.0000
G01 Z0
G00 Z1.0000
G00 X62.2450 Y43.1900
G01 Z-2.0000
G01 Z0
G00 Z1.0000
G00 X59.7050 Y43.1900
G01 Z-2.0000
G01 Z0
G00 Z1.0000
G00 X59.7050 Y40.6500
G01 Z-2.0000
G01 Z0
G00 Z1.0000
G00 X57.1650 Y40.6500
G01 Z-2.0000
G01 Z0
G00 Z1.0000
G00 X52.0850 Y38.1100
G01 Z-2.0000
G01 Z0
G00 Z1.0000
G00 X49.5450 Y33.0300
G01 Z-2.0000
G01 Z0
G00 Z1.0000
G00 X44.4650 Y35.5700
G01 Z-2.0000
G01 Z0
G00 Z1.0000
G00 X41.9250 Y35.5700
G01 Z-2.0000
G01 Z0
G00 Z1.0000
G00 X41.9250 Y33.0300
G01 Z-2.0000
G01 Z0
G00 Z1.0000
G00 X39.3850 Y33.0300
G01 Z-2.0000
G01 Z0
G00 Z1.0000
G00 X39.3850 Y30.4900
G01 Z-2.0000
G01 Z0
G00 Z1.0000
G00 X39.3850 Y27.6250
G01 Z-2.0000
G01 Z0
G00 Z1.0000
G00 X41.9250 Y27.9500
G01 Z-2.0000
G01 Z0
G00 Z1.0000
G00 X41.9250 Y30.4900
G01 Z-2.0000
G01 Z0
G00 Z1.0000
G00 X44.4650 Y30.4900
G01 Z-2.0000
G01 Z0
G00 Z1.0000
G00 X45.7350 Y27.9500
G01 Z-2.0000
G01 Z0
G00 Z1.0000
G00 X52.0850 Y27.9500
G01 Z-2.0000
G01 Z0
G00 Z1.0000
G00 X52.0850 Y25.4100
G01 Z-2.0000
G01 Z0
G00 Z1.0000
G00 X57.1650 Y27.9500
G01 Z-2.0000
G01 Z0
G00 Z1.0000
G00 X57.1650 Y30.4900
G01 Z-2.0000
G01 Z0
G00 Z1.0000
G00 X57.1650 Y33.0300
G01 Z-2.0000
G01 Z0
G00 Z1.0000
G00 X59.7050 Y33.0300
G01 Z-2.0000
G01 Z0
G00 Z1.0000
G00 X59.7050 Y35.5700
G01 Z-2.0000
G01 Z0
G00 Z1.0000
G00 X62.2450 Y35.5700
G01 Z-2.0000
G01 Z0
G00 Z1.0000
G00 X67.3250 Y33.0300
G01 Z-2.0000
G01 Z0
G00 Z1.0000
G00 X63.5150 Y27.9500
G01 Z-2.0000
G01 Z0
G00 Z1.0000
G00 X62.2450 Y30.4900
G01 Z-2.0000
G01 Z0
G00 Z1.0000
G00 X59.7050 Y30.4900
G01 Z-2.0000
G01 Z0
G00 Z1.0000
G00 X59.7050 Y27.9500
G01 Z-2.0000
G01 Z0
G00 Z1.0000
G00 X59.7050 Y22.8700
G01 Z-2.0000
G01 Z0
G00 Z1.0000
G00 X57.1650 Y20.3300
G01 Z-2.0000
G01 Z0
G00 Z1.0000
G00 X59.7050 Y20.3300
G01 Z-2.0000
G01 Z0
G00 Z1.0000
G00 X62.2450 Y22.8700
G01 Z-2.0000
G01 Z0
G00 Z1.0000
G00 X67.3250 Y20.3300
G01 Z-2.0000
G01 Z0
G00 Z1.0000
G00 X63.5150 Y15.2500
G01 Z-2.0000
G01 Z0
G00 Z1.0000
G00 X62.2450 Y17.7900
G01 Z-2.0000
G01 Z0
G00 Z1.0000
G00 X59.7050 Y17.7900
G01 Z-2.0000
G01 Z0
G00 Z1.0000
G00 X57.1650 Y17.7900
G01 Z-2.0000
G01 Z0
G00 Z1.0000
G00 X57.1650 Y15.2500
G01 Z-2.0000
G01 Z0
G00 Z1.0000
G00 X59.7050 Y15.2500
G01 Z-2.0000
G01 Z0
G00 Z1.0000
G00 X59.7050 Y10.1700
G01 Z-2.0000
G01 Z0
G00 Z1.0000
G00 X62.2450 Y10.1700
G01 Z-2.0000
G01 Z0
G00 Z1.0000
G00 X67.3250 Y7.6300
G01 Z-2.0000
G01 Z0
G00 Z1.0000
G00 X64.7850 Y5.0900
G01 Z-2.0000
G01 Z0
G00 Z1.0000
G00 X62.2450 Y5.0900
G01 Z-2.0000
G01 Z0
G00 Z1.0000
G00 X59.7050 Y5.0900
G01 Z-2.0000
G01 Z0
G00 Z1.0000
G00 X57.1650 Y5.0900
G01 Z-2.0000
G01 Z0
G00 Z1.0000
G00 X59.7050 Y7.6300
G01 Z-2.0000
G01 Z0
G00 Z1.0000
G00 X57.1650 Y7.6300
G01 Z-2.0000
G01 Z0
G00 Z1.0000
G00 X52.0850 Y10.1700
G01 Z-2.0000
G01 Z0
G00 Z1.0000
G00 X52.0850 Y12.7100
G01 Z-2.0000
G01 Z0
G00 Z1.0000
G00 X52.0850 Y15.2500
G01 Z-2.0000
G01 Z0
G00 Z1.0000
G00 X52.0850 Y17.7900
G01 Z-2.0000
G01 Z0
G00 Z1.0000
G00 X49.5450 Y20.0050
G01 Z-2.0000
G01 Z0
G00 Z1.0000
G00 X44.4650 Y17.4650
G01 Z-2.0000
G01 Z0
G00 Z1.0000
G00 X45.7350 Y15.2500
G01 Z-2.0000
G01 Z0
G00 Z1.0000
G00 X41.9250 Y10.1700
G01 Z-2.0000
G01 Z0
G00 Z1.0000
G00 X41.9250 Y7.6300
G01 Z-2.0000
G01 Z0
G00 Z1.0000
G00 X44.4650 Y10.1700
G01 Z-2.0000
G01 Z0
G00 Z1.0000
G00 X49.5450 Y7.6300
G01 Z-2.0000
G01 Z0
G00 Z1.0000
G00 X47.0050 Y5.0900
G01 Z-2.0000
G01 Z0
G00 Z1.0000
G00 X44.4650 Y5.0900
G01 Z-2.0000
G01 Z0
G00 Z1.0000
G00 X41.9250 Y5.0900
G01 Z-2.0000
G01 Z0
G00 Z1.0000
G00 X39.3850 Y5.0900
G01 Z-2.0000
G01 Z0
G00 Z1.0000
G00 X39.3850 Y7.6300
G01 Z-2.0000
G01 Z0
G00 Z1.0000
G00 X31.7650 Y7.6300
G01 Z-2.0000
G01 Z0
G00 Z1.0000
G00 X29.2250 Y5.0900
G01 Z-2.0000
G01 Z0
G00 Z1.0000
G00 X26.6850 Y5.0900
G01 Z-2.0000
G01 Z0
G00 Z1.0000
G00 X24.1450 Y5.0900
G01 Z-2.0000
G01 Z0
G00 Z1.0000
G00 X21.6050 Y5.0900
G01 Z-2.0000
G01 Z0
G00 Z1.0000
G00 X21.6050 Y7.6300
G01 Z-2.0000
G01 Z0
G00 Z1.0000
G00 X24.1450 Y7.6300
G01 Z-2.0000
G01 Z0
G00 Z1.0000
G00 X24.1450 Y10.1700
G01 Z-2.0000
G01 Z0
G00 Z1.0000
G00 X26.6850 Y10.1700
G01 Z-2.0000
G01 Z0
G00 Z1.0000
G00 X24.1450 Y15.2500
G01 Z-2.0000
G01 Z0
G00 Z1.0000
G00 X24.1450 Y17.7900
G01 Z-2.0000
G01 Z0
G00 Z1.0000
G00 X26.6850 Y17.7900
G01 Z-2.0000
G01 Z0
G00 Z1.0000
G00 X27.9550 Y15.2500
G01 Z-2.0000
G01 Z0
G00 Z1.0000
G00 X39.3850 Y17.4650
G01 Z-2.0000
G01 Z0
G00 Z1.0000
G00 X39.3850 Y15.2500
G01 Z-2.0000
G01 Z0
G00 Z1.0000
G00 X41.9250 Y15.2500
G01 Z-2.0000
G01 Z0
G00 Z1.0000
G00 X41.9250 Y17.4650
G01 Z-2.0000
G01 Z0
G00 Z1.0000
G00 X41.9250 Y20.0050
G01 Z-2.0000
G01 Z0
G00 Z1.0000
G00 X44.4650 Y22.5450
G01 Z-2.0000
G01 Z0
G00 Z1.0000
G00 X41.9250 Y22.5450
G01 Z-2.0000
G01 Z0
G00 Z1.0000
G00 X39.3850 Y20.0050
G01 Z-2.0000
G01 Z0
G00 Z1.0000
G00 X31.7650 Y20.3300
G01 Z-2.0000
G01 Z0
G00 Z1.0000
G00 X26.6850 Y22.8700
G01 Z-2.0000
G01 Z0
G00 Z1.0000
G00 X24.1450 Y22.8700
G01 Z-2.0000
G01 Z0
G00 Z1.0000
G00 X24.1450 Y20.3300
G01 Z-2.0000
G01 Z0
G00 Z1.0000
G00 X21.6050 Y20.3300
G01 Z-2.0000
G01 Z0
G00 Z1.0000
G00 X21.6050 Y17.7900
G01 Z-2.0000
G01 Z0
G00 Z1.0000
G00 X21.6050 Y15.2500
G01 Z-2.0000
G01 Z0
G00 Z1.0000
G00 X16.5250 Y17.7900
G01 Z-2.0000
G01 Z0
G00 Z1.0000
G00 X16.5250 Y15.2500
G01 Z-2.0000
G01 Z0
G00 Z1.0000
G00 X16.5250 Y12.7100
G01 Z-2.0000
G01 Z0
G00 Z1.0000
G00 X16.5250 Y10.1700
G01 Z-2.0000
G01 Z0
G00 Z1.0000
G00 X13.9850 Y7.6300
G01 Z-2.0000
G01 Z0
G00 Z1.0000
G00 X11.4450 Y5.0900
G01 Z-2.0000
G01 Z0
G00 Z1.0000
G00 X8.9050 Y5.0900
G01 Z-2.0000
G01 Z0
G00 Z1.0000
G00 X6.3650 Y5.0900
G01 Z-2.0000
G01 Z0
G00 Z1.0000
M05
G00 Z0.50


