(G-CODE GENERATED BY FLATCAM v8.994 - www.flatcam.org - Version Date: 2020/11/7)

(Name: MIDIViolina-PTH.drl_edit_cnc)
(Type: G-code from Geometry)
(Units: MM)

(Created on Monday, 05 December 2022 at 19:30)

(This preprocessor is the default preprocessor used by FlatCAM.)
(It is made to work with MACH3 compatible motion controllers.)


(TOOLS DIAMETER: )
(Tool: 1 -> Dia: 0.8)
(Tool: 2 -> Dia: 1.0)
(Tool: 3 -> Dia: 1.1)

(FEEDRATE Z: )
(Tool: 1 -> Feedrate: 300)
(Tool: 2 -> Feedrate: 300)
(Tool: 3 -> Feedrate: 300)

(FEEDRATE RAPIDS: )
(Tool: 1 -> Feedrate Rapids: 1500)
(Tool: 2 -> Feedrate Rapids: 1500)
(Tool: 3 -> Feedrate Rapids: 1500)

(Z_CUT: )
(Tool: 1 -> Z_Cut: -2.1)
(Tool: 2 -> Z_Cut: -2.1)
(Tool: 3 -> Z_Cut: -2.1)

(Tools Offset: )
(Tool: 1 -> Offset Z: 0.0)
(Tool: 2 -> Offset Z: 0.0)
(Tool: 3 -> Offset Z: 0.0)

(Z_MOVE: )
(Tool: 1 -> Z_Move: 2.0)
(Tool: 2 -> Z_Move: 2.0)
(Tool: 3 -> Z_Move: 2.0)

(Z Toolchange: 5.0 mm)
(X,Y Toolchange: 0.0000, 0.0000 mm)
(Z Start: None mm)
(Z End: 0.5 mm)
(X,Y End: None mm)
(Steps per circle: 64)
(Preprocessor Excellon: default)

(X range:    2.0050 ...   68.4600  mm)
(Y range:    3.5300 ...   96.0350  mm)

(Spindle Speed: 0 RPM)
G21
G90
G94

G01 F300.00

M5
G00 Z5.0000
T1
G00 X0.0000 Y0.0000                
M6
(MSG, Change to Tool Dia = 0.8000 ||| Total drills for tool T1 = 379)
M0
G00 Z5.0000

G01 F300.00
M03
G00 X2.5400 Y85.3450
G01 Z-2.1000
G01 Z0
G00 Z2.0000
G00 X5.0800 Y85.3450
G01 Z-2.1000
G01 Z0
G00 Z2.0000
G00 X7.6200 Y85.3450
G01 Z-2.1000
G01 Z0
G00 Z2.0000
G00 X7.6200 Y82.8200
G01 Z-2.1000
G01 Z0
G00 Z2.0000
G00 X10.1600 Y82.8200
G01 Z-2.1000
G01 Z0
G00 Z2.0000
G00 X10.1600 Y85.3450
G01 Z-2.1000
G01 Z0
G00 Z2.0000
G00 X12.7000 Y82.8200
G01 Z-2.1000
G01 Z0
G00 Z2.0000
G00 X12.7000 Y85.3450
G01 Z-2.1000
G01 Z0
G00 Z2.0000
G00 X15.2400 Y85.3450
G01 Z-2.1000
G01 Z0
G00 Z2.0000
G00 X15.2400 Y82.8200
G01 Z-2.1000
G01 Z0
G00 Z2.0000
G00 X17.7800 Y82.8200
G01 Z-2.1000
G01 Z0
G00 Z2.0000
G00 X17.7800 Y85.3450
G01 Z-2.1000
G01 Z0
G00 Z2.0000
G00 X20.3200 Y85.3450
G01 Z-2.1000
G01 Z0
G00 Z2.0000
G00 X20.3050 Y82.8200
G01 Z-2.1000
G01 Z0
G00 Z2.0000
G00 X25.4000 Y85.3450
G01 Z-2.1000
G01 Z0
G00 Z2.0000
G00 X27.9400 Y92.9650
G01 Z-2.1000
G01 Z0
G00 Z2.0000
G00 X25.4000 Y92.9650
G01 Z-2.1000
G01 Z0
G00 Z2.0000
G00 X20.3200 Y92.9650
G01 Z-2.1000
G01 Z0
G00 Z2.0000
G00 X17.7800 Y92.9650
G01 Z-2.1000
G01 Z0
G00 Z2.0000
G00 X15.2400 Y92.9650
G01 Z-2.1000
G01 Z0
G00 Z2.0000
G00 X12.7000 Y92.9650
G01 Z-2.1000
G01 Z0
G00 Z2.0000
G00 X10.1600 Y92.9650
G01 Z-2.1000
G01 Z0
G00 Z2.0000
G00 X7.6200 Y92.9650
G01 Z-2.1000
G01 Z0
G00 Z2.0000
G00 X5.0800 Y92.9650
G01 Z-2.1000
G01 Z0
G00 Z2.0000
G00 X2.5400 Y92.9650
G01 Z-2.1000
G01 Z0
G00 Z2.0000
G00 X2.5550 Y95.5200
G01 Z-2.1000
G01 Z0
G00 Z2.0000
G00 X5.0950 Y95.5200
G01 Z-2.1000
G01 Z0
G00 Z2.0000
G00 X7.6500 Y95.5200
G01 Z-2.1000
G01 Z0
G00 Z2.0000
G00 X10.1750 Y95.5200
G01 Z-2.1000
G01 Z0
G00 Z2.0000
G00 X12.6850 Y95.5200
G01 Z-2.1000
G01 Z0
G00 Z2.0000
G00 X15.2550 Y95.5200
G01 Z-2.1000
G01 Z0
G00 Z2.0000
G00 X17.7950 Y95.5200
G01 Z-2.1000
G01 Z0
G00 Z2.0000
G00 X25.4300 Y95.5350
G01 Z-2.1000
G01 Z0
G00 Z2.0000
G00 X27.9700 Y95.5350
G01 Z-2.1000
G01 Z0
G00 Z2.0000
G00 X30.5100 Y95.5350
G01 Z-2.1000
G01 Z0
G00 Z2.0000
G00 X33.0500 Y95.5350
G01 Z-2.1000
G01 Z0
G00 Z2.0000
G00 X30.4800 Y92.9650
G01 Z-2.1000
G01 Z0
G00 Z2.0000
G00 X33.0200 Y92.9650
G01 Z-2.1000
G01 Z0
G00 Z2.0000
G00 X35.5600 Y92.9650
G01 Z-2.1000
G01 Z0
G00 Z2.0000
G00 X38.1150 Y95.5350
G01 Z-2.1000
G01 Z0
G00 Z2.0000
G00 X40.6400 Y95.5200
G01 Z-2.1000
G01 Z0
G00 Z2.0000
G00 X43.1800 Y92.9650
G01 Z-2.1000
G01 Z0
G00 Z2.0000
G00 X40.6400 Y92.9650
G01 Z-2.1000
G01 Z0
G00 Z2.0000
G00 X38.1000 Y92.9650
G01 Z-2.1000
G01 Z0
G00 Z2.0000
G00 X35.5600 Y85.3450
G01 Z-2.1000
G01 Z0
G00 Z2.0000
G00 X33.0200 Y85.3450
G01 Z-2.1000
G01 Z0
G00 Z2.0000
G00 X30.4800 Y85.3450
G01 Z-2.1000
G01 Z0
G00 Z2.0000
G00 X27.9400 Y85.3450
G01 Z-2.1000
G01 Z0
G00 Z2.0000
G00 X27.9550 Y82.8200
G01 Z-2.1000
G01 Z0
G00 Z2.0000
G00 X30.4950 Y82.8200
G01 Z-2.1000
G01 Z0
G00 Z2.0000
G00 X33.0350 Y82.8200
G01 Z-2.1000
G01 Z0
G00 Z2.0000
G00 X35.5750 Y82.8200
G01 Z-2.1000
G01 Z0
G00 Z2.0000
G00 X38.1150 Y82.8200
G01 Z-2.1000
G01 Z0
G00 Z2.0000
G00 X38.1000 Y85.3450
G01 Z-2.1000
G01 Z0
G00 Z2.0000
G00 X40.6400 Y85.3450
G01 Z-2.1000
G01 Z0
G00 Z2.0000
G00 X43.1800 Y85.3450
G01 Z-2.1000
G01 Z0
G00 Z2.0000
G00 X43.1800 Y82.8200
G01 Z-2.1000
G01 Z0
G00 Z2.0000
G00 X40.6550 Y82.8200
G01 Z-2.1000
G01 Z0
G00 Z2.0000
G00 X38.1150 Y77.7400
G01 Z-2.1000
G01 Z0
G00 Z2.0000
G00 X40.6550 Y77.7400
G01 Z-2.1000
G01 Z0
G00 Z2.0000
G00 X40.6550 Y72.6600
G01 Z-2.1000
G01 Z0
G00 Z2.0000
G00 X43.1950 Y72.6600
G01 Z-2.1000
G01 Z0
G00 Z2.0000
G00 X48.2750 Y70.1200
G01 Z-2.1000
G01 Z0
G00 Z2.0000
G00 X50.8150 Y65.0400
G01 Z-2.1000
G01 Z0
G00 Z2.0000
G00 X50.8150 Y62.5000
G01 Z-2.1000
G01 Z0
G00 Z2.0000
G00 X55.8950 Y57.4200
G01 Z-2.1000
G01 Z0
G00 Z2.0000
G00 X55.8950 Y54.8800
G01 Z-2.1000
G01 Z0
G00 Z2.0000
G00 X55.8950 Y52.3400
G01 Z-2.1000
G01 Z0
G00 Z2.0000
G00 X58.4350 Y52.3400
G01 Z-2.1000
G01 Z0
G00 Z2.0000
G00 X62.2450 Y52.3400
G01 Z-2.1000
G01 Z0
G00 Z2.0000
G00 X60.9750 Y54.8800
G01 Z-2.1000
G01 Z0
G00 Z2.0000
G00 X58.4350 Y54.8800
G01 Z-2.1000
G01 Z0
G00 Z2.0000
G00 X58.4350 Y57.4200
G01 Z-2.1000
G01 Z0
G00 Z2.0000
G00 X58.4350 Y59.9600
G01 Z-2.1000
G01 Z0
G00 Z2.0000
G00 X58.4350 Y65.0400
G01 Z-2.1000
G01 Z0
G00 Z2.0000
G00 X55.8950 Y65.0400
G01 Z-2.1000
G01 Z0
G00 Z2.0000
G00 X55.8950 Y67.5800
G01 Z-2.1000
G01 Z0
G00 Z2.0000
G00 X58.4350 Y67.5800
G01 Z-2.1000
G01 Z0
G00 Z2.0000
G00 X58.4350 Y70.1200
G01 Z-2.1000
G01 Z0
G00 Z2.0000
G00 X55.8950 Y70.1200
G01 Z-2.1000
G01 Z0
G00 Z2.0000
G00 X58.4350 Y72.6600
G01 Z-2.1000
G01 Z0
G00 Z2.0000
G00 X60.9750 Y72.6600
G01 Z-2.1000
G01 Z0
G00 Z2.0000
G00 X58.4350 Y77.7400
G01 Z-2.1000
G01 Z0
G00 Z2.0000
G00 X55.8950 Y77.7400
G01 Z-2.1000
G01 Z0
G00 Z2.0000
G00 X53.3400 Y82.8200
G01 Z-2.1000
G01 Z0
G00 Z2.0000
G00 X50.8000 Y82.8200
G01 Z-2.1000
G01 Z0
G00 Z2.0000
G00 X50.8000 Y85.3450
G01 Z-2.1000
G01 Z0
G00 Z2.0000
G00 X48.2600 Y85.3450
G01 Z-2.1000
G01 Z0
G00 Z2.0000
G00 X48.2600 Y92.9650
G01 Z-2.1000
G01 Z0
G00 Z2.0000
G00 X50.8000 Y92.9650
G01 Z-2.1000
G01 Z0
G00 Z2.0000
G00 X53.3400 Y92.9650
G01 Z-2.1000
G01 Z0
G00 Z2.0000
G00 X50.8300 Y95.5350
G01 Z-2.1000
G01 Z0
G00 Z2.0000
G00 X53.3700 Y95.5350
G01 Z-2.1000
G01 Z0
G00 Z2.0000
G00 X55.9100 Y95.5350
G01 Z-2.1000
G01 Z0
G00 Z2.0000
G00 X55.8800 Y92.9650
G01 Z-2.1000
G01 Z0
G00 Z2.0000
G00 X58.4200 Y92.9650
G01 Z-2.1000
G01 Z0
G00 Z2.0000
G00 X60.9600 Y92.9650
G01 Z-2.1000
G01 Z0
G00 Z2.0000
G00 X60.9750 Y95.5350
G01 Z-2.1000
G01 Z0
G00 Z2.0000
G00 X63.5150 Y95.5350
G01 Z-2.1000
G01 Z0
G00 Z2.0000
G00 X63.5000 Y92.9650
G01 Z-2.1000
G01 Z0
G00 Z2.0000
G00 X66.0400 Y92.9650
G01 Z-2.1000
G01 Z0
G00 Z2.0000
G00 X66.0400 Y85.3450
G01 Z-2.1000
G01 Z0
G00 Z2.0000
G00 X63.5000 Y85.3450
G01 Z-2.1000
G01 Z0
G00 Z2.0000
G00 X60.9600 Y85.3450
G01 Z-2.1000
G01 Z0
G00 Z2.0000
G00 X58.4200 Y85.3450
G01 Z-2.1000
G01 Z0
G00 Z2.0000
G00 X55.8800 Y85.3450
G01 Z-2.1000
G01 Z0
G00 Z2.0000
G00 X53.3400 Y85.3450
G01 Z-2.1000
G01 Z0
G00 Z2.0000
G00 X55.8800 Y82.8200
G01 Z-2.1000
G01 Z0
G00 Z2.0000
G00 X58.4200 Y82.8200
G01 Z-2.1000
G01 Z0
G00 Z2.0000
G00 X60.9600 Y82.8200
G01 Z-2.1000
G01 Z0
G00 Z2.0000
G00 X63.5000 Y82.8200
G01 Z-2.1000
G01 Z0
G00 Z2.0000
G00 X66.0250 Y82.8200
G01 Z-2.1000
G01 Z0
G00 Z2.0000
G00 X67.9600 Y80.2800
G01 Z-2.1000
G01 Z0
G00 Z2.0000
G00 X67.9600 Y77.7400
G01 Z-2.1000
G01 Z0
G00 Z2.0000
G00 X67.9600 Y75.2000
G01 Z-2.1000
G01 Z0
G00 Z2.0000
G00 X67.9600 Y72.6600
G01 Z-2.1000
G01 Z0
G00 Z2.0000
G00 X66.0550 Y70.1200
G01 Z-2.1000
G01 Z0
G00 Z2.0000
G00 X60.9750 Y67.5800
G01 Z-2.1000
G01 Z0
G00 Z2.0000
G00 X62.2450 Y65.0400
G01 Z-2.1000
G01 Z0
G00 Z2.0000
G00 X60.9750 Y59.9600
G01 Z-2.1000
G01 Z0
G00 Z2.0000
G00 X66.0550 Y57.4200
G01 Z-2.1000
G01 Z0
G00 Z2.0000
G00 X66.0550 Y44.7200
G01 Z-2.1000
G01 Z0
G00 Z2.0000
G00 X60.9750 Y47.2600
G01 Z-2.1000
G01 Z0
G00 Z2.0000
G00 X58.4350 Y47.2600
G01 Z-2.1000
G01 Z0
G00 Z2.0000
G00 X58.4350 Y44.7200
G01 Z-2.1000
G01 Z0
G00 Z2.0000
G00 X60.9750 Y42.1800
G01 Z-2.1000
G01 Z0
G00 Z2.0000
G00 X62.2450 Y39.6400
G01 Z-2.1000
G01 Z0
G00 Z2.0000
G00 X58.4350 Y39.6400
G01 Z-2.1000
G01 Z0
G00 Z2.0000
G00 X58.4350 Y42.1800
G01 Z-2.1000
G01 Z0
G00 Z2.0000
G00 X55.8950 Y44.7200
G01 Z-2.1000
G01 Z0
G00 Z2.0000
G00 X55.8950 Y42.1800
G01 Z-2.1000
G01 Z0
G00 Z2.0000
G00 X55.8950 Y39.6400
G01 Z-2.1000
G01 Z0
G00 Z2.0000
G00 X50.8150 Y39.6400
G01 Z-2.1000
G01 Z0
G00 Z2.0000
G00 X50.8150 Y37.1000
G01 Z-2.1000
G01 Z0
G00 Z2.0000
G00 X48.2750 Y32.0200
G01 Z-2.1000
G01 Z0
G00 Z2.0000
G00 X43.1950 Y29.4800
G01 Z-2.1000
G01 Z0
G00 Z2.0000
G00 X40.6550 Y29.4800
G01 Z-2.1000
G01 Z0
G00 Z2.0000
G00 X40.6550 Y32.0200
G01 Z-2.1000
G01 Z0
G00 Z2.0000
G00 X43.1950 Y34.5600
G01 Z-2.1000
G01 Z0
G00 Z2.0000
G00 X40.6550 Y34.5600
G01 Z-2.1000
G01 Z0
G00 Z2.0000
G00 X38.1150 Y32.0200
G01 Z-2.1000
G01 Z0
G00 Z2.0000
G00 X38.1150 Y29.4800
G01 Z-2.1000
G01 Z0
G00 Z2.0000
G00 X38.1150 Y26.6150
G01 Z-2.1000
G01 Z0
G00 Z2.0000
G00 X40.6550 Y26.9400
G01 Z-2.1000
G01 Z0
G00 Z2.0000
G00 X44.4650 Y26.9400
G01 Z-2.1000
G01 Z0
G00 Z2.0000
G00 X43.1950 Y21.5350
G01 Z-2.1000
G01 Z0
G00 Z2.0000
G00 X40.6550 Y21.5350
G01 Z-2.1000
G01 Z0
G00 Z2.0000
G00 X40.6550 Y18.9950
G01 Z-2.1000
G01 Z0
G00 Z2.0000
G00 X40.6550 Y16.4550
G01 Z-2.1000
G01 Z0
G00 Z2.0000
G00 X43.1950 Y16.4550
G01 Z-2.1000
G01 Z0
G00 Z2.0000
G00 X44.4650 Y14.2400
G01 Z-2.1000
G01 Z0
G00 Z2.0000
G00 X40.6550 Y14.2400
G01 Z-2.1000
G01 Z0
G00 Z2.0000
G00 X38.1150 Y14.2400
G01 Z-2.1000
G01 Z0
G00 Z2.0000
G00 X38.1150 Y16.4550
G01 Z-2.1000
G01 Z0
G00 Z2.0000
G00 X38.1150 Y18.9950
G01 Z-2.1000
G01 Z0
G00 Z2.0000
G00 X30.4950 Y19.3200
G01 Z-2.1000
G01 Z0
G00 Z2.0000
G00 X25.4150 Y16.7800
G01 Z-2.1000
G01 Z0
G00 Z2.0000
G00 X22.8750 Y16.7800
G01 Z-2.1000
G01 Z0
G00 Z2.0000
G00 X22.8750 Y19.3200
G01 Z-2.1000
G01 Z0
G00 Z2.0000
G00 X25.4150 Y21.8600
G01 Z-2.1000
G01 Z0
G00 Z2.0000
G00 X22.8750 Y21.8600
G01 Z-2.1000
G01 Z0
G00 Z2.0000
G00 X20.3350 Y19.3200
G01 Z-2.1000
G01 Z0
G00 Z2.0000
G00 X20.3350 Y16.7800
G01 Z-2.1000
G01 Z0
G00 Z2.0000
G00 X20.3350 Y14.2400
G01 Z-2.1000
G01 Z0
G00 Z2.0000
G00 X22.8750 Y14.2400
G01 Z-2.1000
G01 Z0
G00 Z2.0000
G00 X26.6850 Y14.2400
G01 Z-2.1000
G01 Z0
G00 Z2.0000
G00 X25.4150 Y9.1600
G01 Z-2.1000
G01 Z0
G00 Z2.0000
G00 X22.8750 Y9.1600
G01 Z-2.1000
G01 Z0
G00 Z2.0000
G00 X22.8750 Y6.6200
G01 Z-2.1000
G01 Z0
G00 Z2.0000
G00 X30.4950 Y6.6200
G01 Z-2.1000
G01 Z0
G00 Z2.0000
G00 X38.1150 Y6.6200
G01 Z-2.1000
G01 Z0
G00 Z2.0000
G00 X40.6550 Y6.6200
G01 Z-2.1000
G01 Z0
G00 Z2.0000
G00 X40.6550 Y9.1600
G01 Z-2.1000
G01 Z0
G00 Z2.0000
G00 X43.1950 Y9.1600
G01 Z-2.1000
G01 Z0
G00 Z2.0000
G00 X50.8150 Y11.7000
G01 Z-2.1000
G01 Z0
G00 Z2.0000
G00 X50.8150 Y14.2400
G01 Z-2.1000
G01 Z0
G00 Z2.0000
G00 X50.8150 Y16.7800
G01 Z-2.1000
G01 Z0
G00 Z2.0000
G00 X48.2750 Y18.9950
G01 Z-2.1000
G01 Z0
G00 Z2.0000
G00 X50.8150 Y24.4000
G01 Z-2.1000
G01 Z0
G00 Z2.0000
G00 X50.8150 Y26.9400
G01 Z-2.1000
G01 Z0
G00 Z2.0000
G00 X55.8950 Y29.4800
G01 Z-2.1000
G01 Z0
G00 Z2.0000
G00 X55.8950 Y32.0200
G01 Z-2.1000
G01 Z0
G00 Z2.0000
G00 X58.4350 Y32.0200
G01 Z-2.1000
G01 Z0
G00 Z2.0000
G00 X58.4350 Y34.5600
G01 Z-2.1000
G01 Z0
G00 Z2.0000
G00 X60.9750 Y34.5600
G01 Z-2.1000
G01 Z0
G00 Z2.0000
G00 X66.0550 Y32.0200
G01 Z-2.1000
G01 Z0
G00 Z2.0000
G00 X62.2450 Y26.9400
G01 Z-2.1000
G01 Z0
G00 Z2.0000
G00 X60.9750 Y29.4800
G01 Z-2.1000
G01 Z0
G00 Z2.0000
G00 X58.4350 Y29.4800
G01 Z-2.1000
G01 Z0
G00 Z2.0000
G00 X58.4350 Y26.9400
G01 Z-2.1000
G01 Z0
G00 Z2.0000
G00 X55.8950 Y26.9400
G01 Z-2.1000
G01 Z0
G00 Z2.0000
G00 X55.8950 Y19.3200
G01 Z-2.1000
G01 Z0
G00 Z2.0000
G00 X55.8950 Y16.7800
G01 Z-2.1000
G01 Z0
G00 Z2.0000
G00 X55.8950 Y14.2400
G01 Z-2.1000
G01 Z0
G00 Z2.0000
G00 X58.4350 Y14.2400
G01 Z-2.1000
G01 Z0
G00 Z2.0000
G00 X58.4350 Y16.7800
G01 Z-2.1000
G01 Z0
G00 Z2.0000
G00 X58.4350 Y19.3200
G01 Z-2.1000
G01 Z0
G00 Z2.0000
G00 X58.4350 Y21.8600
G01 Z-2.1000
G01 Z0
G00 Z2.0000
G00 X60.9750 Y21.8600
G01 Z-2.1000
G01 Z0
G00 Z2.0000
G00 X66.0550 Y19.3200
G01 Z-2.1000
G01 Z0
G00 Z2.0000
G00 X60.9750 Y16.7800
G01 Z-2.1000
G01 Z0
G00 Z2.0000
G00 X62.2450 Y14.2400
G01 Z-2.1000
G01 Z0
G00 Z2.0000
G00 X60.9750 Y9.1600
G01 Z-2.1000
G01 Z0
G00 Z2.0000
G00 X58.4350 Y9.1600
G01 Z-2.1000
G01 Z0
G00 Z2.0000
G00 X58.4350 Y6.6200
G01 Z-2.1000
G01 Z0
G00 Z2.0000
G00 X66.0550 Y6.6200
G01 Z-2.1000
G01 Z0
G00 Z2.0000
G00 X63.5150 Y4.0800
G01 Z-2.1000
G01 Z0
G00 Z2.0000
G00 X60.9750 Y4.0800
G01 Z-2.1000
G01 Z0
G00 Z2.0000
G00 X58.4350 Y4.0800
G01 Z-2.1000
G01 Z0
G00 Z2.0000
G00 X55.8950 Y4.0800
G01 Z-2.1000
G01 Z0
G00 Z2.0000
G00 X55.8950 Y6.6200
G01 Z-2.1000
G01 Z0
G00 Z2.0000
G00 X50.8150 Y9.1600
G01 Z-2.1000
G01 Z0
G00 Z2.0000
G00 X48.2750 Y6.6200
G01 Z-2.1000
G01 Z0
G00 Z2.0000
G00 X45.7350 Y4.0800
G01 Z-2.1000
G01 Z0
G00 Z2.0000
G00 X43.1950 Y4.0800
G01 Z-2.1000
G01 Z0
G00 Z2.0000
G00 X40.6550 Y4.0800
G01 Z-2.1000
G01 Z0
G00 Z2.0000
G00 X38.1150 Y4.0800
G01 Z-2.1000
G01 Z0
G00 Z2.0000
G00 X27.9550 Y4.0800
G01 Z-2.1000
G01 Z0
G00 Z2.0000
G00 X25.4150 Y4.0800
G01 Z-2.1000
G01 Z0
G00 Z2.0000
G00 X22.8750 Y4.0800
G01 Z-2.1000
G01 Z0
G00 Z2.0000
G00 X20.3350 Y4.0800
G01 Z-2.1000
G01 Z0
G00 Z2.0000
G00 X20.3350 Y6.6200
G01 Z-2.1000
G01 Z0
G00 Z2.0000
G00 X15.2550 Y16.7800
G01 Z-2.1000
G01 Z0
G00 Z2.0000
G00 X15.2550 Y14.2400
G01 Z-2.1000
G01 Z0
G00 Z2.0000
G00 X15.2550 Y11.7000
G01 Z-2.1000
G01 Z0
G00 Z2.0000
G00 X15.2550 Y9.1600
G01 Z-2.1000
G01 Z0
G00 Z2.0000
G00 X12.7150 Y6.6200
G01 Z-2.1000
G01 Z0
G00 Z2.0000
G00 X10.1750 Y4.0800
G01 Z-2.1000
G01 Z0
G00 Z2.0000
G00 X7.6350 Y4.0800
G01 Z-2.1000
G01 Z0
G00 Z2.0000
G00 X5.0950 Y4.0800
G01 Z-2.1000
G01 Z0
G00 Z2.0000
G00 X2.5550 Y4.0800
G01 Z-2.1000
G01 Z0
G00 Z2.0000
G00 X2.5550 Y6.6200
G01 Z-2.1000
G01 Z0
G00 Z2.0000
G00 X5.0950 Y6.6200
G01 Z-2.1000
G01 Z0
G00 Z2.0000
G00 X5.0950 Y9.1600
G01 Z-2.1000
G01 Z0
G00 Z2.0000
G00 X7.6350 Y9.1600
G01 Z-2.1000
G01 Z0
G00 Z2.0000
G00 X8.9050 Y14.2400
G01 Z-2.1000
G01 Z0
G00 Z2.0000
G00 X5.0950 Y14.2400
G01 Z-2.1000
G01 Z0
G00 Z2.0000
G00 X2.5550 Y14.2400
G01 Z-2.1000
G01 Z0
G00 Z2.0000
G00 X2.5550 Y16.5200
G01 Z-2.1000
G01 Z0
G00 Z2.0000
G00 X2.5550 Y19.0600
G01 Z-2.1000
G01 Z0
G00 Z2.0000
G00 X5.0950 Y21.8600
G01 Z-2.1000
G01 Z0
G00 Z2.0000
G00 X7.6350 Y21.8600
G01 Z-2.1000
G01 Z0
G00 Z2.0000
G00 X5.0950 Y19.3200
G01 Z-2.1000
G01 Z0
G00 Z2.0000
G00 X5.0950 Y16.5200
G01 Z-2.1000
G01 Z0
G00 Z2.0000
G00 X7.6350 Y16.5200
G01 Z-2.1000
G01 Z0
G00 Z2.0000
G00 X12.7150 Y19.3200
G01 Z-2.1000
G01 Z0
G00 Z2.0000
G00 X15.2550 Y24.4000
G01 Z-2.1000
G01 Z0
G00 Z2.0000
G00 X15.2550 Y26.9400
G01 Z-2.1000
G01 Z0
G00 Z2.0000
G00 X20.3350 Y26.9400
G01 Z-2.1000
G01 Z0
G00 Z2.0000
G00 X22.8750 Y26.9400
G01 Z-2.1000
G01 Z0
G00 Z2.0000
G00 X26.6850 Y26.9400
G01 Z-2.1000
G01 Z0
G00 Z2.0000
G00 X25.4150 Y29.4800
G01 Z-2.1000
G01 Z0
G00 Z2.0000
G00 X30.4950 Y32.0200
G01 Z-2.1000
G01 Z0
G00 Z2.0000
G00 X25.4150 Y34.5600
G01 Z-2.1000
G01 Z0
G00 Z2.0000
G00 X22.8750 Y34.5600
G01 Z-2.1000
G01 Z0
G00 Z2.0000
G00 X22.8750 Y32.0200
G01 Z-2.1000
G01 Z0
G00 Z2.0000
G00 X22.8750 Y29.4800
G01 Z-2.1000
G01 Z0
G00 Z2.0000
G00 X20.3350 Y29.4800
G01 Z-2.1000
G01 Z0
G00 Z2.0000
G00 X20.3350 Y32.0200
G01 Z-2.1000
G01 Z0
G00 Z2.0000
G00 X20.3350 Y39.6400
G01 Z-2.1000
G01 Z0
G00 Z2.0000
G00 X22.8750 Y39.6400
G01 Z-2.1000
G01 Z0
G00 Z2.0000
G00 X20.3350 Y42.1800
G01 Z-2.1000
G01 Z0
G00 Z2.0000
G00 X15.2550 Y39.6400
G01 Z-2.1000
G01 Z0
G00 Z2.0000
G00 X15.2550 Y37.1000
G01 Z-2.1000
G01 Z0
G00 Z2.0000
G00 X12.7150 Y32.0200
G01 Z-2.1000
G01 Z0
G00 Z2.0000
G00 X7.6350 Y29.4800
G01 Z-2.1000
G01 Z0
G00 Z2.0000
G00 X8.9050 Y26.9400
G01 Z-2.1000
G01 Z0
G00 Z2.0000
G00 X5.0950 Y26.9400
G01 Z-2.1000
G01 Z0
G00 Z2.0000
G00 X2.5550 Y26.6800
G01 Z-2.1000
G01 Z0
G00 Z2.0000
G00 X2.5550 Y29.4800
G01 Z-2.1000
G01 Z0
G00 Z2.0000
G00 X2.5550 Y32.0200
G01 Z-2.1000
G01 Z0
G00 Z2.0000
G00 X5.0950 Y29.4800
G01 Z-2.1000
G01 Z0
G00 Z2.0000
G00 X5.0950 Y32.0200
G01 Z-2.1000
G01 Z0
G00 Z2.0000
G00 X5.0950 Y34.5600
G01 Z-2.1000
G01 Z0
G00 Z2.0000
G00 X7.6350 Y34.5600
G01 Z-2.1000
G01 Z0
G00 Z2.0000
G00 X8.9050 Y39.6400
G01 Z-2.1000
G01 Z0
G00 Z2.0000
G00 X5.0950 Y39.6400
G01 Z-2.1000
G01 Z0
G00 Z2.0000
G00 X2.5550 Y39.6400
G01 Z-2.1000
G01 Z0
G00 Z2.0000
G00 X2.5550 Y42.1800
G01 Z-2.1000
G01 Z0
G00 Z2.0000
G00 X2.5550 Y44.7200
G01 Z-2.1000
G01 Z0
G00 Z2.0000
G00 X2.5550 Y52.3400
G01 Z-2.1000
G01 Z0
G00 Z2.0000
G00 X5.0950 Y52.3400
G01 Z-2.1000
G01 Z0
G00 Z2.0000
G00 X8.9050 Y52.3400
G01 Z-2.1000
G01 Z0
G00 Z2.0000
G00 X7.6350 Y47.2600
G01 Z-2.1000
G01 Z0
G00 Z2.0000
G00 X5.0950 Y47.2600
G01 Z-2.1000
G01 Z0
G00 Z2.0000
G00 X5.0950 Y44.7200
G01 Z-2.1000
G01 Z0
G00 Z2.0000
G00 X5.0950 Y42.1800
G01 Z-2.1000
G01 Z0
G00 Z2.0000
G00 X7.6350 Y42.1800
G01 Z-2.1000
G01 Z0
G00 Z2.0000
G00 X12.7150 Y44.7200
G01 Z-2.1000
G01 Z0
G00 Z2.0000
G00 X15.2550 Y49.8000
G01 Z-2.1000
G01 Z0
G00 Z2.0000
G00 X15.2550 Y52.3400
G01 Z-2.1000
G01 Z0
G00 Z2.0000
G00 X20.3350 Y52.3400
G01 Z-2.1000
G01 Z0
G00 Z2.0000
G00 X22.8750 Y52.3400
G01 Z-2.1000
G01 Z0
G00 Z2.0000
G00 X26.6850 Y52.3400
G01 Z-2.1000
G01 Z0
G00 Z2.0000
G00 X25.4150 Y47.2600
G01 Z-2.1000
G01 Z0
G00 Z2.0000
G00 X22.8750 Y47.2600
G01 Z-2.1000
G01 Z0
G00 Z2.0000
G00 X20.3350 Y44.7200
G01 Z-2.1000
G01 Z0
G00 Z2.0000
G00 X22.8750 Y44.7200
G01 Z-2.1000
G01 Z0
G00 Z2.0000
G00 X22.8750 Y42.1800
G01 Z-2.1000
G01 Z0
G00 Z2.0000
G00 X25.4150 Y42.1800
G01 Z-2.1000
G01 Z0
G00 Z2.0000
G00 X26.6850 Y39.6400
G01 Z-2.1000
G01 Z0
G00 Z2.0000
G00 X30.4950 Y44.7200
G01 Z-2.1000
G01 Z0
G00 Z2.0000
G00 X38.1150 Y44.7200
G01 Z-2.1000
G01 Z0
G00 Z2.0000
G00 X38.1150 Y42.1800
G01 Z-2.1000
G01 Z0
G00 Z2.0000
G00 X38.1150 Y39.6400
G01 Z-2.1000
G01 Z0
G00 Z2.0000
G00 X40.6550 Y39.6400
G01 Z-2.1000
G01 Z0
G00 Z2.0000
G00 X44.4650 Y39.6400
G01 Z-2.1000
G01 Z0
G00 Z2.0000
G00 X43.1950 Y42.1800
G01 Z-2.1000
G01 Z0
G00 Z2.0000
G00 X40.6550 Y42.1800
G01 Z-2.1000
G01 Z0
G00 Z2.0000
G00 X40.6550 Y44.7200
G01 Z-2.1000
G01 Z0
G00 Z2.0000
G00 X40.6550 Y47.2600
G01 Z-2.1000
G01 Z0
G00 Z2.0000
G00 X43.1950 Y47.2600
G01 Z-2.1000
G01 Z0
G00 Z2.0000
G00 X48.2750 Y44.7200
G01 Z-2.1000
G01 Z0
G00 Z2.0000
G00 X50.8150 Y49.8000
G01 Z-2.1000
G01 Z0
G00 Z2.0000
G00 X50.8150 Y52.3400
G01 Z-2.1000
G01 Z0
G00 Z2.0000
G00 X44.4650 Y52.3400
G01 Z-2.1000
G01 Z0
G00 Z2.0000
G00 X40.6550 Y52.3400
G01 Z-2.1000
G01 Z0
G00 Z2.0000
G00 X38.1150 Y52.3400
G01 Z-2.1000
G01 Z0
G00 Z2.0000
G00 X38.1150 Y54.8800
G01 Z-2.1000
G01 Z0
G00 Z2.0000
G00 X38.1150 Y57.4200
G01 Z-2.1000
G01 Z0
G00 Z2.0000
G00 X30.4950 Y57.4200
G01 Z-2.1000
G01 Z0
G00 Z2.0000
G00 X25.4150 Y54.8800
G01 Z-2.1000
G01 Z0
G00 Z2.0000
G00 X22.8750 Y54.8800
G01 Z-2.1000
G01 Z0
G00 Z2.0000
G00 X20.3350 Y54.8800
G01 Z-2.1000
G01 Z0
G00 Z2.0000
G00 X20.3350 Y57.4200
G01 Z-2.1000
G01 Z0
G00 Z2.0000
G00 X22.8750 Y57.4200
G01 Z-2.1000
G01 Z0
G00 Z2.0000
G00 X22.8750 Y59.9600
G01 Z-2.1000
G01 Z0
G00 Z2.0000
G00 X25.4150 Y59.9600
G01 Z-2.1000
G01 Z0
G00 Z2.0000
G00 X26.6850 Y65.0400
G01 Z-2.1000
G01 Z0
G00 Z2.0000
G00 X25.4150 Y67.5800
G01 Z-2.1000
G01 Z0
G00 Z2.0000
G00 X22.8750 Y67.5800
G01 Z-2.1000
G01 Z0
G00 Z2.0000
G00 X22.8750 Y70.1200
G01 Z-2.1000
G01 Z0
G00 Z2.0000
G00 X22.8750 Y72.6600
G01 Z-2.1000
G01 Z0
G00 Z2.0000
G00 X25.4150 Y72.6600
G01 Z-2.1000
G01 Z0
G00 Z2.0000
G00 X30.4950 Y70.1200
G01 Z-2.1000
G01 Z0
G00 Z2.0000
G00 X38.1150 Y67.5800
G01 Z-2.1000
G01 Z0
G00 Z2.0000
G00 X38.1150 Y65.0400
G01 Z-2.1000
G01 Z0
G00 Z2.0000
G00 X40.6550 Y65.0400
G01 Z-2.1000
G01 Z0
G00 Z2.0000
G00 X40.6550 Y59.9600
G01 Z-2.1000
G01 Z0
G00 Z2.0000
G00 X40.6550 Y57.4200
G01 Z-2.1000
G01 Z0
G00 Z2.0000
G00 X40.6550 Y54.8800
G01 Z-2.1000
G01 Z0
G00 Z2.0000
G00 X43.1950 Y54.8800
G01 Z-2.1000
G01 Z0
G00 Z2.0000
G00 X48.2750 Y57.4200
G01 Z-2.1000
G01 Z0
G00 Z2.0000
G00 X43.1950 Y59.9600
G01 Z-2.1000
G01 Z0
G00 Z2.0000
G00 X44.4650 Y65.0400
G01 Z-2.1000
G01 Z0
G00 Z2.0000
G00 X43.1950 Y67.5800
G01 Z-2.1000
G01 Z0
G00 Z2.0000
G00 X40.6550 Y67.5800
G01 Z-2.1000
G01 Z0
G00 Z2.0000
G00 X40.6550 Y70.1200
G01 Z-2.1000
G01 Z0
G00 Z2.0000
G00 X38.1150 Y70.1200
G01 Z-2.1000
G01 Z0
G00 Z2.0000
G00 X22.8750 Y77.7400
G01 Z-2.1000
G01 Z0
G00 Z2.0000
G00 X20.3350 Y77.7400
G01 Z-2.1000
G01 Z0
G00 Z2.0000
G00 X20.3350 Y70.1200
G01 Z-2.1000
G01 Z0
G00 Z2.0000
G00 X20.3350 Y67.5800
G01 Z-2.1000
G01 Z0
G00 Z2.0000
G00 X22.8750 Y65.0400
G01 Z-2.1000
G01 Z0
G00 Z2.0000
G00 X20.3350 Y65.0400
G01 Z-2.1000
G01 Z0
G00 Z2.0000
G00 X15.2550 Y65.0400
G01 Z-2.1000
G01 Z0
G00 Z2.0000
G00 X15.2550 Y62.5000
G01 Z-2.1000
G01 Z0
G00 Z2.0000
G00 X12.7150 Y57.4200
G01 Z-2.1000
G01 Z0
G00 Z2.0000
G00 X7.6350 Y54.8800
G01 Z-2.1000
G01 Z0
G00 Z2.0000
G00 X5.0950 Y54.8800
G01 Z-2.1000
G01 Z0
G00 Z2.0000
G00 X2.5550 Y54.8800
G01 Z-2.1000
G01 Z0
G00 Z2.0000
G00 X2.5550 Y57.4200
G01 Z-2.1000
G01 Z0
G00 Z2.0000
G00 X5.0950 Y57.4200
G01 Z-2.1000
G01 Z0
G00 Z2.0000
G00 X5.0950 Y59.9600
G01 Z-2.1000
G01 Z0
G00 Z2.0000
G00 X7.6350 Y59.9600
G01 Z-2.1000
G01 Z0
G00 Z2.0000
G00 X8.9050 Y65.0400
G01 Z-2.1000
G01 Z0
G00 Z2.0000
G00 X7.6350 Y67.5800
G01 Z-2.1000
G01 Z0
G00 Z2.0000
G00 X5.0950 Y67.5800
G01 Z-2.1000
G01 Z0
G00 Z2.0000
G00 X5.0950 Y65.0400
G01 Z-2.1000
G01 Z0
G00 Z2.0000
G00 X2.5550 Y65.0400
G01 Z-2.1000
G01 Z0
G00 Z2.0000
G00 X2.5550 Y67.5800
G01 Z-2.1000
G01 Z0
G00 Z2.0000
G00 X2.5550 Y70.1200
G01 Z-2.1000
G01 Z0
G00 Z2.0000
G00 X5.0950 Y70.1200
G01 Z-2.1000
G01 Z0
G00 Z2.0000
G00 X12.7150 Y70.1200
G01 Z-2.1000
G01 Z0
G00 Z2.0000
G00 X7.6350 Y72.6600
G01 Z-2.1000
G01 Z0
G00 Z2.0000
G00 X5.0950 Y72.6600
G01 Z-2.1000
G01 Z0
G00 Z2.0000
G00 X2.5550 Y77.7400
G01 Z-2.1000
G01 Z0
G00 Z2.0000
G00 X5.0950 Y77.7400
G01 Z-2.1000
G01 Z0
G00 Z2.0000
G00 X5.0800 Y82.8200
G01 Z-2.1000
G01 Z0
G00 Z2.0000
M05
G00 Z0.50


